/* XPM */
static const char *wall[] = {
/* columns rows colors chars-per-pixel */
"64 64 123 2 ",
"   c #778F9E",
".  c #7B8F9B",
"X  c #75909F",
"o  c #5D94AE",
"O  c #4F96B7",
"+  c #4597BD",
"@  c #4C96B9",
"#  c #5195B5",
"$  c #5994B0",
"%  c #5096B8",
"&  c #6B91A5",
"*  c #6393AA",
"=  c #7390A0",
"-  c #1B9ED7",
";  c #149FDC",
":  c #1A9ED9",
">  c #279CCF",
",  c #2B9BCD",
"<  c #369AC6",
"1  c #3D99C2",
"2  c #309ACA",
"3  c #239DD2",
"4  c #0FA0DF",
"5  c #009EE7",
"6  c #03A1E6",
"7  c #0CA0E1",
"8  c #00A2E8",
"9  c #0DA6E9",
"0  c #10A5E9",
"q  c #15A9EA",
"w  c #1CACEB",
"e  c #21ACEB",
"r  c #2CB2EC",
"t  c #32B4EC",
"y  c #3CB7ED",
"u  c #3EB9EE",
"i  c #4198C0",
"p  c #43BAEE",
"a  c #4CBDEF",
"s  c #52C0EF",
"d  c #57C2F0",
"f  c #5EC4F0",
"g  c #63C6F1",
"h  c #6BC9F2",
"j  c #78CEF3",
"k  c #8E8C8F",
"l  c #928B8D",
"z  c #858D95",
"x  c #8D8C90",
"c  c #808E98",
"v  c #87D3F4",
"b  c #8CD5F5",
"n  c #91D7F5",
"m  c #90D6F5",
"M  c #91D5F5",
"N  c #91D6F5",
"B  c #94D8F5",
"V  c #95D9F5",
"C  c #97D9F6",
"Z  c #94D8F5",
"A  c #9AD9F6",
"S  c #99DAF6",
"D  c #9ADAF6",
"F  c #9BDBF6",
"G  c #9CDBF6",
"H  c #9FDCF6",
"J  c #9BDAF6",
"K  c #A3DEF7",
"L  c #A4DEF7",
"P  c #A5DEF7",
"I  c #A7DFF7",
"U  c #B2E2F8",
"Y  c #B4E4F8",
"T  c #B4E3F8",
"R  c #B9E6F9",
"E  c #BEE7F9",
"W  c #B9E5F9",
"Q  c #BFE8F9",
"!  c #BFE8F9",
"~  c #C1E8F9",
"^  c #C3E9FA",
"/  c #C6EAFA",
"(  c #C9EBFA",
")  c #CFEEFB",
"_  c #C9EBFA",
"`  c #D1EEFB",
"'  c #D3EEFB",
"]  c #D2EFFB",
"[  c #D3EFFB",
"{  c #D3EFFB",
"}  c #D5F0FB",
"|  c #D7F0FB",
" . c #D6F0FB",
".. c #D9F1FC",
"X. c #DEF3FC",
"o. c #E0F4FC",
"O. c #E2F4FC",
"+. c #E5F5FD",
"@. c #E6F6FD",
"#. c #E7F6FD",
"$. c #E4F5FD",
"%. c #E8F6FD",
"&. c #E8F7FD",
"*. c #EAF7FD",
"=. c #E8F7FD",
"-. c #EBF8FD",
";. c #ECF8FD",
":. c #EFF9FE",
">. c #F1FAFE",
",. c #F2FAFE",
"<. c #F3FBFE",
"1. c #F5FBFE",
"2. c #F3FBFE",
"3. c #F8FCFE",
"4. c #F8FDFE",
"5. c #F9FDFE",
"6. c #FAFDFF",
"7. c #FBFDFF",
"8. c #FBFEFF",
"9. c #FCFEFF",
"0. c #FEFFFF",
"q. c white",
"w. c #FFFFFF",
/* pixels */
"x x x x x x x x x x x x x x x x x x x x x x x x x x x l * 7 8 8 8 8 8 8 , c l x x x x x x x x x x x x x x x x x x x x x x x x x ",
"x x x x x x x x x x x x x x x x x x x x x x x x x x x l * 7 8 8 8 8 8 8 , z l x x x x x x x x x x x x x x x x x x x x x x x x x ",
"x x x x x x x x x x x x x x x x x x x x x x x x x x x z $ 7 8 8 8 8 8 8 3 X z x x x x x x x x x x x x x x x x x x x x x x x x x ",
"x x x x x x x x x x x x x x x x x x x x x x x x x l z @ - 6 8 8 8 8 8 8 7 , * k k x x x x x x x x x x x x x x x x x x x x x x x ",
"x x x x x x x x x x x x x x x x x x x x x x x x x l c , 8 8 8 8 8 8 8 8 8 6 % k k x x x x x x x x x x x x x x x x x x x x x x x ",
"x x x x x x x x x x x x x x x x x x x x x x x x x l c , 8 8 8 8 8 8 8 8 8 6 # k k x x x x x x x x x x x x x x x x x x x x x x x ",
"x x x x x x x x x x x x x x x x x x x x x x x x x l z , 8 8 8 8 8 8 8 8 8 6 # l k x x x x x x x x x x x x x x x x x x x x x x x ",
"x x x x x x x x x x x x x x x x x x x x x x x x x z & 3 8 8 8 8 8 8 8 8 8 8 i . z k x x x x x x x x x x x x x x x x x x x x x x ",
"x x x x x x x x x x x x x x x x x x x x x x x k k o - 6 8 8 8 8 8 8 8 8 8 8 7 2 . l x x x x x x x x x x x x x x x x x x x x x x ",
"x x x x x x x x x x x x x x x x x x x x x x x k k % 6 8 8 8 8 8 8 8 8 8 8 8 8 : = l x x x x x x x x x x x x x x x x x x x x x x ",
"x x x x x x x x x x x x x x x x x x x x x x x k k # 6 8 8 8 8 8 8 8 8 8 8 8 8 : = l x x x x x x x x x x x x x x x x x x x x x x ",
"x x x x x x x x x x x x x x x x x x x x x x x k l # 6 8 8 8 8 8 8 8 8 8 8 8 8 - X l x x x x x x x x x x x x x x x x x x x x x x ",
"x x x x x x x x x x x x x x x x x x x x x x k z & < 8 8 8 8 8 8 8 8 8 8 8 8 8 ; # . x k x x x x x x x x x x x x x x x x x x x x ",
"x x x x x x x x x x x x x x x x x x x x x x l X 3 8 8 8 8 8 8 8 6 6 8 8 8 8 8 8 7 + z l x x x x x x x x x x x x x x x x x x x x ",
"x x x x x x x x x x x x x x x x x x x x x x l = : 8 8 8 8 8 8 w j d 6 8 8 8 8 8 8 1 z l x x x x x x x x x x x x x x x x x x x x ",
"x x x x x x x x x x x x x x x x x x x x x x l X - 8 8 8 8 8 5 t ` F 6 8 8 8 8 8 8 1 z l x x x x x x x x x x x x x x x x x x x x ",
"x x x x x x x x x x x x x x x x x x x x x x l X - 8 8 8 8 8 5 t ` F 6 8 8 8 8 8 8 1 z l x x x x x x x x x x x x x x x x x x x x ",
"x x x x x x x x x x x x x x x x x x x x k z & i 4 8 8 8 8 8 5 t ` F 6 5 8 8 8 8 8 3 # . k x x x x x x x x x x x x x x x x x x x ",
"x x x x x x x x x x x x x x x x x x x x l z 1 8 8 8 8 8 8 8 6 p } I w 8 8 8 8 8 8 8 ; * l x x x x x x x x x x x x x x x x x x x ",
"x x x x x x x x x x x x x x x x x x x x l z 1 8 8 8 8 8 8 6 g ^ >.#.I t 8 8 8 8 8 8 7 * l x x x x x x x x x x x x x x x x x x x ",
"x x x x x x x x x x x x x x x x x k l l l x 1 8 8 8 8 8 8 6 n q.q.q.%.a 5 8 8 8 8 8 7 * l l l l x x x x x x x x x x x x x x x x ",
"x x x x x x x x x x x x x x x x x z z z x z 1 8 8 8 8 8 8 6 n q.q.q.%.a 5 8 8 8 8 8 7 * x z z z x x x x x x x x x x x x x x x x ",
"x x x x x x x x x x x x k l l l l & 1 1 1 1 - 8 8 8 8 8 5 6 n q.q.q.%.a 5 8 8 8 8 8 6 , 1 1 < @ z l l l l x x x x x x x x x x x ",
"x x x x x x x x k k k k z X = = X i 8 8 8 8 8 8 8 8 8 8 9 t I q.q.q.:.h w 6 8 8 8 8 8 8 8 8 8 ; o   = = . x k k k x x x x x x x ",
"x x x x x x x x k k k l & 3 : - - 4 8 8 8 8 8 8 8 8 8 8 u E >.q.q.q.3.#.n 0 8 8 8 8 8 8 8 8 8 6 : - : : 1 z l k k x x x x x x x ",
"x x x l l l l z o O # # < 6 8 8 8 8 8 8 8 8 8 8 8 8 8 5 a %.q.q.q.q.q.q.U q 5 8 8 8 8 8 8 8 8 8 8 8 8 8 : @ # O O & l l l l k x ",
"x x x z c c z & - 8 6 6 8 8 8 8 8 8 8 8 8 8 8 8 8 8 8 9 f %.q.q.q.q.q.q.R r 8 8 8 8 8 8 8 8 8 8 8 8 8 8 8 8 6 8 8 < . z c c z x ",
"l l z @ > , , 3 6 8 8 8 8 8 8 8 8 8 8 8 8 8 8 8 8 5 0 j ) 3.q.q.q.q.q.q.-.Y a 5 5 8 8 8 8 8 8 8 8 8 8 8 8 8 8 8 8 ; , , , , * l ",
"* * $ - 8 8 8 8 8 8 8 8 8 8 8 8 8 8 8 8 8 8 5 9 u a f ( q.q.q.q.q.q.q.q.q.3.F a a r 8 5 8 8 8 8 8 8 8 8 8 8 8 8 8 8 8 8 8 8 < * ",
"7 7 7 6 8 8 8 8 8 8 8 8 8 8 8 8 8 8 8 6 6 6 8 t E :.%.3.q.q.q.q.q.q.q.q.q.q.>.%.%.v 9 8 6 6 8 8 8 8 8 8 8 8 8 8 8 8 8 8 8 8 7 7 ",
"8 8 8 8 8 8 8 8 8 8 8 8 8 8 8 5 5 5 9 g V n b I -.q.q.q.q.q.q.q.q.q.q.q.q.q.q.q.q.) V b V b u 5 5 5 5 8 8 8 8 8 8 8 8 8 8 8 8 8 ",
"8 8 8 8 8 8 8 8 8 8 8 8 8 8 w t t r p ^ q.q.q.q.q.q.q.q.q.q.q.q.q.q.q.q.q.q.q.q.q.q.q.q.q.3.b r t t r 9 8 8 8 8 8 8 8 8 8 8 8 8 ",
"8 8 8 8 8 8 8 8 8 8 8 8 8 6 j } { ` } >.q.q.q.q.q.q.q.q.q.q.q.q.q.q.q.q.q.q.q.q.q.q.q.q.q.q.#.` ` ..^ p 8 8 8 8 8 8 8 8 8 8 8 8 ",
"8 8 8 8 8 8 8 8 8 8 8 8 8 6 d G F V K o.q.q.q.q.q.q.q.q.q.q.q.q.q.q.q.q.q.q.q.q.q.q.q.q.q.q./ F F H b r 8 8 8 8 8 8 8 8 8 8 8 8 ",
"8 8 8 8 8 8 8 8 8 8 8 8 8 8 6 6 6 8 w I :.%.#.:.3.q.q.q.q.q.q.q.q.q.q.q.q.q.q.q.q.1.%.#.:.o.h 6 6 6 6 8 8 8 8 8 8 8 8 8 8 8 8 8 ",
"8 8 8 8 8 8 8 8 8 8 8 8 8 8 8 8 8 5 6 t a a p h X.q.q.q.q.q.q.q.q.q.q.q.q.q.q.q.q.U s a a a e 8 8 8 8 8 8 8 8 8 8 8 8 8 8 8 8 8 ",
", , 3 7 8 8 8 8 8 8 8 8 8 8 8 8 8 8 8 8 5 5 5 e n Y R %.q.q.q.q.q.q.q.q.q.q.` U U g 6 5 5 5 8 8 8 8 8 8 8 8 8 8 8 8 8 8 8 8 8 8 ",
"c z X , 8 6 6 8 8 8 8 8 8 8 8 8 8 8 8 8 8 8 8 6 0 0 r Y q.q.q.q.q.q.q.q.q.>.j q q 9 8 8 8 8 8 8 8 8 8 8 8 8 8 8 8 8 6 6 6 6 6 6 ",
"l l z * O # # i 7 8 8 8 8 8 8 8 8 8 8 8 8 8 8 8 8 5 9 a G >.q.q.q.q.q.q.} j r 5 5 8 8 8 8 8 8 8 8 8 8 8 8 8 8 8 8 3 O # # # # # ",
"x x x x k k l . 2 : : - ; 8 8 8 8 8 8 8 8 8 8 8 8 8 8 5 a %.q.q.q.q.q.q.U q 5 8 8 8 8 8 8 8 8 8 8 8 8 8 6 : - : : @ z l k k k k ",
"x x x k k k k z . = = X # 7 8 8 8 8 8 8 8 8 8 8 8 8 8 5 a %.q.q.q.q.q.q.U q 5 8 8 8 8 8 8 8 8 8 8 8 8 8 3 & X = = . x k k k k k ",
"x x x x x x x k l l l l . + < 1 1 3 8 8 8 8 8 8 8 8 8 8 r v { q.q.q.1.Y g 9 8 8 8 8 8 8 8 8 8 7 2 1 1 1 $ z l l l l x x x x x x ",
"x x x x x x x x x x x x x z z z z # ; 7 7 7 6 8 8 8 8 8 8 9 V q.q.q.%.s 8 8 8 8 8 8 8 7 7 7 7 3 = x z z z x x x x x x x x x x x ",
"x x x x x x x x x x x x x l l l l . * * * * , 8 8 8 8 8 5 6 n q.q.q.%.a 5 8 8 8 8 8 7 + * * * & z l l l k x x x x x x x x x x x ",
"x x x x x x x x x x x x x x x x x k l l l x 1 8 8 8 8 8 8 6 n q.q.q.%.a 5 8 8 8 8 8 7 * l l l l k x x x x x x x x x x x x x x x ",
"x x x x x x x x x x x x x x x x x x x x l z 1 8 8 8 8 8 8 6 b q.q.q.o.a 5 8 8 8 8 8 7 * l x x x x x x x x x x x x x x x x x x x ",
"x x x x x x x x x x x x x x x x x x x x l z 1 8 8 8 8 8 8 8 y b #.( h w 8 8 8 8 8 8 7 * l x x x x x x x x x x x x x x x x x x x ",
"x x x x x x x x x x x x x x x x x x x x k z @ : 6 8 8 8 8 8 5 t ` F 6 8 8 8 8 8 8 7 3 & l x x x x x x x x x x x x x x x x x x x ",
"x x x x x x x x x x x x x x x x x x x x x x z o : 8 8 8 8 8 5 t ` F 6 8 8 8 8 8 8 2 = z k x x x x x x x x x x x x x x x x x x x ",
"x x x x x x x x x x x x x x x x x x x x x x l   - 8 8 8 8 8 5 t ` F 6 8 8 8 8 8 8 i x l x x x x x x x x x x x x x x x x x x x x ",
"x x x x x x x x x x x x x x x x x x x x x x l = : 8 8 8 8 8 5 r ^ b 6 8 8 8 8 8 8 1 z l x x x x x x x x x x x x x x x x x x x x ",
"x x x x x x x x x x x x x x x x x x x x x x l = : 8 8 8 8 8 8 9 p r 8 8 8 8 8 8 8 1 z l x x x x x x x x x x x x x x x x x x x x ",
"x x x x x x x x x x x x x x x x x x x x x x l . 1 : 8 8 8 8 8 8 8 8 8 8 8 8 8 6 3 $ z k x x x x x x x x x x x x x x x x x x x x ",
"x x x x x x x x x x x x x x x x x x x x x x x x z @ 8 8 8 8 8 8 8 8 8 8 8 8 8 : & z x x x x x x x x x x x x x x x x x x x x x x ",
"x x x x x x x x x x x x x x x x x x x x x x x k l # 6 8 8 8 8 8 8 8 8 8 8 8 8 - X l x x x x x x x x x x x x x x x x x x x x x x ",
"x x x x x x x x x x x x x x x x x x x x x x x k k # 6 8 8 8 8 8 8 8 8 8 8 8 8 : = l x x x x x x x x x x x x x x x x x x x x x x ",
"x x x x x x x x x x x x x x x x x x x x x x x k k # 6 8 8 8 8 8 8 8 8 8 8 8 8 : = l x x x x x x x x x x x x x x x x x x x x x x ",
"x x x x x x x x x x x x x x x x x x x x x x x x k & < ; 8 8 8 8 8 8 8 8 8 8 3 @ . l x x x x x x x x x x x x x x x x x x x x x x ",
"x x x x x x x x x x x x x x x x x x x x x x x x x l . , 8 8 8 8 8 8 8 8 8 6 @ z x x x x x x x x x x x x x x x x x x x x x x x x ",
"x x x x x x x x x x x x x x x x x x x x x x x x x l z , 8 8 8 8 8 8 8 8 8 6 # l k x x x x x x x x x x x x x x x x x x x x x x x ",
"x x x x x x x x x x x x x x x x x x x x x x x x x l c , 8 8 8 8 8 8 8 8 8 6 # k k x x x x x x x x x x x x x x x x x x x x x x x ",
"x x x x x x x x x x x x x x x x x x x x x x x x x l c , 8 8 8 8 8 8 8 8 8 6 # k k x x x x x x x x x x x x x x x x x x x x x x x ",
"x x x x x x x x x x x x x x x x x x x x x x x x x k z * < 7 8 8 8 8 8 8 8 6 # k k x x x x x x x x x x x x x x x x x x x x x x x ",
"x x x x x x x x x x x x x x x x x x x x x x x x x x x l * 7 8 8 8 8 8 8 8 6 # k k x x x x x x x x x x x x x x x x x x x x x x x "
};
