/* XPM */
static const char *collectible[] = {
/* columns rows colors chars-per-pixel */
"64 64 237 2 ",
"   c #363A36",
".  c #735214",
"X  c #6B671C",
"o  c #756F1C",
"O  c #4A4738",
"+  c #5D5C3A",
"@  c #724E2B",
"#  c #6C552F",
"$  c #797526",
"%  c #69663B",
"&  c #7B6833",
"*  c #797336",
"=  c #75662C",
"-  c #2C3B4F",
";  c #374559",
":  c #394C67",
">  c #47494E",
",  c #5A5746",
"<  c #494D51",
"1  c #414954",
"2  c #4C5258",
"3  c #545559",
"4  c #585757",
"5  c #505146",
"6  c #68664D",
"7  c #78764C",
"8  c #666655",
"9  c #6E7054",
"0  c #797756",
"q  c #756C4A",
"w  c #475669",
"e  c #5E5F62",
"r  c #545A63",
"t  c #475A74",
"y  c #5B6366",
"u  c #516478",
"i  c #6A6B6E",
"p  c #646667",
"a  c #787864",
"s  c #696D72",
"d  c #6B7278",
"f  c #7C7B7D",
"g  c #747679",
"h  c #6E7367",
"j  c #645748",
"k  c #9B5A18",
"l  c #A45F1B",
"z  c #92721A",
"x  c #BA690D",
"c  c #AC721B",
"v  c #B26D16",
"b  c #8C5826",
"n  c #995D21",
"m  c #956629",
"M  c #8D7A2E",
"N  c #8E782A",
"B  c #95762C",
"V  c #867735",
"C  c #8C6E30",
"Z  c #A37423",
"A  c #C66B08",
"S  c #D66E05",
"D  c #C7790B",
"F  c #D77707",
"G  c #C77F12",
"H  c #EB7D03",
"J  c #F17D02",
"K  c #867C45",
"L  c #837A50",
"P  c #807F7A",
"I  c #7E824F",
"U  c #7D8767",
"Y  c #71817B",
"T  c #7C8777",
"R  c #B5871B",
"E  c #A99619",
"W  c #B08D1A",
"Q  c #B9A71A",
"!  c #BDB318",
"~  c #ABA41D",
"^  c #94872A",
"/  c #898536",
"(  c #95863B",
")  c #9A942F",
"_  c #B18E28",
"`  c #AD9827",
"'  c #B89524",
"]  c #A58936",
"[  c #A99234",
"{  c #B59F32",
"}  c #BCAB27",
"|  c #CA890C",
" . c #D68A0A",
".. c #CE980F",
"X. c #D6990C",
"o. c #C59414",
"O. c #C89719",
"+. c #D29813",
"@. c #CD8913",
"#. c #EC8A03",
"$. c #E88503",
"%. c #F38C02",
"&. c #F98703",
"*. c #E69809",
"=. c #F39203",
"-. c #F39A04",
";. c #FA9C03",
":. c #F99604",
">. c #F59414",
",. c #C9A617",
"<. c #D5A814",
"1. c #CBB918",
"2. c #D5B617",
"3. c #DBA70F",
"4. c #EBA40B",
"5. c #EDAB0C",
"6. c #E6AB0E",
"7. c #FCA304",
"8. c #FBAB07",
"9. c #FAAC09",
"0. c #F4A608",
"q. c #F4B20B",
"w. c #FBB309",
"e. c #FBBB0B",
"r. c #F7B80A",
"t. c #E5AC11",
"y. c #EAA815",
"u. c #FBA31A",
"i. c #EAB916",
"p. c #F4BA13",
"a. c #ECB30D",
"s. c #DE9B21",
"d. c #D1A828",
"f. c #E9AC25",
"g. c #ECBB24",
"h. c #F3B721",
"j. c #F5AF2E",
"k. c #D4C217",
"l. c #FDC20D",
"z. c #FBC60E",
"x. c #EDC715",
"c. c #F3C411",
"v. c #F9CC13",
"b. c #F5C917",
"n. c #FDD213",
"m. c #FDDB15",
"M. c #F8D61D",
"N. c #EECA14",
"B. c #FDE51B",
"V. c #FDE519",
"C. c #FFF11D",
"Z. c #DDD133",
"A. c #EAC629",
"S. c #F5C525",
"D. c #F8D629",
"F. c #F3D028",
"G. c #FBE627",
"H. c #FBEA35",
"J. c #FFF431",
"K. c #8C8546",
"L. c #898856",
"P. c #958C54",
"I. c #988E48",
"U. c #A2985A",
"Y. c #A89647",
"T. c #B0A246",
"R. c #848667",
"E. c #969569",
"W. c #84837C",
"Q. c #8C8A7C",
"!. c #888977",
"~. c #929474",
"^. c #F1B545",
"/. c #D9A942",
"(. c #CFC84D",
"). c #F7D85A",
"_. c #F4CC4A",
"`. c #FAF34E",
"'. c #FBEB52",
"]. c #FBCC6D",
"[. c #FEF46A",
"{. c #F3EE64",
"}. c #576C85",
"|. c #5B728D",
" X c #5A7392",
".X c #4F6581",
"XX c #67798A",
"oX c #7B7E83",
"OX c #717C84",
"+X c #637C98",
"@X c #807F83",
"#X c #798888",
"$X c #778894",
"%X c #7A9797",
"&X c #7A9086",
"*X c #738DA3",
"=X c #7FA5B6",
"-X c #828285",
";X c #84868A",
":X c #8B8A8D",
">X c #898986",
",X c #85928A",
"<X c #8D8C90",
"1X c #868E94",
"2X c #908F93",
"3X c #889497",
"4X c #929499",
"5X c #8D9AA4",
"6X c #8897A3",
"7X c #949CA4",
"8X c #929EA8",
"9X c #84A3A8",
"0X c #9BA3AA",
"qX c #99A0A7",
"wX c #83A8B9",
"eX c #9BABB6",
"rX c #A4B3BE",
"tX c #FCF08A",
"yX c #91BCDC",
"uX c #8EB5CC",
"iX c #A7BCCA",
"pX c #90BFE1",
"aX c #99C1DD",
"sX c #A9C5D7",
"dX c #B3CADB",
"fX c #96C2E1",
"gX c #9BCBEC",
"hX c #99C6E5",
"jX c #8EC1E8",
"kX c #AFCCE3",
"lX c #A6CEE7",
"zX c #B0CDE3",
"xX c #B7D4E8",
"cX c #A9D6F5",
"vX c #B5DBF2",
"bX c #AAD0EA",
"nX c #B9E2FB",
/* pixels */
"<X<X<X<X<X<X<X<X<X<X<X<X<X<X<X<X<X<X<X<X<X<X<X<X<X<X<X<X<X<X<X<X<X<X<X<X<X<X<X<X<X<X<X<X<X<X<X<X<X<X<X<X<X<X<X<X<X<X<X<X<X<X<X<X",
"<X<X<X<X<X<X<X<X<X<X<X<X<X<X<X<X<X<X<X<X<X<X<X<X<X<X<X<X<X<X<X<X<X<X<X<X<X<X<X<X<X<X<X<X<X<X<X<X<X<X<X<X<X<X<X<X<X<X<X<X<X<X<X<X",
"<X<X<X<X<X<X<X<X<X<X<X<X<X<X<X<X<X<X<X<X<X<X<X<X<X<X<X<X<X<X<X<X<X<X<X<X<X<X<X<X<X<X<X<X<X<X<X<X<X<X<X<X<X<X<X<X<X<X<X<X<X<X<X<X",
"<X<X<X<X<X<X<X<X<X<X<X<X<X<X<X<X<X<X<X<X<X<X<X<X<X<X<X<X<X<X<X<X<X<X<X<X<X<X<X<X<X<X<X<X<X<X<X<X<X<X<X<X<X<X<X<X<X<X<X<X<X<X<X<X",
"<X<X<X<X<X<X<X<X<X<X<X<X<X<X<X<X<X<X<X<X<X<X<X<X<X<X<X<X<X<X<X<X<X<X<X<X<X<X<X<X<X<X<X<X<X<X<X<X<X<X<X<X<X<X<X<X<X<X<X<X<X<X<X<X",
"<X<X<X<X<X<X<X<X<X<X<X<X<X<X<X<X<X<X<X<X<X<X<X<X<X<X<X<X<X<X<X<X<X<X<X<X<X<X<X<X<X<X<X<X<X<X<X<X<X<X<X<X<X<X<X<X<X<X<X<X<X<X<X<X",
"<X<X<X<X<X<X<X<X<X<X<X<X<X<X<X<X<X<X<X<X<X<X<X<X<X<X<X<X<X<X<X<X<X<X<X<X<X<X<X<X<X<X<X<X<X<X<X<X<X<X<X<X<X<X<X<X<X<X<X<X<X<X<X<X",
"<X<X<X<X<X<X<X<X<X<X<X<X<X<X<X<X<X<X<X<X<X<X<X<X<X<X<X<X<X<X<X<X<X<X<X<X<X<X<X<X<X<X<X<X<X<X<X<X<X<X<X<X<X<X<X<X<X<X<X<X<X<X<X<X",
"<X<X<X<X<X<X<X<X<X<X<X<X<X<X<X<X<X<X<X<X<X<X<X<X<X<X<X<X<X<X<X<X<X<X<X<X<X<X<X<X<X<X<X<X<X<X<X<X<X<X<X<X<X<X<X<X<X<X<X<X<X<X<X<X",
"<X<X<X<X<X<X<X<X<X<X<X<X<X<X<X<X<X<X<X<X<X<X<X<X<X<X<X<X<X<X<X<X<X<X<X<X<X<X<X<X<X<X<X<X<X<X<X<X<X<X<X<X<X<X<X<X<X<X<X<X<X<X<X<X",
"<X<X<X<X<X<X<X<X<X<X<X<X<X<X<X<X<X<X<X<X<X<X<X<X<X<X<X<X<X<X<X<X<X<X<X<X<X<X<X<X<X<X<X<X<X<X<X<X<X<X<X<X<X<X<X<X<X<X<X<X<X<X<X<X",
"<X<X<X<X<X<X<X<X<X<X<X<X<X<X<X<X<X<X<X<X<X<X<X<X<X<X<X<X<X<X<X<X<X<X<X<X<X<X<X<X<X<X<X<X<X<X<X<X<X<X<X<X<X<X<X<X<X<X<X<X<X<X<X<X",
"<X<X<X<X<X<X<X<X<X<X<X<X<X<X<X<X<X<X<X<X<X<X<X<X<X<X<X<X<X<X<X<X<X<X<X<X<X<X<X<X<X<X<X<X<X<X<X<X<X<X<X<X<X<X<X<X<X<X<X<X<X<X<X<X",
"<X<X<X<X<X<X<X<X<X<X<X<X<X<X<X<X<X<X<X<X<X<X<X<X<X<X<X<X<X<X<X<X<X<X<X<X<X<X<X<X<X<X<X<X<X<X<X<X<X<X<X<X<X<X<X<X<X<X<X<X<X<X<X<X",
"<X<X<X<X<X<X<X<X<X<X<X<X<X<X<X<X<X<X<X<X<X2X<X<X<X<X<X2X2X<X<X<X<X<X<X2X2X<X<X<X<X<X2X<X<X<X<X<X<X<X<X<X<X<X<X<X<X<X<X<X<X<X<X<X",
"<X<X<X<X<X<X<X<X<X<X<X<X<X<X<X<X<X<X<X<X:XP -X>X>XQ.W.f f -X>X>XQ.Q.W.f f >X>XQ.Q.W.f ;X<X<X<X<X<X<X<X<X<X<X<X<X<X<X<X<X<X<X<X<X",
"<X<X<X<X<X<X<X<X<X<X<X<X<X<X<X<X<X<X<X<Xg , q L.K./ * O O 8 0 L.( * % O 5 0 L.K.* + O g <X<X<X<X<X<X<X<X<X<X<X<X<X<X<X<X<X<X<X<X",
"<X<X<X<X<X<X<X<X<X<X<X<X<X<X<X<X2X-Xa a 7 = ( T.} Q W . . C [ { Q E z . . ] { } E z X 7 a a W.<X<X<X<X<X<X<X<X<X<X<X<X<X<X<X<X<X",
"<X<X<X<X<X<X<X<X<X<X<X<X<X<X<X:X;Xa % $ ^ ' /.^.F.c.t.| D  .y.S.b.i...| @.s.g.b.i.,.E ^ $ = a <X<X<X<X<X<X<X<X<X<X<X<X<X<X<X<X<X",
"<X<X<X<X<X<X<X<X<X<X<X<X<X<X<X@X4 % T.(.Z.i.f.f.S.b.p.6.*.*.f.S.i.a.6.*.*.y.i.i.4.t.A.(.(.T.E.<X<X<X<X<X<X<X<X<X<X<X<X<X<X<X<X<X",
"<X<X<X<X<X<X<X<X<X<X<X<X<X<X2Xf O $ (.`.H.b.g.^.)._.M.p.y.f._._.A.N.c.5.y.g.A.g.y.a.F.'.{.(.U.T :X<X<X<X<X<X<X<X<X<X<X<X<X<X<X<X",
"<X<X<X<X<X<X<X<X<X<X<X<X<X<X<XW.% ^ Z.H.G.p.A.].tX[.G.c.g.).tXtXH.B.V.c.p.D.'.'.b.i.i.H.H.Z.) % W.<X<X<X<X<X<X<X<X<X<X<X<X<X<X<X",
"<X<X<X<X<X<X<X<X<X<X<X<X<X<X<X!.* ~ G.B.n.q.S.).[.`.G.p.g.'.[.[.J.C.V.c.p.M.H.H.M.a.5.b.B.M.E & W.<X<X<X<X<X<X<X<X<X<X<X<X<X<X<X",
"<X<X<X<X<X<X<X<X<X<X<X<X<X<X<XQ./ ! B.m.e.9.b.G.G.G.m.a.i.H.H.G.V.V.m.c.p.v.m.V.c.5.=.w.n.V.Q V !.<X<X<X<X<X<X<X<X<X<X<X<X<X<X<X",
"<X<X<X<X<X<X<X<X<X<X<X<X<X<X<XQ./ ! V.z.q.q.v.V.m.n.l.q.p.n.n.n.z.l.l.l.z.v.n.z.q.-.#.-.e.m.Q V Q.<X<X<X<X<X<X<X<X<X<X<X<X<X<X<X",
"<X<X<X<X<X<X<X<X<X<X<X<X<X<X<XQ./ ! m.e.0.q.x.k.,.o.o.X.3.,.O.o.o.o.o.<.2.2.,.o.+. .$.%.9.n.Q / Q.<X<X<X<X<X<X<X<X<X<X<X<X<X<X<X",
"<X<X<X<X<X<X<X<X<X<X<X<X<X<X:X!.) 1.v.q.0.a.<.` V & C _ _ M & & & & & ] ` ^ V & N c F #.7.e.,.) !.:X<X<X<X<X<X<X<X<X<X<X<X<X<X<X",
"<X<X<X<X<X<X<X<X<X<X<X<X<X:Xh * } x.l.8.4.<.Y.R.Y OXT U.U.T d d OXOXg ~.E.R.h s y & c $.;.q.i.} * h :X<X<X<X<X<X<X<X<X<X<X<X<X<X",
"<X<X<X<X<X<X<X<X<X<X<X<X<X:X6 X k.n.e.7.*.O.P.$X*X$X,X~.~.$X+X+X*X*X+X%X,XT XX}.t , z  .:.8.v.1.X 6 :X<X<X<X<X<X<X<X<X<X<X<X<X<X",
"<X<X<X<X<X<X<X<X<X<X<X<X<X:X6 o k.n.w.7.*.' L.XX+X#XE.E.!.XX X X X X|.XXY E.Y .X: , Z  .:.8.v.1.X 6 :X<X<X<X<X<X<X<X<X<X<X<X<X<X",
"<X<X<X<X<X<X<X<X<X<X<X<X<X:X6 X 2.v.w.7.4.,.K w t 8 K K 9 w : t u }.XXXX!.U.a t 1 # R $.:.7.z.1.X 6 :X<X<X<X<X<X<X<X<X<X<X<X<X<X",
"<X<X<X<X<X<X<X<X<X<X<X<X<X:X9 z 2.l.8.7.0.3.V 1 ; 5 = & + - - ; : u XXOX~.T.0 2 # n  .#.%.;.e.2.o 9 :X<X<X<X<X<X<X<X<X<X<X<X<X<X",
"<X<X<X<X:X<X<X<X<X<X<X<X<X:XI.Q x.w.-.9.5.O.K t t 8 V * + - - ; ; ; r d E.T.L j l F =.=.=.=.q.i.E L.:X<X<X<X<X<X<X<X<X<X<X<X<X<X",
"<X<X<X<X<X<X<X<X<X<X<X2XoXp ( 1.c.w.-.9.5.o.V r t p K.K 9 t t t w w w r 0 ] q , n A #.=.=.%.8.x.Q / p oX<X<X<X<X<X<X<X<X<X<X<X<X",
"<X<X<X<X<X<X<X<X<X<X<X<Xi   $ 1.c.w.-.q.q...Z # 2 8 P.P.R.XX+X+X|..Xt w , B % > # n F =.=.%.9.c.1.o   i <X<X<X<X<X<X<X<X<X<X<X<X",
"<X<X<X<X<X<X<X<X<X<X:Xd 2   $ 2.r.7.-.w.e.4. .v m B _ ( 0 u  X+X+X+X|..Xh I.0 t ; @ x $.=.#.;.q.,.$   2 d :X<X<X<X<X<X<X<X<X<X<X",
"<X<X<X<X<X<X<X<X:X:X1XXXu 5 ^ <.0.;.-.w.e.8.7.#.D G +.R B 6 p s }.}.}.}.a Y.R.t 1 @ x $.%.$.%.-.<.N 5 u XX1X:X:X<X<X<X<X<X<X<X<X",
"<X<X<X<X<X<X:X:X;X1X5XwX%X7 ` 6.;.=.-.q.e.7.;.:.$.$.=.-. .c b @ 5 < 2 3 9 I.7 4 @ k F %.&.H %.;.4._ 0 %XwX8X1X-X:X:X<X<X<X<X<X<X",
"<X<X<X<X<X:Xp y 3XiXsXyX9XI ' 0.7.;.0.p.p.;.;.;.%.%.=.;.=.F A x k b b b m Z m m x S H :.:.#.=.7.0.' I 9XyXsXrX1X4 p :X<X<X<X<X<X",
"<X<X<X<X<X:X4 2 qXxXnXgXwXU [ +.*.*.0.h.h.7.7.7.-.>.u.u.u.>.&.J S S S A A A A F H &.:.7.7.*.*.*.+.[ U wXgXnXdX7X2 4 :X<X<X<X<X<X",
"<X<X<X<X<X:X@X-X7XsXnXcXfX=XT K M W 3.h.b.e.9.8.0.j.].].].^.>.&.&.&.&.J J J H H =.;.7.w.0. .R M K !.wXfXcXnXsX7X#X-X:X<X<X<X<X<X",
"<X<X<X<X<X<X2X<XoX5XsXvXcXfX=X%X&XL.[ d.<.<...| @.d._.)._.j.u.7.7.7.7.;.:.%.F A D | X.X.O.] R.&X%XuXgXcXcXsX6XoX<X2X<X<X<X<X<X<X",
"<X<X<X<X<X<X<X-Xe d 8XiXkXbXgXjXyX=XT K.^ ^ B B B _ d.g.i.t.t.t.t.t.t.4.*.@.c m m B ^ B K.W.wXfXhXbXcXxXiX5Xs e -X<X<X<X<X<X<X<X",
"<X<X<X<X<X<X<X:Xf -X1X;X6XiXsXbXcXlXuX9X%X%X%X3X,XR.K.M M M M M M M M N C K R.&X1X3X3X3X9XuXlXcXxXdXiX6X#X1X#XoX:X<X<X<X<X<X<X<X",
"<X<X<X<X<X<X<X<X<X<X:Xg oXqX0XeXsXkXkXaXyXyXyXyXyXwX$XY Y Y Y Y Y Y Y Y Y $XwXyXaXaXaXaXaXsXsXsXeX0X0XoXg :X<X<X<X<X<X<X<X<X<X<X",
"<X<X<X<X<X<X<X<X<X<X<X:X<X<Xg s ;X7XrXdXxXxXxXvXcXbXgXhXfXfXfXfXfXfXfXfXhXgXcXvXvXxXxXxXdXeX7X;Xy d <X<X:X<X<X<X<X<X<X<X<X<X<X<X",
"<X<X<X<X<X<X<X<X<X<X<X<X<X:XoXg -X2X7X4X3X3X5XeXdXxXzXzXkXkXkXkXkXkXkXkXzXxXxXdXeX6X3X3X3X3X<X-Xg f :X<X<X<X<X<X<X<X<X<X<X<X<X<X",
"<X<X<X<X<X<X<X<X<X<X<X<X<X<X<X<X<X<X:Xs e y i -X7X0XqXqX0X0X0X0XqXqXqXqX0XqXqX3Xg p e e i :X<X<X<X<X<X<X<X<X<X<X<X<X<X<X<X<X<X<X",
"<X<X<X<X<X<X<X<X<X<X<X<X<X<X<X<X<X<X:X;X-X-X:XoX3 > < < < < < < < < < < < < > 3 f ;X-X-X;X:X<X<X<X<X<X<X<X<X<X<X<X<X<X<X<X<X<X<X",
"<X<X<X<X<X<X<X<X<X<X<X<X<X<X<X<X<X<X<X<X<X<X2X-Xe 3 3 3 3 3 3 3 3 3 3 3 3 3 3 p -X2X<X<X<X<X<X<X<X<X<X<X<X<X<X<X<X<X<X<X<X<X<X<X",
"<X<X<X<X<X<X<X<X<X<X<X<X<X<X<X<X<X<X<X<X<X<X<X<X:X:X:X:X:X:X:X:X:X:X:X:X:X:X:X:X<X<X<X<X<X<X<X<X<X<X<X<X<X<X<X<X<X<X<X<X<X<X<X<X",
"<X<X<X<X<X<X<X<X<X<X<X<X<X<X<X<X<X<X<X<X<X<X<X<X<X<X<X<X<X<X<X<X<X<X<X<X<X<X<X<X<X<X<X<X<X<X<X<X<X<X<X<X<X<X<X<X<X<X<X<X<X<X<X<X",
"<X<X<X<X<X<X<X<X<X<X<X<X<X<X<X<X<X<X<X<X<X<X<X<X<X<X<X<X<X<X<X<X<X<X<X<X<X<X<X<X<X<X<X<X<X<X<X<X<X<X<X<X<X<X<X<X<X<X<X<X<X<X<X<X",
"<X<X<X<X<X<X<X<X<X<X<X<X<X<X<X<X<X<X<X<X<X<X<X<X<X<X<X<X<X<X<X<X<X<X<X<X<X<X<X<X<X<X<X<X<X<X<X<X<X<X<X<X<X<X<X<X<X<X<X<X<X<X<X<X",
"<X<X<X<X<X<X<X<X<X<X<X<X<X<X<X<X<X<X<X<X<X<X<X<X<X<X<X<X<X<X<X<X<X<X<X<X<X<X<X<X<X<X<X<X<X<X<X<X<X<X<X<X<X<X<X<X<X<X<X<X<X<X<X<X",
"<X<X<X<X<X<X<X<X<X<X<X<X<X<X<X<X<X<X<X<X<X<X<X<X<X<X<X<X<X<X<X<X<X<X<X<X<X<X<X<X<X<X<X<X<X<X<X<X<X<X<X<X<X<X<X<X<X<X<X<X<X<X<X<X",
"<X<X<X<X<X<X<X<X<X<X<X<X<X<X<X<X<X<X<X<X<X<X<X<X<X<X<X<X<X<X<X<X<X<X<X<X<X<X<X<X<X<X<X<X<X<X<X<X<X<X<X<X<X<X<X<X<X<X<X<X<X<X<X<X",
"<X<X<X<X<X<X<X<X<X<X<X<X<X<X<X<X<X<X<X<X<X<X<X<X<X<X<X<X<X<X<X<X<X<X<X<X<X<X<X<X<X<X<X<X<X<X<X<X<X<X<X<X<X<X<X<X<X<X<X<X<X<X<X<X",
"<X<X<X<X<X<X<X<X<X<X<X<X<X<X<X<X<X<X<X<X<X<X<X<X<X<X<X<X<X<X<X<X<X<X<X<X<X<X<X<X<X<X<X<X<X<X<X<X<X<X<X<X<X<X<X<X<X<X<X<X<X<X<X<X",
"<X<X<X<X<X<X<X<X<X<X<X<X<X<X<X<X<X<X<X<X<X<X<X<X<X<X<X<X<X<X<X<X<X<X<X<X<X<X<X<X<X<X<X<X<X<X<X<X<X<X<X<X<X<X<X<X<X<X<X<X<X<X<X<X",
"<X<X<X<X<X<X<X<X<X<X<X<X<X<X<X<X<X<X<X<X<X<X<X<X<X<X<X<X<X<X<X<X<X<X<X<X<X<X<X<X<X<X<X<X<X<X<X<X<X<X<X<X<X<X<X<X<X<X<X<X<X<X<X<X",
"<X<X<X<X<X<X<X<X<X<X<X<X<X<X<X<X<X<X<X<X<X<X<X<X<X<X<X<X<X<X<X<X<X<X<X<X<X<X<X<X<X<X<X<X<X<X<X<X<X<X<X<X<X<X<X<X<X<X<X<X<X<X<X<X",
"<X<X<X<X<X<X<X<X<X<X<X<X<X<X<X<X<X<X<X<X<X<X<X<X<X<X<X<X<X<X<X<X<X<X<X<X<X<X<X<X<X<X<X<X<X<X<X<X<X<X<X<X<X<X<X<X<X<X<X<X<X<X<X<X",
"<X<X<X<X<X<X<X<X<X<X<X<X<X<X<X<X<X<X<X<X<X<X<X<X<X<X<X<X<X<X<X<X<X<X<X<X<X<X<X<X<X<X<X<X<X<X<X<X<X<X<X<X<X<X<X<X<X<X<X<X<X<X<X<X"
};
