/* XPM */
static const char *exit[] = {
/* columns rows colors chars-per-pixel */
"64 64 110 2 ",
"   c #79352A",
".  c #7D382B",
"X  c #823E31",
"o  c #8A4637",
"O  c #8E4A39",
"+  c #924D3C",
"@  c #96513D",
"#  c #98523E",
"$  c #AD6538",
"%  c #B0683F",
"&  c #9B5541",
"*  c #9D5842",
"=  c #A35D45",
"-  c #A76147",
";  c #A86047",
":  c #A66149",
">  c #AB654A",
",  c #AE684C",
"<  c #B16A43",
"1  c #B66E4E",
"2  c #B86F4F",
"3  c #B7704F",
"4  c #B8704D",
"5  c #B66E50",
"6  c #B86F50",
"7  c #B47051",
"8  c #BB7252",
"9  c #B7765A",
"0  c #B87659",
"q  c #B57A60",
"w  c #C1774A",
"e  c #C27954",
"r  c #C47B5A",
"t  c #C97F5E",
"y  c #F6A93E",
"u  c #FAAE3A",
"i  c #BC8369",
"p  c #BF896F",
"a  c #BA8770",
"s  c #BF8A70",
"d  c #DC9047",
"f  c #C9805E",
"g  c #E09545",
"h  c #E49B40",
"j  c #E29942",
"k  c #C98060",
"l  c #CA8060",
"z  c #CB8160",
"x  c #CA8161",
"c  c #CB8161",
"v  c #CC8162",
"b  c #CC8262",
"n  c #CD8362",
"m  c #CD8263",
"M  c #CE8262",
"N  c #D38765",
"B  c #D38766",
"V  c #D48766",
"C  c #D48767",
"Z  c #D58767",
"A  c #D18564",
"S  c #D38A66",
"D  c #D48B67",
"F  c #D68868",
"G  c #D68968",
"H  c #D78968",
"J  c #D78969",
"K  c #D68A69",
"L  c #D78D68",
"P  c #D1896B",
"I  c #D88C6B",
"U  c #DA8D6B",
"Y  c #D98F6A",
"T  c #DA8D6C",
"R  c #DB8D6C",
"E  c #DA8D6D",
"W  c #D98E6C",
"Q  c #DA8E6C",
"!  c #DB8E6C",
"~  c #DA8E6D",
"^  c #DC8E6C",
"/  c #DC8E6D",
"(  c #DA8E6D",
")  c #DB926C",
"_  c #DC916C",
"`  c #DC936C",
"'  c #DD936D",
"]  c #D9926B",
"[  c #C08A70",
"{  c #D69072",
"}  c #E0986E",
"|  c #E39B71",
" . c #E29873",
".. c #E29B72",
"X. c #E8A175",
"o. c #E9A175",
"O. c #EBA377",
"+. c #EAA278",
"@. c #EAA478",
"#. c #D4A085",
"$. c #D4A086",
"%. c #D4A086",
"&. c #D3A18A",
"*. c #DDA98C",
"=. c #E0AD8E",
"-. c #E4B392",
";. c #E8B795",
":. c #E4BCA0",
">. c #8D8C90",
",. c #8D8C90",
/* pixels */
">.>.>.>.>.>.>.>.>.>.>.>.>.>.>.>.>.>.>.>.>.>.>.>.>.>.>.>.>.>.>.>.>.>.>.>.>.>.>.>.>.>.>.>.>.>.>.>.>.>.>.>.>.>.>.>.>.>.>.>.>.>.>.>.",
">.>.>.>.>.>.>.>.>.>.>.>.>.>.>.>.>.>.>.>.>.>.>.>.>.>.>.>.>.>.>.>.>.>.>.>.>.>.>.>.>.>.>.>.>.>.>.>.>.>.>.>.>.>.>.>.>.>.>.>.>.>.>.>.",
">.>.>.>.>.>.>.>.>.>.>.>.>.>.>.>.>.>.>.>.>.>.>.>.>.>.>.>.>.>.>.>.>.>.>.>.>.>.>.>.>.>.>.>.>.>.>.>.>.>.>.>.>.>.>.>.>.>.>.>.>.>.>.>.",
">.>.>.>.>.>.>.>.>.>.>.>.>.>.>.>.>.>.>.>.>.>.>.>.>.>.>.>.>.>.>.>.>.>.>.>.>.>.>.>.>.>.>.>.>.>.>.>.>.>.>.>.>.>.>.>.>.>.>.>.>.>.>.>.",
">.>.>.>.>.>.>.>.>.>.>.>.>.>.>.>.>.>.>.>.>.>.>.>.>.>.>.>.>.>.>.>.>.>.>.>.>.>.>.>.>.>.>.>.>.>.>.>.>.>.>.>.>.>.>.>.>.>.>.>.>.>.>.>.",
">.>.>.>.>.>.>.>.>.>.>.>.>.>.>.>.>.>.>.>.>.>.>.>.>.>.>.>.>.>.>.>.>.>.>.>.>.>.>.>.>.>.>.>.>.>.>.>.>.>.>.>.>.>.>.>.>.>.>.>.>.>.>.>.",
">.>.>.>.>.>.>.>.>.>.>.>.>.>.>.>.>.>.>.>.>.>.>.>.>.>.>.>.>.>.>.>.>.>.>.>.>.>.>.>.>.>.>.>.>.>.>.>.>.>.>.>.>.>.>.>.>.>.>.>.>.>.>.>.",
">.>.>.>.>.>.>.>.>.>.>.>.>.>.>.>.>.>.>.>.>.>.>.>.>.>.>.>.>.>.>.>.>.>.>.>.>.>.>.>.>.>.>.>.>.>.>.>.>.>.>.>.>.>.>.>.>.>.>.>.>.>.>.>.",
">.>.>.>.>.>.>.>.>.>.>.>.>.>.>.>.>.>.>.>.>.>.>.>.>.>.>.>.>.>.>.>.>.>.>.>.>.>.>.>.>.>.>.>.>.>.>.>.>.>.>.>.>.>.>.>.>.>.>.>.>.>.>.>.",
">.>.>.>.>.>.>.>.>.>.>.>.>.>.>.>.>.>.>.>.>.>.>.>.>.>.>.>.>.>.>.>.>.>.>.>.>.>.>.>.>.>.>.>.>.>.>.>.>.>.>.>.>.>.>.>.>.>.>.>.>.>.>.>.",
">.>.>.>.>.>.>.>.>.>.>.>.>.>.>.>.>.>.>.>.>.>.>.>.>.>.>.>.>.>.>.>.>.>.>.>.>.>.>.>.>.>.>.>.>.>.>.>.>.>.>.>.>.>.>.>.>.>.>.>.>.>.>.>.",
">.>.>.>.>.>.>.>.>.>.>.>.>.>.>.>.>.>.>.>.>.>.>.>.>.>.>.>.>.>.>.>.>.>.>.>.>.>.>.>.>.>.>.>.>.>.>.>.>.>.>.>.>.>.>.>.>.>.>.>.>.>.>.>.",
">.>.>.>.>.>.>.>.>.>.>.>.>.>.>.>.>.>.>.>.>.>.>.>.>.>.>.>.>.>.>.>.>.>.>.>.>.>.>.>.>.>.>.>.>.>.>.>.>.>.>.>.>.>.>.>.>.>.>.>.>.>.>.>.",
">.>.>.>.>.>.>.>.>.>.>.>.>.>.>.>.>.>.>.>.>.>.>.>.>.>.>.>.>.>.>.>.>.>.>.>.>.>.>.>.>.>.>.>.>.>.>.>.>.>.>.>.>.>.>.>.>.>.>.>.>.>.>.>.",
">.>.>.>.>.>.>.>.>.>.>.>.>.>.>.>.>.>.>.a s s s s s s s s s s s s s s s s s s s s p q i =.;.:.>.>.>.>.>.>.>.>.>.>.>.>.>.>.>.>.>.>.",
">.>.>.>.>.>.>.>.>.>.>.>.>.>.>.>.>.>.>.9 2 1 1 1 1 1 1 1 1 1 1 1 1 1 1 1 1 1 1 1 1 1 8 } @.-.>.>.>.>.>.>.>.>.>.>.>.>.>.>.>.>.>.>.",
">.>.>.>.>.>.>.>.>.>.>.>.>.>.>.>.>.>.>.9 8 8 8 5 5 1 1 5 5 1 1 5 5 5 1 1 1 5 6 4 4 3 8 Y | *.>.>.>.>.>.>.>.>.>.>.>.>.>.>.>.>.>.>.",
">.>.>.>.>.>.>.>.>.>.>.>.>.>.>.>.>.>.>.9 4 8 6 5 7 3 3 7 7 3 3 3 5 5 3 3 7 8 6 4 4 4 8 B T $.>.>.>.>.>.>.>.>.>.>.>.>.>.>.>.>.>.>.",
">.>.>.>.>.>.>.>.>.>.>.>.>.>.>.>.>.>.>.9 4 4 6 5 1 1 > > > > > > > > > : = = 1 4 2 2 8 V T $.>.>.>.>.>.>.>.>.>.>.>.>.>.>.>.>.>.>.",
">.>.>.>.>.>.>.>.>.>.>.>.>.>.>.>.>.>.>.9 2 2 6 5 > > # + + + + + + + + O . . = 4 2 6 8 B T $.>.>.>.>.>.>.>.>.>.>.>.>.>.>.>.>.>.>.",
">.>.>.>.>.>.>.>.>.>.>.>.>.>.>.>.>.>.>.0 2 2 6 1 , , & # # # # # # # # + . . = 8 2 2 8 B T $.>.>.>.>.>.>.>.>.>.>.>.>.>.>.>.>.>.>.",
">.>.>.>.>.>.>.>.>.>.>.>.>.>.>.>.>.>.>.0 2 2 2 8 r r 5 1 1 1 1 1 1 1 1 : O O > 8 2 2 8 B T $.>.>.>.>.>.>.>.>.>.>.>.>.>.>.>.>.>.>.",
">.>.>.>.>.>.>.>.>.>.>.>.>.>.>.>.>.>.>.0 2 2 2 8 z t 8 2 2 2 2 2 2 2 8 , @ + > 8 2 2 8 B T $.>.>.>.>.>.>.>.>.>.>.>.>.>.>.>.>.>.>.",
">.>.>.>.>.>.>.>.>.>.>.>.>.>.>.>.>.>.>.0 2 2 2 8 z t 8 2 2 2 2 2 2 2 7 , + + > 8 2 2 8 B T $.>.>.>.>.>.>.>.>.>.>.>.>.>.>.>.>.>.>.",
">.>.>.>.>.>.>.>.>.>.>.>.>.>.>.>.>.>.>.0 4 4 2 8 z t 8 2 2 2 2 2 2 2 8 , + + > 8 6 2 8 V T $.>.>.>.>.>.>.>.>.>.>.>.>.>.>.>.>.>.>.",
">.>.>.>.>.>.>.>.>.>.>.>.>.>.>.>.>.>.>.0 4 4 2 8 z z 8 2 2 2 2 2 2 2 8 , + + > 6 2 2 8 V T $.>.>.>.>.>.>.>.>.>.>.>.>.>.>.>.>.>.>.",
">.>.>.>.>.>.>.>.>.>.>.>.>.>.>.>.>.>.>.0 4 4 2 8 t t 8 1 2 2 2 2 2 2 6 > + + > 6 2 2 8 V T $.>.>.>.>.>.>.>.>.>.>.>.>.>.>.>.>.>.>.",
">.>.>.>.>.>.>.>.>.>.>.>.>.>.>.>.>.>.>.0 4 4 1 e S D r r r r r r r r r 8 = = 1 5 6 2 8 D T $.>.>.>.>.>.>.>.>.>.>.>.>.>.>.>.>.>.>.",
">.>.>.>.>.>.>.>.>.>.>.>.>.>.>.>.>.>.>.0 2 4 1 f o.o._ T T T T T T T T G f t 8 1 5 2 8 D T $.>.>.>.>.>.>.>.>.>.>.>.>.>.>.>.>.>.>.",
">.>.>.>.>.>.>.>.>.>.>.>.>.>.>.>.>.>.>.0 2 2 1 r | | Y G G G G G G G G B t t e w 4 2 8 V T $.>.>.>.>.>.>.>.>.>.>.>.>.>.>.>.>.>.>.",
">.>.>.>.>.>.>.>.>.>.>.>.>.>.>.>.>.>.>.0 2 2 2 8 8 8 8 8 8 8 8 8 8 8 8 8 8 4 j y d 2 8 B T $.>.>.>.>.>.>.>.>.>.>.>.>.>.>.>.>.>.>.",
">.>.>.>.>.>.>.>.>.>.>.>.>.>.>.>.>.>.>.0 2 2 2 2 2 1 1 1 1 1 1 2 2 2 1 1 1 4 h u g 2 8 V T $.>.>.>.>.>.>.>.>.>.>.>.>.>.>.>.>.>.>.",
">.>.>.>.>.>.>.>.>.>.>.>.>.>.>.>.>.>.>.0 2 2 2 2 2 2 2 2 2 2 2 2 2 2 2 1 5 1 % $ < 1 8 V T $.>.>.>.>.>.>.>.>.>.>.>.>.>.>.>.>.>.>.",
">.>.>.>.>.>.>.>.>.>.>.>.>.>.>.>.>.>.>.0 4 4 2 1 1 2 4 8 8 8 2 1 6 6 5 6 8 5 & O * 5 8 V T $.>.>.>.>.>.>.>.>.>.>.>.>.>.>.>.>.>.>.",
">.>.>.>.>.>.>.>.>.>.>.>.>.>.>.>.>.>.>.0 4 2 2 1 1 , - = = = = = = = = = # # = - > 5 8 V T $.>.>.>.>.>.>.>.>.>.>.>.>.>.>.>.>.>.>.",
">.>.>.>.>.>.>.>.>.>.>.>.>.>.>.>.>.>.>.0 4 2 2 1 > - # O + + + + + + + o     - 3 1 2 8 V T $.>.>.>.>.>.>.>.>.>.>.>.>.>.>.>.>.>.>.",
">.>.>.>.>.>.>.>.>.>.>.>.>.>.>.>.>.>.>.0 4 4 4 1 5 5 = * * * * * * * * # X X - 1 1 2 8 V T $.>.>.>.>.>.>.>.>.>.>.>.>.>.>.>.>.>.>.",
">.>.>.>.>.>.>.>.>.>.>.>.>.>.>.>.>.>.>.0 4 4 2 8 z t 8 1 1 1 1 1 1 1 6 > + + > 4 2 2 8 B T $.>.>.>.>.>.>.>.>.>.>.>.>.>.>.>.>.>.>.",
">.>.>.>.>.>.>.>.>.>.>.>.>.>.>.>.>.>.>.0 2 2 2 8 n z 8 1 2 2 2 2 2 2 4 , + + > 8 2 2 8 B T $.>.>.>.>.>.>.>.>.>.>.>.>.>.>.>.>.>.>.",
">.>.>.>.>.>.>.>.>.>.>.>.>.>.>.>.>.>.>.0 2 2 2 8 z z 8 1 2 2 2 2 2 2 3 > + + > 8 2 2 8 B T $.>.>.>.>.>.>.>.>.>.>.>.>.>.>.>.>.>.>.",
">.>.>.>.>.>.>.>.>.>.>.>.>.>.>.>.>.>.>.9 2 2 2 8 n z 8 2 2 2 2 2 2 2 4 > + + > 8 2 2 8 V T $.>.>.>.>.>.>.>.>.>.>.>.>.>.>.>.>.>.>.",
">.>.>.>.>.>.>.>.>.>.>.>.>.>.>.>.>.>.>.0 2 2 2 8 n z 8 2 2 2 2 2 2 2 4 > + + > 8 2 2 8 V T $.>.>.>.>.>.>.>.>.>.>.>.>.>.>.>.>.>.>.",
">.>.>.>.>.>.>.>.>.>.>.>.>.>.>.>.>.>.>.0 4 4 2 8 f f 8 1 1 1 1 1 1 1 3 > + + > 8 2 2 8 V T $.>.>.>.>.>.>.>.>.>.>.>.>.>.>.>.>.>.>.",
">.>.>.>.>.>.>.>.>.>.>.>.>.>.>.>.>.>.>.0 4 4 1 r _ ) n t f t t t t t t r 5 , 1 2 2 2 8 V T $.>.>.>.>.>.>.>.>.>.>.>.>.>.>.>.>.>.>.",
">.>.>.>.>.>.>.>.>.>.>.>.>.>.>.>.>.>.>.0 4 4 1 f o.+._ T / / / / / / / Y n n 8 2 2 2 8 B T $.>.>.>.>.>.>.>.>.>.>.>.>.>.>.>.>.>.>.",
">.>.>.>.>.>.>.>.>.>.>.>.>.>.>.>.>.>.>.0 2 4 1 r ] ] A n A A A A A A B n r r 8 2 2 2 8 B T $.>.>.>.>.>.>.>.>.>.>.>.>.>.>.>.>.>.>.",
">.>.>.>.>.>.>.>.>.>.>.>.>.>.>.>.>.>.>.9 2 2 4 1 4 8 5 4 4 8 8 8 4 4 8 8 2 8 8 2 2 2 8 B T $.>.>.>.>.>.>.>.>.>.>.>.>.>.>.>.>.>.>.",
">.>.>.>.>.>.>.>.>.>.>.>.>.>.>.>.>.>.>.0 2 2 4 1 2 6 5 2 2 1 3 1 1 1 3 3 1 2 2 2 4 4 8 B T $.>.>.>.>.>.>.>.>.>.>.>.>.>.>.>.>.>.>.",
">.>.>.>.>.>.>.>.>.>.>.>.>.>.>.>.>.>.>.0 6 2 2 2 2 6 6 2 2 2 3 1 2 2 3 3 1 2 2 2 4 4 4 V T $.>.>.>.>.>.>.>.>.>.>.>.>.>.>.>.>.>.>.",
">.>.>.>.>.>.>.>.>.>.>.>.>.>.>.>.>.>.>.9 5 7 7 7 7 7 7 7 7 7 7 7 5 5 7 7 7 7 7 7 7 7 8 P { &.>.>.>.>.>.>.>.>.>.>.>.>.>.>.>.>.>.>.",
">.>.>.>.>.>.>.>.>.>.>.>.>.>.>.>.>.>.>.>.>.>.>.>.>.>.>.>.>.>.>.>.>.>.>.>.>.>.>.>.>.>.>.>.>.>.>.>.>.>.>.>.>.>.>.>.>.>.>.>.>.>.>.>.",
">.>.>.>.>.>.>.>.>.>.>.>.>.>.>.>.>.>.>.>.>.>.>.>.>.>.>.>.>.>.>.>.>.>.>.>.>.>.>.>.>.>.>.>.>.>.>.>.>.>.>.>.>.>.>.>.>.>.>.>.>.>.>.>.",
">.>.>.>.>.>.>.>.>.>.>.>.>.>.>.>.>.>.>.>.>.>.>.>.>.>.>.>.>.>.>.>.>.>.>.>.>.>.>.>.>.>.>.>.>.>.>.>.>.>.>.>.>.>.>.>.>.>.>.>.>.>.>.>.",
">.>.>.>.>.>.>.>.>.>.>.>.>.>.>.>.>.>.>.>.>.>.>.>.>.>.>.>.>.>.>.>.>.>.>.>.>.>.>.>.>.>.>.>.>.>.>.>.>.>.>.>.>.>.>.>.>.>.>.>.>.>.>.>.",
">.>.>.>.>.>.>.>.>.>.>.>.>.>.>.>.>.>.>.>.>.>.>.>.>.>.>.>.>.>.>.>.>.>.>.>.>.>.>.>.>.>.>.>.>.>.>.>.>.>.>.>.>.>.>.>.>.>.>.>.>.>.>.>.",
">.>.>.>.>.>.>.>.>.>.>.>.>.>.>.>.>.>.>.>.>.>.>.>.>.>.>.>.>.>.>.>.>.>.>.>.>.>.>.>.>.>.>.>.>.>.>.>.>.>.>.>.>.>.>.>.>.>.>.>.>.>.>.>.",
">.>.>.>.>.>.>.>.>.>.>.>.>.>.>.>.>.>.>.>.>.>.>.>.>.>.>.>.>.>.>.>.>.>.>.>.>.>.>.>.>.>.>.>.>.>.>.>.>.>.>.>.>.>.>.>.>.>.>.>.>.>.>.>.",
">.>.>.>.>.>.>.>.>.>.>.>.>.>.>.>.>.>.>.>.>.>.>.>.>.>.>.>.>.>.>.>.>.>.>.>.>.>.>.>.>.>.>.>.>.>.>.>.>.>.>.>.>.>.>.>.>.>.>.>.>.>.>.>.",
">.>.>.>.>.>.>.>.>.>.>.>.>.>.>.>.>.>.>.>.>.>.>.>.>.>.>.>.>.>.>.>.>.>.>.>.>.>.>.>.>.>.>.>.>.>.>.>.>.>.>.>.>.>.>.>.>.>.>.>.>.>.>.>.",
">.>.>.>.>.>.>.>.>.>.>.>.>.>.>.>.>.>.>.>.>.>.>.>.>.>.>.>.>.>.>.>.>.>.>.>.>.>.>.>.>.>.>.>.>.>.>.>.>.>.>.>.>.>.>.>.>.>.>.>.>.>.>.>.",
">.>.>.>.>.>.>.>.>.>.>.>.>.>.>.>.>.>.>.>.>.>.>.>.>.>.>.>.>.>.>.>.>.>.>.>.>.>.>.>.>.>.>.>.>.>.>.>.>.>.>.>.>.>.>.>.>.>.>.>.>.>.>.>.",
">.>.>.>.>.>.>.>.>.>.>.>.>.>.>.>.>.>.>.>.>.>.>.>.>.>.>.>.>.>.>.>.>.>.>.>.>.>.>.>.>.>.>.>.>.>.>.>.>.>.>.>.>.>.>.>.>.>.>.>.>.>.>.>.",
">.>.>.>.>.>.>.>.>.>.>.>.>.>.>.>.>.>.>.>.>.>.>.>.>.>.>.>.>.>.>.>.>.>.>.>.>.>.>.>.>.>.>.>.>.>.>.>.>.>.>.>.>.>.>.>.>.>.>.>.>.>.>.>.",
">.>.>.>.>.>.>.>.>.>.>.>.>.>.>.>.>.>.>.>.>.>.>.>.>.>.>.>.>.>.>.>.>.>.>.>.>.>.>.>.>.>.>.>.>.>.>.>.>.>.>.>.>.>.>.>.>.>.>.>.>.>.>.>."
};
