/* XPM */
static char *_a45f3257ebb4e888d2e3236345fdad4XwEzEUyJv7f1WK99[] = {
/* columns rows colors chars-per-pixel */
"32 31 6 1 ",
"  c #AE9AA6",
". c #BBABB1",
"X c #C2AEB0",
"o c #CBBDBD",
"O c #D2C9C9",
"+ c #DBD5D5",
/* pixels */
"OXXXXXXXXXXXXXX OXXXXXXXXXXXXXX ",
"OXXXXXXXXXXXXXX OXXXXXXXXXXXXXX ",
"OXXXXXXXXXXXXXX OXXXXXXXXXXXXXX ",
"OXXXXXXXXXXXXXX OXXXXXXXXXXXXXX ",
"OXXXXoooooooooo.+oooooooooooooo.",
"OXXXXoooooooooo.+oooooooooooooo.",
"OXXXXoooooooooo.+oooooooooooooo.",
"OXXXXoooooooooo.+oooooooooooooo.",
"OXXXXoooooooooo.+oooooooooooooo.",
"OXXXXoooooooooo.+oooooooooooooo.",
"OXXXXoooooooooo.+oooooooooooooo.",
"OXXXXoooooooooo.+oooooooooooooo.",
"OXXXXoooooooooo.+oooooooooooooo.",
"OXXXXoooooooooo.+oooooooooooooo.",
"     ...........................",
"OOOOO++++++++++.+++++++++++++++.",
"OXXXXoooooooooo.+oooooooooooooo.",
"OXXXXoooooooooo.+oooooooooooooo.",
"OXXXXoooooooooo.+oooooooooooooo.",
"OXXXXoooooooooo.+oooooooooooooo.",
"OXXXXoooooooooo.+oooooooooooooo.",
"OXXXXoooooooooo.+oooooooooooooo.",
"OXXXXoooooooooo.+oooooooooooooo.",
"OXXXXoooooooooo.+oooooooooooooo.",
"OXXXXoooooooooo.+oooooooooooooo.",
"OXXXXoooooooooo.+oooooooooooooo.",
"OXXXXoooooooooo.+oooooooooooooo.",
"OXXXXoooooooooo.+oooooooooooooo.",
"OXXXXoooooooooo.+oooooooooooooo.",
"OXXXXoooooooooo.+oooooooooooooo.",
"     ..........................."
};
