/* XPM */
static const char *player[] = {
/* columns rows colors chars-per-pixel */
"64 64 174 2 ",
"   c #1C120B",
".  c #2D1500",
"X  c #21150E",
"o  c #26180F",
"O  c #2B1A0D",
"+  c #2E1906",
"@  c #341A03",
"#  c #331E0C",
"$  c #251B14",
"%  c #2B1C11",
"&  c #311F10",
"*  c #3C2109",
"=  c #2C221B",
"-  c #2E2116",
";  c #352210",
":  c #3B2614",
">  c #35261D",
",  c #34281F",
"<  c #2B2522",
"1  c #2B2929",
"2  c #342922",
"3  c #3A2D25",
"4  c #332D2B",
"5  c #36302F",
"6  c #39322F",
"7  c #3A3635",
"8  c #472607",
"9  c #532902",
"0  c #5B2E03",
"q  c #5D3008",
"w  c #492F16",
"e  c #462D16",
"r  c #57371F",
"t  c #593217",
"y  c #633204",
"u  c #67350A",
"i  c #683710",
"p  c #643B14",
"a  c #6B3C15",
"s  c #613B1D",
"d  c #723E14",
"f  c #503D2F",
"g  c #5E3A28",
"h  c #5A3926",
"j  c #433B36",
"k  c #433E3D",
"l  c #4D3C34",
"z  c #613822",
"x  c #603F2D",
"c  c #6D3E26",
"v  c #69411C",
"b  c #774117",
"n  c #74471E",
"m  c #4B413B",
"M  c #574237",
"N  c #64442F",
"B  c #6D4229",
"V  c #724720",
"C  c #71462D",
"Z  c #684837",
"A  c #684737",
"S  c #744B37",
"D  c #774E3A",
"F  c #79503C",
"G  c #75503D",
"H  c #554A44",
"J  c #5C4940",
"K  c #504B4A",
"L  c #5C524B",
"P  c #585556",
"I  c #595658",
"U  c #5E5B5C",
"Y  c #575455",
"T  c #634C41",
"R  c #715445",
"E  c #7D5642",
"W  c #715A4F",
"Q  c #635C5B",
"!  c #6B5F59",
"~  c #74645D",
"^  c #7C685F",
"/  c #625F60",
"(  c #666263",
")  c #69676A",
"_  c #6A696B",
"`  c #6B6463",
"'  c #786F6C",
"]  c #7C726C",
"[  c #716F71",
"{  c #7C7B7E",
"}  c #737174",
"|  c #8E2D0C",
" . c #9C310E",
".. c #AA4F1E",
"X. c #B96118",
"o. c #854B27",
"O. c #975527",
"+. c #955825",
"@. c #81533A",
"#. c #9F5833",
"$. c #9B5936",
"%. c #BD5720",
"&. c #BE5820",
"*. c #A66424",
"=. c #B3693D",
"-. c #B0673C",
";. c #C0561B",
":. c #C96716",
">. c #CB6916",
",. c #C26D1C",
"<. c #D06F19",
"1. c #D67028",
"2. c #D67C2A",
"3. c #825A44",
"4. c #855D4A",
"5. c #93644D",
"6. c #8A6552",
"7. c #916753",
"8. c #99725E",
"9. c #A16444",
"0. c #BD6F43",
"q. c #856D61",
"w. c #82716A",
"e. c #88746B",
"r. c #927364",
"t. c #9F7966",
"y. c #867976",
"u. c #A07967",
"i. c #AB7F68",
"p. c #AD7D65",
"a. c #B87F62",
"s. c #DE7A47",
"d. c #D37D4D",
"f. c #C67950",
"g. c #CF7F56",
"h. c #D37F52",
"j. c #E77E48",
"k. c #9A8175",
"l. c #95837B",
"z. c #A6806C",
"x. c #B3846C",
"c. c #BE886C",
"v. c #BB866B",
"b. c #A78676",
"n. c #A88270",
"m. c #D88356",
"M. c #E8824E",
"N. c #E58756",
"B. c #E88450",
"V. c #E08759",
"C. c #E58B5C",
"Z. c #EA8E5E",
"A. c #FC8E55",
"S. c #EF905E",
"D. c #CB8D6D",
"F. c #C28667",
"G. c #D18E6D",
"H. c #CE906F",
"J. c #CF9170",
"K. c #D19372",
"L. c #EE9160",
"P. c #F59461",
"I. c #FA9662",
"U. c #FE9A65",
"Y. c #F29869",
"T. c #7F7E81",
"R. c #807E81",
"E. c #848285",
"W. c #868488",
"Q. c #88878B",
"!. c #8B8A8E",
"~. c #898282",
"^. c #9C8C85",
"/. c #8D8C90",
/* pixels */
"/./././././././././././././././././././././././././././././././././././././././././././././././././././././././././././././././.",
"/./././././././././././././././././././././././././././././././././././././././././././././././././././././././././././././././.",
"/./././././././././././././././././././././././././././././././././././././././././././././././././././././././././././././././.",
"/./././././././././././././././././././././././././././././././././././././././././././././././././././././././././././././././.",
"/./././././././././././././././././././././././././././././././././././././././././././././././././././././././././././././././.",
"/./././././././././././././././././././././././././././././././././././././././././././././././././././././././././././././././.",
"/./././././././././././././././././././././././././././././././././././././././././././././././././././././././././././././././.",
"/./././././././././././././././././././././././././././././././././././././././././././././././././././././././././././././././.",
"/./././././././././././././././././././././././././././././././././././././././././././././././././././././././././././././././.",
"/./././././././././././././././././././././././././././././././././././././././././././././././././././././././././././././././.",
"/./././././././././././././././././././././././././././././././././././././././././././././././././././././././././././././././.",
"/./././././././././././././././././././././././././././././././././././././././././././././././././././././././././././././././.",
"/./././././././././././././././././././././././././././././././././././././././././././././././././././././././././././././././.",
"/./././././././././././././././././././././././././././././././././././././././././././././././././././././././././././././././.",
"/./././././././././././././././././././././././././././././././././././././././././././././././././././././././././././././././.",
"/./././././././././././././././././././././././././././././././././././././././././././././././././././././././././././././././.",
"/./././././././././././././././././././././././././.!./././././././././././././././././././././././././././././././././././././.",
"/./././././././././././././././././././././././././.!.!.!.!.!.!.!.!.!.!.!.!././././././././././././././././././././././././././.",
"/./././././././././././././././././././././././././.Q.Y k k k k k k k k k / /./././././././././././././././././././././././././.",
"/./././././././././././././././././././././././././.{ 3 . @ @ @ @ @ @ @ . j W./././././././././././././././././././././././././.",
"/././././././././././././././././././././././././.{ m * 9 9 y o.a 9 9 0 9 8 L E././././././././././././././././././././././././.",
"/././././././././././././././././././././././././.U + 8 0 u O.d.=.d 0 0 y 0 ; _ /./././././././././././././././././././././././.",
"/././././././././././././././././././././././././.P + q d O.m.I.S.-.d i y 0 # ) /./././././././././././././././././././././././.",
"/././././././././././././././././././././././././.P # O.d.N.I.U.U.Z.h.0.b 0 # ) /./././././././././././././././././././././././.",
"/././././././././././././././././././././././././.U B h.I.U.U.U.U.U.U.P.=.i O ) /./././././././././././././././././././././././.",
"/././././././././././././././././././././././././.Q E D.D.H.K.K.K.D.K.K.F.3.2 ) /./././././././././././././././././././././././.",
"/././././././././././././././././././././././././.U K y.e.w.k.^.l.e.w.k.l.] j ) /./././././././././././././././././././././././.",
"/././././././././././././././././././././././././.U H z.6.J p.b.x.4.T x.k.R > ) /./././././././././././././././././././././././.",
"/././././././././././././././././././././././././.Q @.a.q.! r.v.i.' ~ n.G.f.g ) /./././././././././././././././././././././././.",
"/././././././././././././././././././././././././.Q $.m.c.8.~ R M W x.D.Y.L.S ) /./././././././././././././././././././././././.",
"/././././././././././././././././././././././././.Q #.A.I.m.5.Z g 9.P.U.U.L.D ) /./././././././././././././././././././././././.",
"/././././././././././././././././././././././././.Q o.j.A.P.C.V.V.L.U.U.I.h.x ) /./././././././././././././././././././././././.",
"/././././././././././././././././././././././././.( l $.s.M.B.M.M.N.Z.Z.g.F j } /./././././././././././././././././././././././.",
"/././././././././././././././././././././././././.!.R.T 7.4.c 5.5.3.t.u.r.] W.!././././././././././././././././././././././././.",
"/./././././././././././././././././././././././././.E.7 m f t N G N H H H ( !./././././././././././././././././././././././././.",
"/././././././././././././././././././././././././.E.K $ O p X.| ..+.: ; & = U !././././././././././././././././././././././././.",
"/././././././././././././././././././././././././.U $ X   a >. .&.*.w : X % = _ /./././././././././././././././././././././././.",
"/././././././././././././././././././././././././.P % o   a :. .%.*.w :   : - ) /./././././././././././././././././././././././.",
"/././././././././././././././././././././././././.Q z r   p >. .&.*.w : O C h ) /./././././././././././././././././././././././.",
"/././././././././././././././././././././././././.` D N X p <.;.1.*.w ; % E A [ /./././././././././././././././././././././././.",
"/././././././././././././././././././././././././.W.~.[ = p ,.2.2.+.w ; 4 y.E.Q././././././././././././././././././././././././.",
"/././././././././././././././././././././././././././.{ < w v n V s r e 6 W././././././././././././././././././././././././././.",
"/././././././././././././././././././././././././././.{ < = 2 , m = 3 , 5 W././././././././././././././././././././././././././.",
"/././././././././././././././././././././././././././.{ 4 1 1 5 / 1 1 1 7 W././././././././././././././././././././././././././.",
"/././././././././././././././././././././././././././.!.{ { { { E.{ { { T.!././././././././././././././././././././././././././.",
"/./././././././././././././././././././././././././././././././././././././././././././././././././././././././././././././././.",
"/./././././././././././././././././././././././././././././././././././././././././././././././././././././././././././././././.",
"/./././././././././././././././././././././././././././././././././././././././././././././././././././././././././././././././.",
"/./././././././././././././././././././././././././././././././././././././././././././././././././././././././././././././././.",
"/./././././././././././././././././././././././././././././././././././././././././././././././././././././././././././././././.",
"/./././././././././././././././././././././././././././././././././././././././././././././././././././././././././././././././.",
"/./././././././././././././././././././././././././././././././././././././././././././././././././././././././././././././././.",
"/./././././././././././././././././././././././././././././././././././././././././././././././././././././././././././././././.",
"/./././././././././././././././././././././././././././././././././././././././././././././././././././././././././././././././.",
"/./././././././././././././././././././././././././././././././././././././././././././././././././././././././././././././././.",
"/./././././././././././././././././././././././././././././././././././././././././././././././././././././././././././././././.",
"/./././././././././././././././././././././././././././././././././././././././././././././././././././././././././././././././.",
"/./././././././././././././././././././././././././././././././././././././././././././././././././././././././././././././././.",
"/./././././././././././././././././././././././././././././././././././././././././././././././././././././././././././././././.",
"/./././././././././././././././././././././././././././././././././././././././././././././././././././././././././././././././.",
"/./././././././././././././././././././././././././././././././././././././././././././././././././././././././././././././././.",
"/./././././././././././././././././././././././././././././././././././././././././././././././././././././././././././././././.",
"/./././././././././././././././././././././././././././././././././././././././././././././././././././././././././././././././.",
"/./././././././././././././././././././././././././././././././././././././././././././././././././././././././././././././././."
};
