/* XPM */
static char *da78506090094e3cc62d313810d905acuyx8YPVohUK1zdU3[] = {
/* columns rows colors chars-per-pixel */
"313 297 252 2 ",
"   c None",
".  c #010101",
"X  c #0A0101",
"o  c #020209",
"O  c #0A040A",
"+  c #0A090A",
"@  c #080906",
"#  c #120101",
"$  c #1D0001",
"%  c #140308",
"&  c #0E0E0E",
"*  c #230001",
"=  c #290100",
"-  c #220407",
";  c #330D07",
":  c #3B250D",
">  c #3A270D",
",  c #2D241C",
"<  c #2D2017",
"1  c #372614",
"2  c #3A2512",
"3  c #3D2914",
"4  c #34261C",
"5  c #372919",
"6  c #262625",
"7  c #262629",
"8  c #2A2626",
"9  c #362A22",
"0  c #39322B",
"q  c #333333",
"w  c #393737",
"e  c #2E3032",
"r  c #480B0B",
"t  c #4A1E03",
"y  c #511F00",
"u  c #5B1E01",
"i  c #591600",
"p  c #560609",
"a  c #660102",
"s  c #6A0102",
"d  c #680208",
"f  c #621E01",
"g  c #651A00",
"h  c #710102",
"j  c #452503",
"k  c #4C2601",
"l  c #4C2602",
"z  c #4D2501",
"x  c #4D2504",
"c  c #4E2606",
"v  c #4C2501",
"b  c #462903",
"n  c #4B2802",
"m  c #42250B",
"M  c #42290D",
"N  c #43290A",
"B  c #4B2809",
"V  c #522401",
"C  c #5C2101",
"Z  c #522904",
"A  c #5C2D02",
"S  c #582A0B",
"D  c #5D3308",
"F  c #412A13",
"G  c #462C18",
"H  c #572D15",
"J  c #4C3216",
"K  c #46331E",
"L  c #4C321B",
"P  c #513115",
"I  c #52341A",
"U  c #56381C",
"Y  c #5D3A1A",
"T  c #4D320F",
"R  c #632D01",
"E  c #6D2E00",
"W  c #652603",
"Q  c #732D00",
"!  c #792B02",
"~  c #653201",
"^  c #693201",
"/  c #643409",
"(  c #6B3A0B",
")  c #613E1D",
"_  c #683913",
"`  c #763305",
"'  c #453324",
"]  c #4A3322",
"[  c #443329",
"{  c #4A392C",
"}  c #5E3F22",
"|  c #553D27",
" . c #463930",
".. c #623E21",
"X. c #683A20",
"o. c #5E401D",
"O. c #5B4024",
"+. c #59402B",
"@. c #57412B",
"#. c #554234",
"$. c #624120",
"%. c #6C6D6C",
"&. c #7B6D64",
"*. c #746E6D",
"=. c #7A6D6B",
"-. c #766E65",
";. c #6E736D",
":. c #6D7067",
">. c #73726D",
",. c #7A716C",
"<. c #797266",
"1. c #6D6E73",
"2. c #736F73",
"3. c #796E74",
"4. c #6E7274",
"5. c #6C7479",
"6. c #737273",
"7. c #73737A",
"8. c #7D7D7C",
"9. c #797675",
"0. c #7C695C",
"q. c #96664B",
"w. c #8E6A55",
"e. c #866C5C",
"r. c #8C6B5C",
"t. c #8B6754",
"y. c #946856",
"u. c #916C56",
"i. c #A2745B",
"p. c #A76B49",
"a. c #856D63",
"s. c #896B61",
"d. c #826C68",
"f. c #8B776A",
"g. c #92766A",
"h. c #977767",
"j. c #8A7B74",
"k. c #827D7B",
"l. c #877B78",
"z. c #947770",
"x. c #9E7059",
"c. c #FA7F45",
"v. c #95653F",
"b. c #7D817D",
"n. c #7A8278",
"m. c #FD8C16",
"M. c #FE8A1B",
"N. c #FC881B",
"B. c #FC8E0F",
"V. c #FA8A24",
"C. c #FE972E",
"Z. c #FE992E",
"A. c #FA942A",
"S. c #E98F36",
"D. c #EA8E3B",
"F. c #F78735",
"G. c #F88834",
"H. c #E89036",
"J. c #FF9734",
"K. c #FE9933",
"L. c #FE973A",
"P. c #FA993A",
"I. c #E9912E",
"U. c #F1A239",
"Y. c #82817C",
"T. c #858175",
"R. c #938270",
"E. c #BC9375",
"W. c #DA9550",
"Q. c #FE8545",
"!. c #FE864B",
"~. c #FD894B",
"^. c #F98848",
"/. c #EE9B4B",
"(. c #EE9C45",
"). c #FE934B",
"_. c #F59A46",
"`. c #ED8C58",
"'. c #FD8651",
"]. c #F58A53",
"[. c #FB8952",
"{. c #F48B5B",
"}. c #F58758",
"|. c #FD965D",
" X c #FE9A5E",
".X c #F5955C",
"XX c #E99452",
"oX c #DC936D",
"OX c #DB9565",
"+X c #DC9371",
"@X c #D89676",
"#X c #D49171",
"$X c #E88D63",
"%X c #E8966B",
"&X c #FE9664",
"*X c #FE9A65",
"=X c #FF966A",
"-X c #F59C6D",
";X c #FE9A69",
":X c #F49765",
">X c #EB9E75",
",X c #EC9E7A",
"<X c #E39775",
"1X c #F49E72",
"2X c #FB9B72",
"3X c #F49B78",
"4X c #EA8E6B",
"5X c #DBA277",
"6X c #ECA26E",
"7X c #F4A06E",
"8X c #FEA16C",
"9X c #FFA165",
"0X c #EBA174",
"qX c #E4A27D",
"wX c #ECA27A",
"eX c #E5A578",
"rX c #F4A173",
"tX c #F7A278",
"yX c #D8A15D",
"uX c #7D7E82",
"iX c #797C86",
"pX c #6E7780",
"aX c #827E83",
"sX c #867D86",
"dX c #7D8182",
"fX c #7B8389",
"gX c #828182",
"hX c #888586",
"jX c #98958B",
"kX c #9B9694",
"lX c #9A9995",
"zX c #969A9C",
"xX c #9A999B",
"cX c #979897",
"vX c #8C999A",
"bX c #A7968A",
"nX c #A29995",
"mX c #989FA2",
"MX c #9DA19A",
"NX c #D19C87",
"BX c #E69E86",
"VX c #F09F82",
"CX c #DEA483",
"ZX c #DDA58B",
"AX c #D7A68C",
"SX c #D6A992",
"DX c #E3A383",
"FX c #E3A489",
"GX c #EAA484",
"HX c #F2A684",
"JX c #E4AA93",
"KX c #D1AEA2",
/* pixels */
"                                                                                                                                                                                                                                                                                                                                                                                                                                                                                                                                                                                                                                                  ",
"                                                                                                                                                                                                                                                                                                                                                                                                                                                                                                                                                                                                                                                  ",
"                                                                                                                                                                                                                                                                                                                                                                                                                                                                                                                                                                                                                                                  ",
"                                                                                                                                                                                                                                                                                                                                                                                                                                                                                                                                                                                                                                                  ",
"                                                                                                                                                                                                                                                                                                                                                                                                                                                                                                                                                                                                                                                  ",
"                                                                                                                                                                                                                                                                                                                                                                                                                                                                                                                                                                                                                                                  ",
"                                                                                                                                                                                                                                                                                                                                                                                                                                                                                                                                                                                                                                                  ",
"                                                                                                                                                                                                                                                                                                                                                                                                                                                                                                                                                                                                                                                  ",
"                                                                                                                                                                                                                                                                                                                                                                                                                                                                                                                                                                                                                                                  ",
"                                                                                                                                                                                                                                                                                                                                                                                                                                                                                                                                                                                                                                                  ",
"                                                                                                                                                                                                                                                                                                                                                                                                                                                                                                                                                                                                                                                  ",
"                                                                                                                                                                                                                                                                                                                                                                                                                                                                                                                                                                                                                                                  ",
"                                                                                                                                                                                                                                                                                                                                                                                                                                                                                                                                                                                                                                                  ",
"                                                                                                                                                                                                                                                                                                                                                                                                                                                                                                                                                                                                                                                  ",
"                                                                                                                                                                                                                                                                                                                                                                                                                                                                                                                                                                                                                                                  ",
"                                                                                                                                                                                                                                                                                                                                                                                                                                                                                                                                                                                                                                                  ",
"                                                                                                                                                                                                                                                                                                                                                                                                                                                                                                                                                                                                                                                  ",
"                                                                                                                                                                                                                                                                                                                                                                                                                                                                                                                                                                                                                                                  ",
"                                                                                                                                                                                                                                                                                                                                                                                                                                                                                                                                                                                                                                                  ",
"                                                                                                                                                                                                                                  . . @ . . . . . . . . . . . . . . . . . . . . . . . . . . . . . . . . . . . . . . . . . . . . . . . . . . . . . . . . . . . . . . . . . . . . . . . . . . . . . . . . . . . . . . . . @ . .                                                                                                                                                                                                                     ",
"                                                                                                                                                                                                                                  . @ . . . . . . . . . . . . . . . . . . . . . . . . . . . . . . . . . . . . . . . . . . . . . . . . . . . . . . . . . . . . . . . . . . . . . . . . . . . . . . . . . . . . . . . . . . . .                                                                                                                                                                                                                     ",
"                                                                                                                                                                                                                                  @ . . . @ . @ . . . . . . . . . . . . . . . . . . . . . . . . . . . . . . . . . . . . . . . . . . . . . . . . . . . . . . . . . . . . . . . . . . . . . . . . . . . . . . . . . . . . . . @                                                                                                                                                                                                                     ",
"                                                                                                                                                                                                                                  . . @ . @ . . . . . . . . . . . . . . . . . . . . . . . . . . . . . . . . . . . . . . . . . . . . . . . . . . . . . . . . . . . . . . . . . . . . . . . . . . . . . . . . . . . . . . . . .                                                                                                                                                                                                                     ",
"                                                                                                                                                                                                                                  o . . . . . o . . . . . . . . . . . . . . . . . . . . . . . . . . . . . . . . . . . . . . . . . . . . . . . . . . . . . . . . . . . . . . . . . . . . . . . . . . . . . . . . . . . . . . .                                                                                                                                                                                                                     ",
"                                                                                                                                                                                                                                  . . . . . . . . . . . . . o o . . . . . . . . . . . . . . . . . . . . . . . . . . . . . . . . . . . . . . . . . . . . . . . . . . . . . . . . . . . . . . . . o o o o o o . . . X . @ . . o                                                                                                                                                                                                                     ",
"                                                                                                                                                                                                                                  . . . . . . . . . . . . . . . . . . . . . . . . . . . . . . . . . . . . . . . . . . . . . . . . . . . . . . . . . . . . . . . . . . . . . . . . . . . . . . . . . . . . . . . . . . . . . .                                                                                                                                                                                                                     ",
"                                                                                                                                                                                                                                  . . o + o . . o o o o o o o o o o o o o o o o o o o o o o o o o o o o o o o o o o o o o o o o o o o o o o o o o o o o o o o o o o o o o o o o o o o o o o o o o o o o o o o o . . . . . o .                                                                                                                                                                                                                     ",
"                                                                                                                                                                                                                                  . o o o o o o . . . . . . . o o o o o o o o . o o o o o o o o . . o . o o o o o o o o o o o . o o o o o o o o . . o . o o o o o o o o o o o . o o o o o o o o . . . . . . . . . o o o o o .                                                                                                                                                                                                                     ",
"                                                                                                                                                                                                                                  o o o o o o . . . . . . . . . . . . . . . . . . . . . . . . . . . . . . . . . . . . . . . . . . . . . . . . . . . . . . . . . . . . . . . . . . . . . . . . . . . . . . . . . . . o o o o .                                                                                                                                                                                                                     ",
"                                                                                                                                                                                                                                  . . . X # X X X X X X X X X X X X X X X X . . X X X X X X X X X X X X X X X X X X X X X X X X X X X X X X X X X X X X X X X X X X X X X X X X X X X X X X X X . . X X X X X X X X # X X . .                                                                                                                                                                                                                     ",
"                                                                                                                                                                                                          . + . . . . . . . . . X 9 3 F : : G F N N N N N N N N M M M M M M M M M M M M M M M M M M M M M M M M M M M M M M M M M M M M M M M M M M M M M M M M M M M M M M M M M M M M M M M M N N N N N N N N F L : : G 5 0 X . . . . . . . . . + .                                                                                                                                                                                             ",
"                                                                                                                                                                                                          . . . . . . . . . . . $ G j n n l l z l l l l l n n n l l l l l l n l x x x x x x x x x x x x x x x x x x x x x l l x x x x x x x x x x x x x x x x x x x x x x l l x x x x x x x l l n n n l l l l l j n l n j N 3 # . . . . . . . . . . .                                                                                                                                                                                             ",
"                                                                                                                                                                                                          . . . . . . . . . . . # > b c n n n l n n n n n n l l l l l l l l l l l l l l l l l l z z z z z l l l x n n n n n n n c l l l l l l l l l l l l l l n l l l l l l l l l l l l l l l l l l n n n n n n l l l c c N 5 # . . . . . . . o . . .                                                                                                                                                                                             ",
"                                                                                                                                                                                                          . . . . . . . . . . . # > b c n n l l n n n n n n l l l l l l l l l l l l l l l l l l l l l l n n n n x n n n n n n n x l l l l l l l l l l l l l l l l l l l l l l l l l l l l l l l l l l n n n n n l l l x c N 3 # . . . . . . . o o o .                                                                                                                                                                                             ",
"                                                                                                                                                                                                          . . . . . . . . . . . # > b c n n l l l n n n n n l l l l l l l l l l l l l l l l l l n n n n n n n n l l l l l l l l l l l l l l l l l l l l l l l l l l l l l l l l l l l l l l l l l l l l n l n n V l l x n B 3 # . . . . . . . o o o o                                                                                                                                                                                             ",
"                                                                                                                                                                                                          . . . . . . . . . . X # > b c n n l l n l n n n l l l l l l l l l l l l l l l l l l l n n n n n n n n l l l l z z z z l l n l l l l l l l l l l l l l l l l l l l l l l l l l l l l l z l l l l l n l V l l x n B 3 # . . . . . . . . o o .                                                                                                                                                                                             ",
"                                                                                                                                                                                                          . . . . . . . . . . X # > N c n l l l l n n n n l l l l l l l l l l l l l l l l l l l n n n n n n n n l l l l z z z z l l l l l l l l l l l l l l l l l l l l l l l l l l l l l l l l z l l l n n n l l l l n n B 3 # . . . . . . . . . . .                                                                                                                                                                                             ",
"                                                                                                                                                                                                          . . . . . . . . . . . # 3 N c n l l V l l l l n l l l l l l l l l l l n l l l l l l l l l l l l l l l l l l l l l l l l l l l l l l l l l l l l l l l l l n n l l l l l l l l l l l l l l l l n n c c l n n c c N 3 # . . . . . . . . . . .                                                                                                                                                                                             ",
"                                                                                                                                                                                                          . . . . . . . . . . . # 3 N c n l z V l l l l n l l l n n n n n n n n n n n n n n n n l l l l l l l l l l l l n n n n l l l l l l l n n l l l l l l l n n n n n n n n n n n n n n n n l l l n n c c x x n n c j N 3 X . . . . . . . . . . .                                                                                                                                                                                             ",
"                                                                                                                                                                                                          . . . . . . o o . . . % 3 N c n l z V z l l l l l l l n n n n n n n n n n n n n n n n l l l l l l l l l l l n n n n n l l l l l l l n n l l x l l l l n n n n n n n n n n n n n n n n l l n n n c c B c n n B j N 3 X . . . . . . . . o . .                                                                                                                                                                                             ",
"                                                                                                                                                                                                          . . . . . . . . . . . # G B j n z Z z l l Z l l z V V l l l l l l l l l l l l l l l l c B b c V V z c n n x V b b c N V l n n n l n n c n l n l z V V l l l l l l l l l l l l l l l l l l l V V l l x z S z n j B G $ . . . . . . . . o @ @                                                                                                                                                                                             ",
"                                                                                                                                                                                                          . X X X X X X X X X X # : j n Z x V j x l l n Z z V z l l l l l l l l z z z z l l l l V l l V u u C V C V u u V V u V V l n n n l n n c n l z V l V z l l l l l l l l l l l l l l l l z z z V z z z z z V l Z l j m $ # X # X X X X # # X X                                                                                                                                                                                             ",
"                                                                                                                                                                                  . . . . . . + @ . . X X 9 5 1 > m m j j j m m 2 T n n l z x l c n l l D D / / / / / / / / / / / / / / / / / / ~ ^ ~ E 0XrX%X0X7X0X1X1X6X0XrXwXV V n n n n n n x n l V D / / / / / / / / / / / / / / / / / / / / / / ~ / / / / ~ / ~ / D D _ H D D D D D D D D L L { X o X . + + . . . . . .                                                                                                                                                                     ",
"                                                                                                                                                                                  . . . . . . . . . X X X 5 G m n n n l l l l n G j n l l l x l c n l V / / ~ ~ ~ ~ ~ ~ ~ ~ ~ ~ ~ ~ ~ ~ ~ ~ ~ ~ R ( ^ Q 1X;X:X8X*X*X*X&X:X*X;X;XV V l n n n n n x l z V / / / ~ ~ ~ ~ ~ ~ ~ ~ ~ ~ ~ ~ ~ ~ ~ ~ ~ ~ ~ ~ ~ ~ ~ ~ ~ ~ ~ ~ ~ ~ ~ ~ / ^ ^ ^ ^ ^ ^ ^ ^ D Y I # O @ . . . . . . . . .                                                                                                                                                                     ",
"                                                                                                                                                                                  . . . . . . . o + . . # G : B x x x x x x x x j t l l l Z x z c x l l ~ ~ R R ^ ^ ^ ^ ^ ^ ^ ^ ^ ^ ^ ^ ^ ^ ^ ^ ^ R R Q -X;X;X*X=X;X=X=X;X;X2X2XC V l n n l n n l l l V / ~ ~ ~ ^ ^ ^ ^ ^ ^ ^ ^ ^ ^ ^ ^ ^ ^ ^ ^ ~ ~ ^ ^ ^ ^ ^ ^ ~ ^ ^ ^ ^ ~ R ~ / ~ ~ ~ ~ ~ ~ / ~ A U # . . . . . . . . . . .                                                                                                                                                                     ",
"                                                                                                                                                                                  . . . . . . . o o o . X 5 M j l l l l l l l n B x c l z l l x c c l V / ~ ^ ^ ~ ~ ~ ~ ~ ~ ~ ~ ^ ^ ^ ^ ^ ^ ^ ^ ~ / ^ E tX;X&X*X&X;X=X=X;X;X;X-XC V l n n l l n z l V V / / ~ ^ ~ ~ ~ ~ ~ ~ ~ ~ ~ ^ ~ ~ ~ ~ ~ ~ ~ ~ ~ ^ ^ ^ ^ ^ ~ ~ ~ R ~ ^ ^ ^ ~ ~ ~ ~ ^ ~ ~ ~ ~ ( P # X @ . . . . . . . . .                                                                                                                                                                     ",
"                                                                                                                                                                                  . . . . . . . . o . . X K j c l l z z z n n n z n n l l n l n c c l l / ~ R ^ ~ ~ ~ ~ ~ ~ ~ ~ ~ ~ ~ ~ ~ ~ ~ ~ ~ ~ R ` %X;X*X*X X*X&X*X X*X*X-XV V l n n n l n l l l z / ~ R ~ ~ ~ ~ ~ ~ ~ ~ ~ ~ ~ ~ ~ ~ ~ ~ ~ ~ ~ ~ ~ ~ ~ ~ ~ ~ ~ ~ ~ ~ ~ ~ R ~ ~ ^ E E E ^ ^ / D U # X . . o . . . . . . .                                                                                                                                                                     ",
"                                                                                                                                                                                  . . . . . . . . . . . # 3 B l V V V l z l n c n x z l l n n n c c l l / / ^ ^ ~ ~ ~ ~ ~ ~ ~ ~ ~ ~ ~ ~ ~ ~ ~ ~ ~ ~ ^ Q -X:X*X X*X;X&X&X*X*X;X-XV V n n n n l l l l l V / / ~ ^ ~ ~ ~ ~ ~ ~ ~ ~ ~ ~ ~ ~ ~ ~ ~ ~ ~ ~ ~ ~ ~ ~ ~ ~ ~ ~ ~ ~ ~ ~ ~ ~ / / ~ ~ ^ ^ ^ ~ / D I $ X . . o . . . . . . .                                                                                                                                                                     ",
"                                                                                                                                                                                  . . . . . . . . . . o X F j l l l l l l l l l n c n n n l n n n n z z / / ~ ~ ~ ~ ~ ~ ~ ~ ~ ~ ~ ~ ~ ~ ~ ~ ~ ~ ~ ~ ^ Q -X*X;X*X&X=X&X*X*X*X-X-XC V x x x V V V l z c Z R ^ ^ ~ ~ ~ ~ ~ ~ ~ ~ ~ ~ ~ ~ ~ ~ ~ ~ ~ ^ ~ ^ ^ ~ ~ ^ ^ ~ ~ ~ ~ ~ ~ ~ ~ ~ ~ ~ ~ ~ ~ ~ ~ ~ / U # . . . o . . . . . . .                                                                                                                                                                     ",
"                                                                                                                                                                                  . . . . . . . . . . o X 3 j l l l l l l l l l j n n n n n l n n Z l V / ~ ~ ^ ~ ~ ~ ~ ~ ~ ~ ~ ~ ~ ~ ~ ~ ~ ~ ~ ~ ~ R ` :X;X*X*X*X&X&X*X*X*X;X-XV V l n n n n b l n c V ~ ~ ~ ~ ~ ~ ~ ~ ~ ~ ~ ~ ~ ~ ~ ~ ~ ~ ~ ~ ~ ~ ~ ~ ~ ~ ^ ^ ~ ~ ~ ~ ~ ~ ~ ~ ~ ~ ~ ~ ~ ~ ~ ~ ~ / U # . . . o . . . . . . .                                                                                                                                                                     ",
"                                                                                                                                                                                  . . . . . . . . . . o X 3 c l l l l l l l l l n n l l l l l l z n z z ~ ~ ~ ^ ^ ^ ~ ~ ~ ~ ~ ~ ~ ~ ^ ~ ~ ~ ~ ~ ~ / ^ E rX;X*X*X*X*X&X*X*X*X;X-Xu C V x c c c B l j B z / ~ ~ ~ ~ ~ ~ ~ ~ ~ ~ ~ ~ ~ ~ ~ ~ ~ ~ ~ ^ ^ ^ ^ ^ ^ ~ ~ ~ ~ ~ ~ ~ ~ ~ ~ ~ ~ ~ ~ ~ ~ ~ ~ ~ / U # o . . . . . . . . . .                                                                                                                                                                     ",
"                                                                                                                                                                                  . . . . . . . . . . o X F c l l l l l l l l l n n n l l l l l l V V V ~ ~ ~ ~ ^ ^ ~ ~ ~ ~ ~ ~ ~ ~ ~ ~ ~ ~ ~ ~ / ~ ~ ` -X8X;X;X*X*X*X*X*X*X;X-XC V l l n l n n n B n Z A / ~ / ^ ^ ~ ^ ^ ^ ^ ^ ^ ^ ^ ^ ^ ^ ^ ^ R ~ ~ ~ ~ ^ ^ ^ ~ ~ ~ ~ ~ ~ ~ ~ ~ ~ ~ ~ ~ ~ ~ ~ ~ / U # . . . . . . . . . . .                                                                                                                                                                     ",
"                                                                                                                                                                                  . . . . . . . . . . o X F c l l l l l l l l l l l l V V l V V l z l V ~ ~ ~ ~ ^ ^ ~ ~ ~ ~ ~ ~ ~ ~ ~ ~ ~ ~ ~ ~ R ^ ^ Q -X*X.X;X*X*X*X*X*X*X;X;Xl n b b j n n n z z V z / A ~ ~ ~ ~ ~ ~ ~ ~ ~ ~ ~ ~ ~ ~ ~ ~ ~ ~ ~ / ~ ~ ^ ~ ~ ^ ~ ~ ~ ~ ~ ~ ~ ~ ~ ~ ~ ~ ~ ~ ~ ~ ~ / U # o . . . . . . . . . .                                                                                                                                                                     ",
"                                                                                                                                                                                  . . . . . . . . . . o X F c l l l l l l l l l z l V V V V V V V V V V ~ ~ ^ ~ ~ ~ ~ ~ ~ ~ ~ ~ E E E Q Q E E E Q ` Q ! 8X;X*X;X*X*X*X*X*X*X;X;XV V V V y u u u C W u u _ _ D / / / / / / / / / / / / / / / / / D / ~ ~ / ~ ~ ~ ~ ~ ~ ~ ~ ~ ~ ~ ~ ~ ~ ~ ~ ~ ~ ~ ~ D U # o . . . . . . . . . .                                                                                                                                                                     ",
"                                                                                                                                                                                  . . . . . . . . . . o X F n l l l l l l l l l Z D / ~ ~ ~ / / / / / ~ / ~ ~ R ~ ~ ~ ~ ~ ^ ^ ^ 0X1X-X-X-X-X-X-X-X-X1X-X:X&X*X*X*X*X;X*X;X;X;X;XrX7X7XrX1X-X-X-X%X>X1XHXy V V V l z l l l l l l l l l l z z z z z V z V ~ ~ ~ ^ ~ ~ ~ ~ ~ ~ ~ ~ ~ ~ ~ ~ ~ ~ ~ ~ ~ / U # o . . o . . . . . . .                                                                                                                                                                     ",
"                                                                                                                                                                                  . . . . . . . . . . o X F n l l l l l l l l l V A / / ~ ~ / ~ ~ ~ / ~ / ~ ^ ~ ~ ~ ~ ~ ~ ^ E E -X;X;X;X;X;X;X;X;X;X-X;X;X*X*X*X*X;X;X;X*X*X*X;X*X*X;X*X&X&X*X*X;X;X-X>XC Z n n l l l l l l l l l l l l l l l l l Z z V / / R ~ ~ ~ ~ ~ ~ ~ ~ ~ ~ ~ ~ ~ ~ ~ ~ ~ ~ / U # o . . o . . . . . . .                                                                                                                                                                     ",
"                                                                                                                                                                                  . . . . . . . . . . o X 3 c l l l l l l l l l V / ~ ~ ~ ~ ~ ~ ~ ~ ~ ~ ~ ~ ~ ^ ~ ~ ~ ~ ^ ^ E E -X;X;X*X*X;X;X;X;X;X;X*X*X*X*X*X*X*X*X;X;X*X*X*X*X*X;X*X*X*X&X&X=X;X=X1XV j c n n n n n n n n n n n n n n n n n n l z V ~ / ~ ~ ~ ~ ~ ~ ~ ~ ~ ~ ~ ~ ~ ~ ~ ~ ~ ^ ~ / U # o . . o . . . . . . .                                                                                                                                                                     ",
"                                                                                                                                                                                  . . . . . . . . . . o X F c l l l l l l l l l V / ~ ~ ~ ~ ~ ~ ~ ~ ~ ~ ~ ~ ~ ^ ~ ~ ~ ~ ~ E E E -X;X;X*X*X*X;X=X;X;X;X*X*X*X*X*X*X*X;X;X;X;X*X*X*X*X;X*X*X*X*X&X;X;X;X1XV n l n n n n n n n n n n n n n n n n n n l z V ~ / ~ ~ ~ ~ ~ ~ ~ ~ ~ ~ ~ ~ ~ ~ ~ ~ ~ ^ ~ / U # o . . o . . . . . . .                                                                                                                                                                     ",
"                                                                                                                                                                                  . . . . . . . . . . o X 3 j l l l l l l l l l V / ~ ~ ~ ~ ~ ~ ~ ~ ~ ~ ~ ~ ~ ~ ~ ~ ~ ~ ~ ~ ^ ^ ;X;X*X&X*X*X&X=X*X;X*X*X*X*X*X*X*X;X;X;X=X&X&X*X*X*X;X;X*X*X*X*X*X*X*X1XV n l n l l l l l l l l n l n n l l l l n l z V ~ / ~ ~ ~ ~ ~ ~ ~ ~ ~ ~ ~ ~ ~ ~ ~ ~ ~ ^ ~ / U # o . . o . . . . . . .                                                                                                                                                                     ",
"                                                                                                                                                                                  . . . . . . . . . . o X F c l l l l l l l l l V / ~ ~ ~ ~ ~ ~ ~ ~ ~ ~ ~ ~ ~ ~ ~ ~ ~ ~ ~ ~ ~ ^ ;X;X*X*X*X*X*X;X*X*X*X*X*X*X*X*X;X;X;X=X=X&X&X&X*X=X=X;X;X*X*X*X*X*X*X1XV n l n l l l l l l l l l l l l l l l l n l z V ~ ~ ~ ~ ~ ~ ~ ~ ~ ~ ~ ~ ~ ~ ~ ~ ~ ~ ~ ^ ~ / U # o . . . . . . . . . .                                                                                                                                                                     ",
"                                                                                                                                                                                  . . . . . . . . . . o X F c l l l l l l l l V V / ~ ~ ~ ~ ~ ~ ~ ~ ~ ~ ~ ~ ~ ~ ~ ~ ~ ~ ~ ~ ~ ~ ;X;X*X*X*X*X;X*X*X*X*X*X*X*X*X*X;X;X;X=X=X&X&X&X=X=X=X=X;X;X;X;X;X;X;X1XC n x n l l l l l l l l l l l l l l l l n l z V ~ / ~ ~ ~ ~ ~ ~ ~ ~ ~ ~ ~ ~ ~ ~ ~ ~ ~ ^ ~ / U # . . . . . . . . . . .                                                                                                                                                                     ",
"                                                                                                                                                                                  . . . . . . . . . . o X F c l l l l l l l l l V / ~ ~ ~ ~ ~ ~ ~ ~ ~ ~ ~ ~ ~ ~ ~ ~ ~ ~ ~ ~ ~ ^ ;X;X;X*X*X*X*X;X*X*X*X*X*X*X*X*X;X;X;X;X*X*X*X*X*X=X=X=X;X;X;X;X;X;X;X1XV n x c l l l l l l l l l l l l l l l l n l z V ~ / ~ ~ ~ ~ ~ ~ ~ ~ ~ ~ ~ ~ ~ ~ ~ ~ ~ ^ ~ / U # . . . . . . . . . . .                                                                                                                                                                     ",
"                                                                                                                                                                                  . . . . . . . . . . o X F n l l l l l l l l l V / ~ ~ ~ ~ ~ ~ ~ ~ ~ ~ ~ ~ ~ ~ ~ ~ ~ ~ ~ ~ ^ ^ ;X;X*X*X*X*X*X*X*X*X*X*X*X*X*X*X;X;X;X;X;X*X*X*X*X*X=X;X;X*X*X*X;X*X;X1XC n x n l l l l l l l l l l l l l l l l n l z V ~ ^ ~ ^ ~ ~ ~ ~ ~ ~ ~ ~ ~ ~ ~ ~ ~ ~ ~ ^ ~ D U # . . . o . . . . . . .                                                                                                                                                                     ",
"                                                                                                                                                                                  . . . . . . . . . . o X F n l l l l l l l l l V / ~ ~ ~ ~ ~ ~ ~ ~ ~ ~ ~ ~ ~ ~ ~ ~ ~ ~ ~ ^ ^ ^ ;X;X*X*X*X*X&X&X*X*X*X*X*X*X*X*X;X;X;X;X*X*X*X*X X*X*X*X*X*X*X*X=X&X=X1XC n l n l l l l l l l l l l l l l l l l n l z V ~ / ~ ^ ~ ~ ~ ~ ~ ~ ~ ~ ~ ~ ~ ~ ~ ~ ~ ^ ~ / U # o . . o . . . . . . .                                                                                                                                                                     ",
"                                                                                                                                                                                  . . . . . . . . . . X X F n V l l l l l l z V j D ^ ^ R ~ ~ ~ ~ ~ ~ ~ ~ ~ ~ ~ ~ ~ ~ ~ ~ ^ ^ ^ ;X;X;X*X*X&X&X*X*X*X*X*X*X*X*X*X*X*X*X*X*X*X*X*X*X*X*X*X*X*X&X&X&X;X2X,XC V b b l l l l l l l l l l l l l l l l B z Z Z S / ^ E ~ ~ ^ ~ ~ ~ ~ ~ ~ ~ ~ ~ ~ ~ ~ ^ ^ ~ U # X . . o . . . . . . .                                                                                                                                                                     ",
"                                                                                                                                                                                  . . . . . . . . . . o X F n l l l l l l l z V V ^ W ! ` E E E Q Q E E E Q Q Q Q Q E Q ^ Q Q Q ;X;X;X;X&X*X*X*X*X*X*X*X*X*X*X*X*X*X*X*X*X*X*X*X*X*X*X*X*X*X*X&X*X:X-XtXi W A V V u u u V V V V C C C C V V V V C C u y _ _ / ~ ~ ~ / ~ ~ / ~ ( ~ ~ ~ ~ ~ ~ ~ ~ ^ ~ U # X . . o . . . . . . .                                                                                                                                                                     ",
"                                                                                                                                                                                  . . . . . . . . . . o X 3 b l l l l l l l l l i wX7X:X-X8X7X1X-X-X-X-X-X-X-X-X-X-X-X-X-X-X-X-X;X;X;X;X;X;X*X*X*X*X*X*X*X*X*X*X*X*X*X*X*X*X*X*X;X*X*X*X*X*X*X*X*X;X;X-XtX1X>X3XrXrX-X-X7X7X7X7X1X1X1X1X1X1X1X1X1X%XrXwXi t x j V l l l l V V A ~ ~ ~ ~ ~ ~ ~ ~ ^ A U # . . . o . . . . . . .                                                                                                                                                                     ",
"                                                                                                                                                                                  . . . . . . . . . . o X 3 n l l l l l l l l l W tX*X&X*X*X*X;X;X*X*X*X*X*X;X;X;X;X;X;X;X;X;X;X;X;X;X;X*X;X;X;X*X*X*X*X*X*X*X*X*X*X*X*X*X*X*X*X;X*X*X*X*X*X*X*X*X:X;X=X2X;X2X;X*X*X*X*X*X*X*X*X*X*X*X*X*X*X*X*X;X*X*XrXf S c B l n n n n l V / ~ ~ ~ ~ ~ ~ ~ ~ ~ A U # o . . . . . . . . . .                                                                                                                                                                     ",
"                                                                                                                                                                                  . . . . . . . o . . o X F c V l l l l l l l l i >X*X*X|. X|.=X*X*X*X*X*X*X*X*X=X;X*X*X*X*X*X*X=X=X&X*X*X;X;X;X*X*X*X*X*X*X*X*X*X*X*X*X*X*X*X*X=X;X*X*X*X*X*X*X*X*X&X;X&X;X;X*X;X;X;X;X;X;X;X;X;X;X;X;X;X;X;X;X*X*X*X-XW y n j l z n n n z V / ~ ~ ~ ~ ~ ~ ~ ~ ~ A U # o . . . . . . . . . .                                                                                                                                                                     ",
"                                                                                                                                                                                  . . . . . . . o . . o X F c V x l l l l l l l C 0X:X&X*X*X.X2X*X*X*X X*X*X*X*X*X*X*X*X*X*X*X*X;X;X*X*X*X;X;X;X*X*X*X*X*X*X*X*X*X*X*X*X*X*X*X*X&X;X*X*X*X*X*X*X*X&X;X&X*X.X*X*X*X*X X X X X X X;X;X;X;X;X;X;X;X:X*X&X7Xu V l Z l l c c c z V / ~ ~ ~ ~ ~ ~ ~ ~ ~ A U # o . . o . . . . . . .                                                                                                                                                                     ",
"                                                                                                                                                                                  . . . . . . . o . . o X F c V x x l l l l l l C <X8X;X&X;X8X:X;X;X*X*X*X*X;X;X*X*X*X*X*X*X*X*X*X*X*X*X*X*X*X*X*X*X*X*X*X*X*X*X*X*X*X*X*X*X*X*X=X&X*X*X*X*X*X*X*X*X*X*X*X*X*X*X*X*X*X*X*X*X*X*X X X*X*X*X*X*X*X;X*X;X1Xu V l z n j n n n z V / ~ ~ ~ ~ ^ ~ ~ ~ ~ A U # o . . o . . . . . . .                                                                                                                                                                     ",
"                                                                                                                                                                                  . . . . . . . o . . o X 3 j c x x l l l l l l C wX-X=X2X:X;X;X=X=X&X*X*X*X;X;X*X*X*X*X*X*X*X*X*X*X*X*X*X*X*X*X*X*X*X*X*X*X*X*X*X*X*X*X*X*X*X*X;X;X*X*X*X*X*X;X;X*X;X*X*X*X*X*X;X;X;X;X*X*X*X*X;X;X;X;X;X;X;X;X;X*X*X-XC l x V n j B c n l l D ~ ~ ~ ~ ~ ~ ~ ~ ~ A U # X . . o . . . . . . .                                                                                                                                                                     ",
"                                                                                                                                                                                  . . . . . . . . . o . X 3 n V x c c c x V V V C wX2X&X;X;X;X;X;X;X;X*X*X;X;X;X;X;X;X;X;X*X*X*X*X*X*X*X*X*X*X*X*X*X*X*X*X*X*X*X*X*X*X*X*X*X*X*X*X*X*X;X*X*X*X;X;X;X;X;X*X*X*X*X*X*X*X*X*X*X*X*X*X*X*X*X*X*X*X*X;X;X;X-XC c l V B c j l j n l D ~ ~ ~ ~ ~ ~ ~ ~ ^ / P # X o . . . . . . . . .                                                                                                                                                                     ",
"                                                                                                                                                                                  . . . . . . . X . . . X > j Z n n n n l l V V u >X8X*X*X*X;X;X*X*X*X*X*X*X*X;X=X=X=X=X*X;X*X*X*X*X*X*X*X*X*X*X*X*X*X*X*X*X*X*X*X*X*X*X*X*X*X*X*X*X*X*X*X*X;X;X;X;X;X&X&X*X*X*X*X*X*X*X*X*X*X*X*X*X*X*X;X;X;X;X:X=X;X7XC l l V z l z l Z z V / ~ ~ ~ ~ ~ ~ ~ ~ R / P # . o . . . . . . . . .                                                                                                                                                                     ",
"                                                                                                                                                                                  . . . . . . . . . + . X > b c c B B B c x V V W wX;X*X9X*X|.;X*X*X*X*X*X*X*X*X=X&X&X&X&X&X&X&X*X*X*X*X*X*X*X*X*X*X*X*X*X*X*X*X*X*X*X*X*X*X*X*X*X*X*X*X*X*X;X;X;X;X;X&X&X&X*X*X;X;X;X;X;X;X;X;X*X*X;X;X;X;X;X;X*X;X&X7Xy Z j n Z l l l V V A R ~ ~ ~ ~ ~ ~ ~ ~ ~ / U # . o . . . . . . . . .                                                                                                                                                                     ",
"                                                                                                                                                                                  . . . . . . . o @ . X # F j x n n n n n n l l f >X;X*X|.|.;X&X*X*X*X*X*X*X*X*X=X;X;X;X&X&X&X&X;X;X*X*X*X*X*X*X*X*X*X*X*X*X*X*X*X*X*X*X*X*X*X*X*X*X*X*X*X*X;X;X*X*X*X&X=X=X=X=X;X;X;X;X;X;X;X;X*X*X;X;X;X;X;X;X*X;X;X-XC n b B l z c B c y V / ~ ~ ~ ~ ~ ~ ~ ~ A D P # . o . o . . . . . . .                                                                                                                                                                     ",
"                                                                                                                                                                                  . . . . . . . o @ o . X > B V l l l l l l V V g tX:X&X8X:X*X;X;X;X*X*X*X*X;X;X;X;X;X;X;X;X;X;X;X;X;X*X*X*X*X*X*X*X*X*X*X*X*X*X*X*X*X*X*X*X*X*X*X&X&X;X;X*X*X*X*X*X;X;X&X=X=X=X*X*X*X*X*X*X*X*X*X*X*X*X*X*X*X*X*X;X:X-Xu x j j l x c c c Z V ~ ~ ~ ~ ~ ~ ~ ~ ~ ~ _ I # . o . . . . . . . . .                                                                                                                                                                     ",
"                                                                                                                                                                                  . . . . . . . o . o X % j V u u u u u u u u u g 1X;X|.;X*X;X&X;X;X;X*X*X*X;X;X;X*X*X*X*X*X*X*X*X*X*X*X;X;X;X*X*X*X*X*X*X*X*X*X*X*X*X*X*X*X*X*X;X;X&X&X&X*X*X*X*X*X*X*X;X;X;X=X*X*X*X*X*X*X*X*X*X*X*X*X*X*X*X*X;X=X;XrXf C A V V C y i A y V _ / / / / / / / / / Y L % . o . o . . . . . . .                                                                                                                                                                     ",
"                                                                                                                                                                                  . . . . . . . o & o X $ AXwX-X1X1X1X1X1X1XrXrXHX2X&X*X|..X8X*X;X*X*X*X*X*X*X;X*X*X*X*X*X*X*X*X*X*X*X;X*X*X;X=X*X*X*X*X*X*X*X*X*X*X*X*X*X*X*X*X;X;X;X;X*X*X*X*X*X*X*X*X*X*X;X;X*X*X*X*X*X*X*X*X*X*X*X*X*X*X*X*X:X;X*X`.tX>X-X1X6X%XtXtX%XwXeXy z V V z z z l l V l N X . o . o . . . . . . .                                                                                                                                                                     ",
"                                                                                                                                                                                  . . . . . . . . . o X $ ZX%X;X=X=X=X=X=X=X;X*X-X:X*X|. X*X*X*X*X*X*X*X*X*X*X*X*X*X*X*X*X*X*X*X*X*X*X;X*X;X=X=X*X*X*X*X*X*X*X*X*X*X*X*X*X*X*X*X;X;X;X;X;X*X*X*X*X*X*X*X*X*X*X*X*X*X*X*X*X*X*X*X*X*X*X*X*X*X*X*X;X;X*X X;X;X X|. X*X&X|.8X:XwXg V V V V V V l l V x M X . o . o . . . . . . .                                                                                                                                                                     ",
"                                                                                                                                                                                  . . . . . . . o . o X * DX-X|.*X;X;X;X*X*X;X;X;X;X;X;X;X;X;X;X;X;X;X;X;X;X;X;X;X;X;X;X;X;X;X;X;X;X;X;X;X;X;X;X;X;X;X;X;X;X;X;X;X;X;X;X;X;X;X;X;X;X;X;X;X;X;X;X;X;X;X;X;X;X;X;X;X;X;X;X;X;X;X;X;X;X;X;X;X;X;X;X*X;X;X;X*X*X*X*X*X*X*X*X2X;X6XC V V l l V V l l n m F X . o . . . . . . . . .                                                                                                                                                                     ",
"                                                                                                                                                                                  . . . . . . . . . o X $ CX1X*X*X*X;X;X*X*X*X*X*X*X*X*X*X*X*X*X*X*X*X*X*X*X*X*X*X*X*X*X*X*X*X*X*X*X*X*X*X*X*X*X*X*X*X*X*X*X*X*X*X*X*X*X*X*X*X*X*X*X*X*X*X*X*X*X*X*X*X*X*X*X*X*X*X*X*X*X*X*X*X*X*X*X*X*X*X*X*X*X*X*X*X*X*X*X*X*X*X*X*X*X2X;X6XC V l l l l V l l n j F X . . . . . . . . . . .                                                                                                                                                                     ",
"                                                                                                                                                                                  . . . . . . . . . o X $ CX1X*X*X*X*X*X X X*X*X*X*X*X*X*X*X*X*X*X*X*X*X*X*X*X*X*X*X*X*X*X*X*X*X*X*X*X*X*X*X*X*X*X*X*X*X*X*X*X*X*X*X*X*X*X*X*X*X*X*X*X*X*X*X*X*X*X*X*X*X*X*X*X*X*X*X*X*X*X*X*X*X*X*X*X*X*X*X*X*X*X*X*X*X*X*X*X*X*X;X*X*X2X;X6XC l l n l l l l l n N 3 X . . . . . . . . . . .                                                                                                                                                                     ",
"                                                                                                                                                                                  . . . . . . . . . . X $ CX1X*X*X;X;X*X X X X*X*X*X*X*X*X*X*X*X*X*X*X*X*X*X*X*X*X*X*X*X*X*X*X*X*X*X*X*X*X*X*X*X*X*X*X*X*X*X*X*X*X*X*X*X*X*X*X*X*X*X*X*X*X*X*X*X*X*X*X*X*X*X*X*X*X*X*X*X*X*X*X*X*X*X*X*X*X*X*X*X*X*X*X*X*X*X*X*X*X;X*X*X2X;X6XC l n n n l l l n n N F X X . . . . . . . . . .                                                                                                                                                                     ",
"                                                                                                                                                                                  . . . . . . . . . o X $ CXrX;X*X;X;X*X*X X*X*X;X;X;X;X;X;X;X;X;X;X;X;X;X;X;X;X;X;X;X;X;X;X;X;X;X;X;X;X;X;X;X;X;X;X;X;X;X;X;X;X;X;X;X;X;X;X;X;X;X;X;X;X;X;X;X;X;X;X;X;X;X;X;X;X;X;X;X;X;X;X;X;X;X;X;X;X;X;X;X;X*X;X;X;X;X;X;X*X*X;X*X*X2X;X0Xf l n n n l l l n n N F X X . . . . . . . . . .                                                                                                                                                                     ",
"                                                                                                                                                                                  . . . . . . . . . o X $ CXrX;X*X;X;X;X*X*X*X;X;X;X;X;X;X;X;X;X;X;X;X;X;X;X;X;X;X;X;X;X;X;X;X;X;X;X;X;X;X;X;X;X;X;X;X;X;X;X;X;X;X;X;X;X;X;X;X;X;X;X;X;X;X;X;X;X;X;X;X;X;X;X;X;X;X;X;X;X;X;X;X;X;X;X;X;X;X;X;X;X*X*X;X;X;X;X*X*X*X;X*X*X2X;X0Xf l l n l l l l n n N 3 X . . . . . . . . . . .                                                                                                                                                                     ",
"                                                                                                                                                                                  . . . . . . . o . o X * CXrX*X*X;X;X*X*X*X*X;X;X;X;X;X;X;X;X;X;X;X;X;X;X;X;X;X;X;X;X;X;X;X;X;X;X;X;X;X;X;X;X;X;X;X;X;X;X;X;X;X;X;X;X;X;X;X;X;X;X;X;X;X;X;X;X;X;X;X;X;X;X;X;X;X;X;X;X;X;X;X;X;X;X;X;X;X;X;X;X;X*X*X*X*X;X;X*X*X*X;X*X;X2X;X0Xf V V l l z V l n n m F X o o . . . . . . . . .                                                                                                                                                                     ",
"                                                                                                                                                                                  . . . . . . . o . o X * CXrX;X*X*X*X*X*X*X*X;X*X*X*X*X*X*X*X*X*X*X*X*X*X*X*X*X*X*X*X*X*X*X*X*X*X*X*X*X*X*X*X*X*X*X*X*X*X*X*X*X*X*X*X*X*X*X*X*X*X*X*X*X*X*X*X*X*X*X*X*X*X*X*X*X*X*X*X*X*X*X*X*X*X*X*X*X*X*X*X*X*X*X*X*X*X*X*X*X*X;X*X;X2X;X0Xu V V l l V V z n n m F X o o o . . . . . . . .                                                                                                                                                                     ",
"                                                                                                                                                                                  . . . . . . . o . . # * FX1X&X;X;X;X;X*X;X;X;X*X*X*X*X*X*X*X*X*X*X;X&X;X&X*X*X*X*X*X*X*X*X*X*X*X*X*X*X*X*X*X*X*X*X*X;X&X&X*X*X*X*X*X*X*X*X*X*X*X*X*X*X*X*X*X*X*X*X;X*X;X*X*X*X*X*X*X*X*X*X*X*X*X*X*X*X*X*X*X*X*X*X*X*X;X;X;X;X;X;X;X&X;X-XrXg l l l l x V V x j T 2 # . X . . . . . . . . .                                                                                                                                                                     ",
"                                                                                                                                                                                  . . . . . . . @ . . X $ NXCXwX,X,X,X>X>X0X0X0X,X,X,X,X,X>X,X,XwX>XwX>XwXwXwXwXwXwXwXwXwXwXwXwXwXwXwXwXwXwXwXwXwXwXwX>XwXwXwXwXwXwXwXwXwXwXwXwX>X>X>X>X>X>X>X>X,X>XwX>XwX,XwXwXwXwXwXwXwXwXwXwXwXwXwXwXwXwXwXwXwXwXwXwXwXwXwXwXwX<XwXwX<XHXDXV m m m m m m m m : 2 ' . X . . + . . . . . . .                                                                                                                                                                     ",
"                                                                                                                                                                                  . . . . . . . @ . @ . X d.s.t.s.s.s.e.e.e.e.e.s.s.s.s.s.s.s.s.a.e.s.a.g.g.g.g.g.g.g.g.g.g.g.g.g.g.g.g.g.g.g.g.z.g.z.z.bXbXbXbXbXbXbXbXbXbXbXbXa.e.a.a.s.a.a.a.s.r.s.s.g.g.g.g.g.g.g.g.g.g.g.g.g.g.g.g.g.g.g.g.g.g.g.g.g.g.g.g.g.z.s.g.z.g.f.nXnXnXbXbXbXbXbXbXbXnXjXX . . . . . . . . . . .                                                                                                                                                                     ",
"                                                                                                                                                                                  . . . . . . . . . . . . >.>.>.4.1.4.4.4.4.6.6.4.4.4.4.4.4.4.4.6.4.6.6.uXdXgXgXdXdXdXdXdXdXdXdXdXdXdXdXdXdXdXdXuXuXdX8.xXcXxXxXxXxXxXxXxXxXxXxX4.4.4.4.6.6.4.4.6.4.6.6.uXdXgXgXdXdXdXdXdXdXdXdXdXdXdXdXdXdXdXdXdXdXdXdXaXaXdXdXdXdXgXaXaXhXdXmXcXcXcXcXcXkXkXkXjXjXlX. o . . . . . . . . . .                                                                                                                                                                     ",
"                                                                                                                                                                                  . . . . . . . o o o . . 1.4.5.6.6.6.9.9.9.6.6.>.9.9.9.9.9.9.>.>.>.>.>.k.k.k.8.k.k.k.k.k.k.k.k.k.k.k.k.k.k.k.k.k.k.Y.9.lXkXkXkXkXkXkXkXkXkXkXkX6.6.6.6.6.6.6.6.>.>.>.>.8.8.8.8.k.k.k.k.k.k.k.k.k.k.k.k.k.k.k.k.k.8.8.8.k.k.k.8.8.b.8.k.l.k.8.cXcXcXcXxXxXcXcXlXMXlXlX. o . . X . . . . . . .                                                                                                                                                                     ",
"                                                                                                                                                                                  . . . . . . . o o o o . 6.6.4.6.6.6.6.6.>.>.>.>.>.>.>.>.>.>.>.9.>.6.6.k.Y.Y.k.k.k.k.k.k.k.k.k.k.k.k.k.k.k.k.k.k.k.k.8.MXkXkXxXkXkXkXkXkXkXkXkX>.>.>.>.>.>.>.>.9.>.9.9.Y.Y.Y.k.k.k.k.k.k.k.k.k.k.k.k.k.k.k.k.k.Y.Y.Y.k.k.k.k.Y.Y.gXY.k.l.k.gXcXlXlXlXcXcXcXcXcXjXxXcX. . o . . . . . . . . .                                                                                                                                                                     ",
"                                                                                                                                                                                  . . . . . . . o . . . . 6.6.6.4.4.4.4.4.4.4.4.4.4.4.4.4.4.4.4.4.1.4.4.uXuXdXuXuXuXuXuXuXuXuXuXuXuXuXuXuXuXuXuXdXdXdXuXzXzXzXzXzXxXxXxXzXzXxXxX6.6.4.4.4.4.4.4.4.1.4.4.uXuXdXuXuXuXuXuXuXuXuXuXuXuXuXuXuXuXuXuXuXdXdXuXuXuXuXuX8.dXdXhXaX8.dXzXkXlXlXcXcXzXzXcXcXcXzXo o o . . . . . . . . .                                                                                                                                                                     ",
"                                                                                                                                                                                  . . . . . . . X . X . . 6.6.6.6.6.6.6.6.6.6.6.2.6.6.6.6.6.2.2.6.6.6.6.uXuXdXuXb.b.b.b.b.b.b.b.uXuXuXuXuXuXuXuXdXuXuXuXxXxXxXcXcXcXcXcXcXcXcXcX6.6.6.6.6.4.4.6.6.6.6.6.aXaXaXaXb.b.b.b.b.b.b.b.uXuXuXuXuXuXuXuXb.b.dXuXaXaX8.b.Y.Y.8.hXl.l.Y.cXlXlXlXcXzXzXzXzXzXcXmXo o o o . . . . . . . .                                                                                                                                                                     ",
"                                                                                                                                                                                  . . . . . . . . . . . . 6.6.6.6.6.6.6.6.6.6.6.3.,.*.9.6.3.3.3.4.4.7.2.aXk.aXuXaXb.n.n.Y.T.T.T.k.b.b.uXaXaXk.n.b.fXfXuXcXkXcXxXlXcXcXcXlXxXcXzX6.4.;.>.>.*.6.4.4.4.6.6.Y.8.k.8.aXb.n.n.Y.T.l.T.k.8.uXaXsXsXaXb.n.b.uXdXuXgXb.b.Y.8.Y.8.gXuX8.xXcXlXlXcXzXzXzXzXzXcXmXo o o o . . . . . . . .                                                                                                                                                                     ",
"                                                                                                                                                                                  . . . . . . . . . . . . 6.6.6.6.6.6.6.6.6.6.6.1.4.;.4.4.6.6.6.6.6.7.2.gX8.gXdXaX8.n.8.k.k.k.b.aXuXuXuXaXaX8.n.b.b.dXdXlXlXxXxXcXcXzXzXcXlXxXzX6.4.4.4.6.6.6.4.6.%.6.6.gXk.gXsXaX8.n.b.k.k.k.8.8.b.b.dXuX8.n.n.b.Y.dXdXdXdXb.dXb.Y.Y.uXuXaXaXlXkXlXlXlXcXzXzXcXxXcXcXo o o . . . . . . . . .                                                                                                                                                                     ",
"                                                                                                                                                                                  . . . . . . . . . . . . 6.6.6.6.6.6.6.6.6.6.6.iX4.4.;.1.6.3.*.9.*.2.7.8.dXdX8.aXaXuXgXaXaXdXdXaXgXdXdXdXdXb.n.T.l.k.k.kXkXkXkXxXcXcXxXxXxXxXzX=.>.>.>.*.>.>.>.6.%.*.6.8.uXaX8.sXaXuXgXaXaXdXdXaXgXb.dXdXb.Y.n.l.l.l.l.sXaXuX8.b.8.9.gXgXaXaXkXcXlXlXlXcXcXcXlXjXlXcX. o @ X . . . . . . . .                                                                                                                                                                     ",
"                                                                                                                                                                                  . . . . . . . . . . . . 6.6.6.6.6.6.6.6.6.6.6.5.1.7.6.4.6.6.3.6.>.6.6.dXdXhXdXuXuXuXaXaXuXiXdXk.8.n.n.b.b.n.8.k.k.k.l.lXlXMXxXxXxXxXxXxXxXxXxX,.3.9.6.6.9.6.>.6.6.6.6.uXdXdXaXuXuXuXaXaXuXiXfXk.k.8.8.uXuX8.8.k.aXsXsXaXuXaXgXk.gXY.uX8.gXgXkXxXcXcXcXxXxXcXlXMXkXlXo o . . X . . . . . . .                                                                                                                                                                     ",
"                                                                                                                                                                                  . . . . . . . . . . . . 6.6.6.6.6.6.6.6.6.6.6.7.6.:.:.;.4.4.6.:.>.>.>.8.dX8.k.uXuXk.aXuXuXuXdXaXk.Y.Y.gXhXsXsX8.Y.gXb.zXvXvXzXcXcXcXcXcXlXlXkX1.1.4.4.4.4.4.>.>.*.=.>.uXdX8.8.uXuXaXaXuXiXuXdXk.Y.Y.b.b.dXdXaXdXb.8.8.fXfXfXuXl.l.k.aXhXuX9.jXzXzXlXcXcXcXlXkXjXjXkX. o . . . . . . . . . .                                                                                                                                                                     ",
"                                                                                                                                                                                  . . . . . . . . . . . . 6.6.6.6.6.6.6.6.6.6.6.=.f.e.e.e.s.e.e.e.r.e.0.hXdX8.l.8.8.k.k.uXuXuXk.g.h.h.h.g.g.g.z.z.g.g.j.jXmXmXzXcXcXcXcXcXlXlXnXa.a.a.a.e.e.e.r.e.r.r.0.hXdX8.Y.8.8.k.k.uXuXuXk.g.h.h.h.g.g.z.z.R.f.f.j.8.fXhXuXl.k.aXaXuX8.Y.jXnXnXnXbXnXnXbXbXbXbXjX. . o o . . . . . . . .                                                                                                                                                                     ",
"                                                                                                                                                                                  . . . . . . . . . . . . 6.6.6.6.6.6.6.6.6.6.,.r.AXFXHX,X>X<XwX<XeXDXSXX . . . . . . . . o . X DXqX0XwXwXwXwXwX,XHXGXAXa.*.*.9.4.6.6.6.>.>.<.&.CXqX,X0X0X0X0X>X,X,XDXJX# . . . . . . . o o . X FXGXwXwXwXGXGXVXqXwXGXZXz.k.aXsXaXgXgX8.aXhX,.3 3 : m m m m m N M > ' . . . . @ . . . . . . .                                                                                                                                                                     ",
"                                                                                                                                                                                  . . . . . . . . . . . . 6.6.6.6.6.6.6.6.6.>.=.u.FX>X2X&X*X X X*X*X2XDX$ X . . . . . . . o X # 3X2X;X&X*X*X*X*X*X X:XGXt.,.9.>.5.7.6.6.6.>.<.&.>X-X;X X X X*X*X;X&X2XGX* X o o . . . . o o X # 1X-X*X X*X*X*X*X*X X;XqXh.l.gXuXuXuX8.gXk.j.R.3 c l l V V x l l j M 2 # X X . . . . . . . . .                                                                                                                                                                     ",
"                                                                                                                                                                                  . . . . . . . . . . . . 6.6.6.6.6.6.6.4.6.>.,.w.qX-X*X X*X*X*X&X;X2XqX# . . . . . . o o o . # ,X*X X;X*X*X;X*X X*X;XwXe.>.2.7.7.7.7.6.6.7.;.e.,X=X&X;X;X*X X*X*X;X2X,X$ . o o . . . o o o . # ,X*X X*X*X*X;X*X;X;X&X3Xg.aX8.b.dXb.dXuXuXk.f.F n n l l z l l l c j 3 X o . . o . . . . . . .                                                                                                                                                                     ",
"                                                                                                                                                                                  . . . . . . . . . . . . 6.6.6.6.6.6.6.6.6.>.,.w.CX-X*X*X*X*X&X=X;X2XqX# . o . . . . . o o . # ,X*X*X;X*X*X;X;X*X;X;XwXe.<.>.6.6.7.6.6.6.6.;.e.,X;X*X;X;X*X*X*X*X;X2XwX$ . o o . . . . o o . # ,X*X X;X*X*X;X;X*X*X*X1Xg.k.k.b.dXb.Y.k.aXk.f.3 c n l l l l l l c b F X o . . o . . . . . . .                                                                                                                                                                     ",
"                                                                                                                                                                                  . . . . . . . . . . . . 6.6.4.6.6.6.6.6.6.>.=.w.CX1X*X*X*X*X=X=X;X2XwX# o o . . . . . o o . # wX*X X;X*X*X;X;X*X;X;XwXe.>.:.>.>.6.6.>.6.6.;.e.0X;X X*X;X*X*X*X*X*X2XqX$ . . . . . . . o o . # qX*X X;X*X*X;X;X*X*X X0Xh.Y.Y.b.b.b.Y.Y.aXk.f.3 B c l l z l l l n b 3 X o . . . . . . . . . .                                                                                                                                                                     ",
"                                                                                                                                                                                  . . . . . . . . . . . . 6.6.6.6.6.6.6.6.6.>.,.w.CX1X*X*X*X;X=X=X*X;X0X# . . . . . . . o o . # wX*X X;X*X*X;X;X;X;X;XwXe.>.>.6.>.6.6.>.6.6.4.a.0X*X X*X;X*X*X*X*X*X;X0X# . . . . . . . o o . # qX*X X;X*X*X;X*X*X*X*XwXz.dXb.b.b.b.Y.b.uXk.j.3 N b n l l l l l n b 3 X o . . . . . . . . . .                                                                                                                                                                     ",
"                                                                                                                                                                                  . . . . . . . . . . . . 6.6.6.6.6.6.6.4.6.6.,.y.CX-X*X*X*X*X&X*X*X*X6X# . . . . . . . o . . # 0X X X*X*X*X;X&X*X;X;XwXa.6.6.6.6.4.6.4.6.7.4.a.0X*X X*X;X*X*X=X*X*X;X0X$ . . . . . . . o . . # 0X*X X*X*X*X;X*X=X=X=X,Xz.dXdXdXb.b.b.uXuXaXj.3 N b n n n n n n n b F X o . . . . . . . . . .                                                                                                                                                                     ",
"                                                                                                                                                                                  . . . . . . . . . . . . 6.6.6.6.6.6.6.6.6.6.=.y.CX-X*X*X*X;X*X;X*X*X6X# . . . . . . . . . . # 0X*X X;X*X*X;X*X;X;X;XwXa.7.2.6.6.6.6.;.6.7.4.a.wX;X*X;X=X=X*X=X;X*X;X0X$ . . . . . . . o . . # wX*X X*X*X*X;X*X=X=X=X,Xz.dXdXfX8.k.Y.k.uXk.j.3 N b n n l l n n n j F X o . . . . . . . . . .                                                                                                                                                                     ",
"                                                                                                                                                                                  . . . . . . . . . . . . >.,.,.>.>.,.>.6.6.=.&.t.CX1X;X;X;X-X;X-X;X*X0X$ o o . . . . . . . . # qX*X*X-X;X;X-X;X;X;X*XwXs.3.=.6.>.6.>.>.>.3.>.r.wX-X*X-X2X;X;X=X;X*X;X0X# o o . . . . . . . . # qX;X*X-X;X;X;X*X;X;X*XwXz.aXk.k.l.l.l.l.k.l.f.> c l l V V V V l l n F X o . . . . . . . . . .                                                                                                                                                                     ",
"                                                                                                                                                                                  . . . . . . . . . . . . >.=.=.,.<.<.=.,.,.&.a.y.ZX3X;X;X-X-X-X1X-X;X0X$ o o . . . . . . . . # DX;X;X1X-X-X1X;X;X-X*XwXe.3.=.<.<.>.,.<.<.=.<.t.DX2X;X1X2X-X;X;X-X-X;X0X# o o . . . . . . . . # DX-X;X1X-X;X-X-X:X-X*X0Xh.l.l.l.l.l.j.j.l.j.f.N V V V V V V V V l j F X o . . . . . . . . . .                                                                                                                                                                     ",
"                                                                                                                                                                                  . . . . . . . X . + . % r.q.q.q.y.y.y.q.q.q.y.v.ZXZXZXFXJXBXBXBXGXDXSXX . . o o o . . . o o o ZXZXDXDXFXFXFXGXCXGXBXJXq.u.t.y.w.w.q.q.r.y.q.w.wXZXZXDXqXCXFXDXDXqXqXSXX o . . . . o o . . X X SXAXZXFXDXDXFXFXZXqXDXJXp.i.h.i.h.i.x.i.x.i.i.V C f f f f C f f g C t # o . . . . . . . . . .                                                                                                                                                                     ",
"                                                                                                                                                                                  . . . . . . . . . o . $ E.#XOXoX+X@X@XoXoXoX#X@Xq.q.y.t.t.t.y.y.y.q.e.,.7.4.7.6.6.6.6.6.6.6.7.t.t.q.t.t.t.t.t.w.q.q.y.ZXJXZXGXZXZXqXDXZXGXDXZXq.t.t.q.q.t.t.t.y.q.q.r.,.7.4.6.6.6.6.6.6.6.6.3.g.h.h.i.i.i.h.h.h.i.x.i.CXFXFXGXCXFXCXDXGX@XGXwX0X0XwXwX0X0X0X0X,XqXAX$ X . X . . . . . . . .                                                                                                                                                                     ",
"                                                                                                                                                                                  . . . . . . . o @ o X $ @X%X].].`.`.{.].].`.`.@Xq.h.a.&.,.&.&.&.d.0.<.:.4.1.2.>.>.>.>.>.>.6.6.d.a.a.&.=.,.,.,.,.&.<.t.FX,X,X1X3X1X-X1X,X3X1XqXr.,.,.a.<.<.&.,.&.a.a.=.1.5.1.6.>.>.>.4.4.6.6.6.l.l.j.f.f.j.l.l.T.R.f.h.DX3X3X-X-X-X-X-XtX1X4X8X-X-X;X;X-X-X:X*X2X,XJX$ % X . X . . . . . . .                                                                                                                                                                     ",
"                                                                                                                                                                                  . . . . . . . o . o X * oX}.Q.!.!.'.!.Q.Q.^.~.#Xq.s.-.9.6.6.6.6.>.>.>.9.6.7.9.6.6.>.>.6.6.6.6.6.6.6.6.6.4.4.4.4.:.>.s.<X;X2X*X;X;X*X*X2X;X*XwXd.6.5.2.;.4.6.6.6.6.,.6.7.5.7.9.,.>.>.6.6.6.6.6.Y.k.l.l.k.Y.dXdXdXn.9.R.<X2X;X*X*X*X*X*X;X;X=X&X;X;X=X;X;X;X;X;X=XtXCX* % O . . . . . . . . .                                                                                                                                                                     ",
"                                                                                                                                                                                  . . . . . . . o . o X * oX{.!.!.!.'.!.!.Q.~.[.<Xq.&.6.4.%.7.4.4.6.9.%.6.%.*.3.2.6.6.6.6.6.6.6.6.6.6.7.7.6.6.6.6.>.:.e.wX;X*X*X*X;X X X;X&X*X0Xd.6.7.6.>.4.6.6.4.6.8.%.7.%.>.,.,.,.6.6.6.6.6.6.Y.k.k.b.b.dXfXfXuXdXb.g.wX;X&X*X*X.X X*X:X=X;X*X;X;X=X=X;X;X;X=X&XtXFX$ X . @ . . . . . . . .                                                                                                                                                                     ",
"                                                                                                                                                                                  . . . . . . . o . o X * #X{.!.!.'.'.'.!.!.[.{.oXq.d.7.1.6.6.6.7.1.%.6.%.9.9.*.6.6.6.6.6.6.6.6.;.6.6.6.6.6.6.6.,.9.>.e.wX X|.*X*X;X*X*X;X*X*XeXa.6.6.3.>.6.6.6.6.%.%.9.%.9.9.-.,.6.6.6.6.6.6.6.k.k.Y.Y.Y.b.dXdXk.gXgXz.wX&X:X;X*X;X*X;X8X;X;X;X*X*X&X&X*X*X*X*X;X%XFX* % . . . . . . . . . .                                                                                                                                                                     ",
"                                                                                                                                                                                  . . . . . . . . . o X = oX{.Q.~.[.'.[.!.~.[.{.<Xq.=.5.5.9.%.6.6.7.6.1.6.6.1.1.6.6.6.6.6.6.6.6.>.6.6.2.6.>.>.6.>.*.2.s.>X*X*X&X*X*X*X&X&X&X*XqXa.6.6.3.>.>.6.>.9.9.6.4.4.;.%.-.6.6.6.7.7.4.4.6.k.8.8.8.8.8.8.8.gXk.8.z.>X9X;X:X:X;X*X;X;X:X*X9X X*X*X*X*X*X X X;X-XZX$ . @ . . . . . . . . .                                                                                                                                                                     ",
"                                                                                                                                                                                  . . . . . . . . . o # = OX].Q.!.!.'.!.!.~.[.{.+Xy.3.5.5.;.9.;.2.7.7.7.6.6.6.7.2.6.>.>.>.>.>.>.6.6.7.7.6.>.;.;.>.6.7.s.wX|.;X=X*X*X*X&X=X&X&XGXa.6.6.3.>.;.6.>.>.6.6.4.4.4.4.9.4.4.5.5.5.4.4.4.gXgXgXgXY.k.aXaXY.k.sXg.0X X*X;X;X:X*X;X;X*X X X*X*X;X;X*X*X*X*X&XrXZX$ X . . . . . . . . . .                                                                                                                                                                     ",
"                                                                                                                                                                                  . . . . . . . . . o X * oX].Q.Q.~.~.!.Q.!.~.].4Xq.&.4.4.:.<.>.6.6.6.4.4.6.6.6.6.>.<.<.6.6.6.>.>.6.6.6.6.6.;.;.>.4.5.&.qX*X=X;X*X*X*X X X*X-XeXa.<.4.4.2.6.6.6.6.6.6.3.7.2.7.6.6.6.6.6.6.6.6.6.k.k.k.k.k.k.k.k.k.iXiXf.>X X X:X&X&X&X&X*X*X*X X*X*X*X;X;X*X*X*X*X2XqX$ X o . . . . . . . . .                                                                                                                                                                     ",
"                                                                                                                                                                                  . . . . . . . . . o X * oX].^.Q.~.~.~.!.!.~.[.oXq.,.4.4.:.>.;.6.4.4.4.4.4.4.6.4.6.>.6.4.4.4.4.6.6.6.6.6.6.6.6.1.5.5.d.,X;X=X;X X X*X X X*X;X0Xs.<.4.6.6.6.6.6.6.6.6.7.2.2.2.6.6.6.6.6.6.6.6.6.8.8.8.8.8.8.8.8.8.iXfXz.wX X X*X*X*X*X*X*X*X*X X*X*X*X;X;X*X*X*X*X2XDX$ X o . o . . . . . . .                                                                                                                                                                     ",
"                                                                                                                                                                                  . . . . . . . . o o X * +X].^.~.~.~.~.!.!.~.[.+Xq.&.;.4.>.>.6.6.6.4.4.4.4.6.>.5.4.6.6.6.4.4.4.*.2.6.6.6.6.6.>.7.5.5.a.qX*X&X&X;X;X=X;X;X=X2X,Xe.<.;.6.6.6.;.;.6.6.1.6.>.9.9.9.>.>.>.>.>.>.>.>.gXgXgXgXgXgXgXgXk.sXuXg.wX X X*X*X*X*X*X*X;X*X*X*X*X*X;X;X*X*X*X&X2XDX$ X o . o . . . . . . .                                                                                                                                                                     ",
"                                                                                                                                                                                  . . . . . . . . . o X * +X].^.~.~.~.!.!.!.~.[.oXq.t.&.,.&.&.d.=.=.=.=.-.-.&.&.*.=.=.=.=.=.*.*.3.6.6.6.6.6.6.6.6.:.>.e.eX-X2X-X7X6X1X-X7X-X2XwXa.<.4.6.6.6.4.6.7.7.1.3.&.a.&.=.&.&.&.&.&.&.&.&.l.l.l.l.l.l.l.l.j.l.l.h.wX*X*X&X;X*X*X;X;X;X;X*X*X*X*X;X;X*X*X*X*X2XDX$ X o . o . . . . . . .                                                                                                                                                                     ",
"                                                                                                                                                                                  . . . . . . . . . . X * oX].!.!.!.!.!.!.!.~.[.$Xp.q.t.t.t.t.y.y.r.r.r.w.w.u.u.r.r.r.r.r.r.r.s.3.6.6.6.6.6.2.6.6.>.9.a.AX5XFXFXCXCXCXCXCXDXGXAX&.>.4.6.2.6.4.6.6.7.4.,.e.u.w.s.r.r.w.w.w.w.r.r.h.h.h.h.h.h.h.h.h.h.h.i.%X;X;X;X;X;X;X;X;X2X=X;X*X*X*X;X;X*X*X*X*X2XDX$ X o . o . . . . . . .                                                                                                                                                                     ",
"                                                                                                                                                                                  . . . . . . . . . . X * oX].!.!.!.!.!.!.!.!.[.`.$XwXGXGXGXGXBXBXDXqXqXqXqXqXqXqXDXDXqX,XBXDXZXX . . . o . . . o @ . X $ * $ $ $ $ * * $ * * $ X . o o o . o o . o o X SXCX@XFXDXDXDXDXDXDXDXDXDXDXDXDXqXqXqXqXDXGXqX<XtX;X;X2X-X;X;X;X;X=X;X;X*X*X*X;X;X*X*X*X*X2XDX$ X o . . . . . . . . .                                                                                                                                                                     ",
"                                                                                                                                                                                  . . . . . . . . . . X * oX].!.!.!.!.!.!.!.!.[.{.;X2X-X-X-X1X3X-X-X-X-X-X1X1X2X;X-X1X-X;X2X3XGXX X . . . . . . o . o o X O O X . . X X . X # . . . o o . . . o @ o . * CXtXrX-X1X1X1X1X1X2X2X2X-X-X-X-X-X-X-X-X-X2X-X7X*X*X:X=X;X;X*X*X=X;X*X*X*X*X;X;X;X*X*X*X*X2XDX$ . o . o . . . . . . .                                                                                                                                                                     ",
"                                                                                                                                                                                  . . . . . . . . . o X $ +X{.~.!.!.!.!.!.!.~.[.].*X*X;X;X;X;X;X*X X X*X*X;X;X;X X X*X*X|.&X-X>XX . . . . . . . . . . o . o o . . . o o . . . . . . . . . . . . . o X $ GX-X*X*X&X*X*X*X*X*X*X&X;X;X;X*X*X*X*X*X=X=X&X*X|.*X*X*X;X*X*X*X*X*X*X X*X*X*X;X;X*X*X*X*X2XDX$ . o . . . . . . . . .                                                                                                                                                                     ",
"                                                                                                                                                                                  . . . . . . . . . o X * oX].~.!.!.!.!.!.!.~.!.[.|.*X*X;X;X;X;X*X*X*X*X*X*X*X*X;X*X X*X*X X*X0X# . . o o o . . . . o o o o o o o o . . . o o o o o . . . . . . . . o # 0X;X*X-X*X*X*X*X*X*X*X*X*X*X*X*X*X*X*X*X*X*X*X*X*X*X*X*X*X*X*X*X*X*X*X*X*X*X*X;X;X*X*X*X;X2XDX$ . o . o . . . . . . .                                                                                                                                                                     ",
"                                                                                                                                                                                  . . . . . . . . . o X * oX].~.!.!.!.!.!.!.~.!.].&X*X*X;X;X;X;X*X*X*X*X*X*X*X*X;X*X*X*X*X X*X0X% . . o o . . . . . . . . . . . . . . . . . . . o . . . . . . . . o o # 0X;X*X;X*X*X*X*X*X*X*X*X*X*X*X*X*X*X*X*X*X*X*X*X*X*X*X*X*X*X*X*X*X*X*X*X*X*X*X;X;X*X*X*X;X2XDX$ . o . o . . . . . . .                                                                                                                                                                     ",
"                                                                                                                                                                                  . . . . . . . . . o X * oX].~.!.!.!.!.!.!.~.!.].*X*X*X;X;X;X;X;X*X*X*X*X*X;X;X;X*X*X*X*X*X;X0X# . . . o . . . . . . . . . . . . . . . . . . . . . . . . . . . . o . # 0X*X*X*X*X*X*X*X*X*X*X*X*X*X*X*X*X*X*X*X*X*X*X*X*X*X*X*X*X*X*X*X*X*X*X*X*X*X&X=X;X*X*X*X;X2XDX$ . o . . . . . . . . .                                                                                                                                                                     ",
"                                                                                                                                                                                  . . . . . . . . . o X * oX].~.!.!.!.!.!.!.~.!.].&X*X*X;X;X;X;X;X;X*X*X*X;X;X;X;X*X*X*X*X*X;X,X# . . . . . . . . . . . . . . . . . . . . . . . . . . . . o o o . o o # 0X*X X*X*X*X*X*X*X*X*X*X*X*X*X*X*X*X*X*X*X*X*X*X*X*X*X*X*X*X*X*X*X*X*X*X*X*X*X=X;X*X*X*X;X2XDX$ . . . . . . . . . . .                                                                                                                                                                     ",
"                                                                                                                                                                                  . . . . . . . . . o X * oX].~.!.!.!.!.!.!.~.!.].&X*X*X;X*X*X*X;X*X*X*X*X;X;X;X;X*X*X*X;X*X;X,X# . . o . . . . . . . . . . . . . . . . . . . . . . . . . o o o o o . # 0X;X*X X*X*X*X*X*X*X*X*X*X*X*X*X*X*X*X*X*X*X*X*X*X*X*X*X*X*X*X*X*X*X*X*X*X;X;X=X*X*X*X*X;X2XDX$ . o . . . . . . . . .                                                                                                                                                                     ",
"                                                                                                                                                                                  . . . . . . . . . o X * oX].~.!.!.!.!.!.!.~.!.].*X*X*X*X*X*X*X*X*X*X*X*X*X;X;X;X*X*X*X;X*X;XwX# . . . . . . . . . . . . . . . . . . . . . . . . . . . . . . . . . . $ wX;X*X*X*X*X*X*X*X*X*X*X*X*X*X*X*X*X*X*X*X*X*X*X*X*X*X*X*X*X*X*X*X*X*X*X*X*X*X=X*X*X*X*X;X2XDX$ . o . . . . . . . . .                                                                                                                                                                     ",
"                                                                                                                                                                                  . . . . . . . . . o X * oX].~.!.!.!.!.!.!.~.!.[.&X*X&X*X&X*X*X*X*X*X*X*X*X*X*X;X*X*X;X*X*X-XwX# . . . . . . . . . . . . . . . . . . . . . . . . . . . . . . . . X X $ wX2X;X*X*X*X*X*X*X*X*X*X*X*X*X*X*X*X*X*X*X*X*X*X*X*X*X*X*X*X*X*X*X*X*X*X*X*X*X*X*X*X*X*X;X2XDX$ . o . . . . . . . . .                                                                                                                                                                     ",
"                                                                                                                                                                                  . . . . . . . . . o X * oX].~.!.!.!.!.!.!.~.!.[.|.*X&X&X&X&X*X*X*X*X*X*X*X;X*X;X*X*X;X*X*X-XwX$ X X X X . . X X X X X X X X X X X X X X X X X X X X X X X X X X X X $ wX2X;X;X*X*X*X*X*X*X*X*X*X*X*X*X*X*X*X*X*X*X*X*X*X*X*X*X*X*X*X*X*X*X*X*X*X*X*X*X*X*X*X*X;X2XDX$ . o . . . . . . . . .                                                                                                                                                                     ",
"                                                                                                                                                                                  . . . . . . . . . o X * oX].~.!.!.'.!.!.!.~.!.[.|.*X X|.|.*X X|.*X*X|.;X;X;X;X&X&X*X*X;X;X-X2X* * * * $ $ $ $ $ $ $ $ $ $ $ $ $ $ $ $ $ $ $ $ $ $ * * $ $ $ * * * * = HX;X;X;X*X*X*X*X*X*X*X*X*X*X*X*X*X*X*X*X*X*X*X*X*X*X*X*X*X*X*X*X*X*X*X*X*X*X*X;X;X*X*X*X;X2XDX$ . o . . . . . . . . .                                                                                                                                                                     ",
"                                                                                                                                                                                  . . . . . . . . . o X * oX].~.!.!.'.!.!.!.~.!.^.~.[.[.[.[.[.[.].[.[.].*X;X;X;X&X&X*X*X;X;X;X;XDXDXDXDXFXFXFXZXFXFXFXFXFXFXFXFXFXFXFXFXDXDXFXFXCXDXDXqXqXqXqXDXqXCXFXHX-X&X*X&X*X*X*X*X*X*X*X*X*X*X*X*X*X*X*X*X*X*X*X*X*X*X*X*X*X*X*X*X*X*X*X*X*X*X*X;X;X*X*X*X;X2XDX$ . o . . . . . . . . .                                                                                                                                                                     ",
"                                                                                                                                                                                  . . . . . . . . . o X * oX].~.!.!.!.!.!.!.~.!.!.[.~.~.~.[.[.!.~.~.[.[.*X*X;X;X=X=X&X*X*X*X*X;X-X-X-X-X-X-X-X-X-X-X-X-X-X-X-X-X-X-X-X-X-X-X-X-X3X1X-X-X-X-X-X-X*X:X-X-X*X X*X&X*X*X*X*X*X*X*X*X*X*X*X*X*X*X*X*X*X*X*X*X*X*X*X*X*X*X*X*X*X*X*X*X*X;X&X=X;X*X*X*X;X2XDX$ . o . . . . . . . . .                                                                                                                                                                     ",
"                                                                                                                                                                                  . . . . . . . . . o X * oX].~.!.!.!.!.!.!.~.!.!.!.!.!.!.!.!.!.~.!.!.[.*X*X*X&X;X;X*X*X*X*X*X*X;X;X;X;X;X;X;X;X*X*X*X*X*X*X*X*X;X;X;X;X;X;X;X;X;X;X;X;X*X*X*X*X8X;X2X-X*X X*X:X*X*X*X*X*X*X*X*X*X*X*X*X*X*X*X*X*X*X*X*X*X*X*X*X*X*X*X*X*X*X*X*X*X*X*X=X;X*X*X*X;X2XDX$ . o . . . . . . . . .                                                                                                                                                                     ",
"                                                                                                                                                                                  . . . . . . . . . o X * oX].~.!.!.!.!.!.!.~.!.!.~.~.!.!.!.!.!.!.!.!.[.&X*X*X*X;X;X;X;X*X*X*X*X*X*X X X X X X X;X;X;X;X;X;X;X;X*X*X*X*X*X*X*X*X;X;X*X*X*X*X*X*X;X:X-X-X;X8X8X:X*X*X*X*X*X*X*X*X*X*X*X*X*X*X*X*X*X*X*X*X*X*X*X*X*X*X*X*X*X*X*X*X*X*X*X=X;X*X*X*X;X2XDX$ X . . . . . . . . . .                                                                                                                                                                     ",
"                                                                                                                                                                                  . . . . . . . . . o X * oX].~.!.!.!.!.!.!.~.!.!.~.~.~.~.!.!.!.!.!.'.[.*X*X*X*X;X;X;X*X;X*X*X*X*X*X*X X X X X X*X*X*X*X*X*X*X*X*X*X*X*X*X*X*X*X;X;X=X=X;X;X;X=X X8X8X:X8X:X&X;X*X*X*X*X*X*X*X*X*X*X*X*X*X*X*X*X*X*X*X*X*X*X*X*X*X*X*X*X*X*X*X*X*X*X*X;X;X*X*X*X;X2XDX$ . o . . . . . . . . .                                                                                                                                                                     ",
"                                                                                                                                                                                  . . . . . . . . . o X * oX].~.!.!.!.!.!.!.~.!.!.!.!.~.!.!.!.!.~.!.!.[.&X*X&X:X*X*X*X;X;X;X;X=X;X;X;X;X;X=X=X=X*X*X*X*X*X*X*X*X;X;X;X;X;X;X;X;X*X*X*X*X*X*X*X=X X X*X*X;X;X;X;X*X*X*X*X*X*X*X*X*X*X*X*X*X*X*X*X*X*X*X*X*X*X*X*X*X*X*X*X*X*X*X*X*X*X*X*X;X*X*X*X;X2XDX$ . o . o . . . . . . .                                                                                                                                                                     ",
"                                                                                                                                                                                  . . . . . . . . . o X * oX].~.!.!.!.!.!.!.~.!.!.!.!.!.!.!.!.!.~.~.[.[.*X*X;X;X*X*X*X*X=X=X=X=X*X*X*X;X;X;X;X;X;X;X;X;X*X*X*X*X*X*X*X*X*X*X*X*X*X*X*X*X*X*X*X;X;X;X*X:X;X;X*X*X*X*X*X*X*X*X*X*X*X*X*X*X*X*X*X*X*X*X*X*X*X*X*X*X*X*X*X*X*X*X*X*X*X*X*X*X*X*X*X*X;X2XDX$ X o . o . . . . . . .                                                                                                                                                                     ",
"                                                                                                                                                                                  . . . . . . . . . . X = <X}.!.!.!.!.!.!.!.!.'.Q.^.).F.Q.[.^.!.^.^.'.}.=X&X*X*X*X*X*X;X*X*X;X;X;X;X;X;X*X*X*X;X;X;X;X;X*X*X*X*X;X;X;X;X;X;X;X;X*X;X*X;X;X;X*X*X*X*X*X;X&X;X;X;X*X*X*X*X*X*X*X*X*X*X*X*X*X*X*X*X*X*X=X;X;X;X*X*X|.2X=X*X.X;X;X|.;X;X;X;X*X*X*X*X&X-XFX* X o . . . . . . . . .                                                                                                                                                                     ",
"                                                                                                                                                                                  . . . . . . . . @ . X = #X.Xc.~.~.~.~.~.~.~.[.[.[.F.~.!.^.^.Q.~.~.[.[.;X*X*X*X*X*X*X*X*X*X*X;X*X*X*X*X*X*X*X*X*X*X*X*X*X*X*X*X*X*X*X*X*X*X*X*X*X*X;X;X;X;X*X*X*X*X*X;X&X;X;X;X*X*X*X*X*X*X*X*X*X*X*X*X*X*X*X*X*X*X;X;X;X;X*X*X*X=X=X*X9X.X;X;X;X;X*X*X*X*X*X*X&XtXNX* X + . . . . . . . . .                                                                                                                                                                     ",
"                                                                                                                                                                                  . . . . . . . . . . % * @X].~.~.~.~.~.^.^.!.!.!.^.Q.Q.'.[.^.!.^.^.'.'.&X&X;X*X*X*X*X*X*X*X*X*X*X*X*X*X*X*X*X*X*X*X*X*X*X*X*X*X*X*X*X*X*X*X*X*X&X*X;X;X*X*X*X*X|.*X*X*X&X&X*X;X*X*X*X*X*X*X*X*X*X*X*X*X*X*X*X*X*X*X;X;X;X;X*X*X*X{.;X*X X*X:X8X*X*X*X*X*X*X*X*X;X%XJX# X . . O . . . . . . .                                                                                                                                                                     ",
"                                                                                                                                                                                  . . . . . . . o . . X * #X$X].{.{.{.{.].].].}.{.[.~.!.'.~.[.c.Q.~.[.'.&X&X*X*X&X&X&X&X&X&X&X&X&X&X&X&X&X&X&X&X&X&X&X&X&X&X&X&X&X&X&X&X&X&X&X&X&X&X&X&X*X&X&X*X*X*X*X*X*X*X*X;X*X*X*X*X*X*X*X*X*X*X*X*X*X*X*X*X*X*X;X;X;X;X*X*X;X2X;X*X|.8X-X1X-X-X-X-X-X-X-X2XtXBXSX# . o . . . . . . . . .                                                                                                                                                                     ",
"                                                                                                                                                                                  . . . . . . . . @ + o # NX#X<XoXoXoXoXOXOX%X%X4X`.^.!.[.~.Q.!.~.~.~.[.|.|.|.|.*X*X*X*X*X*X X X*X*X*X*X*X*X*X*X*X*X*X*X*X*X&X*X*X*X*X*X*X*X*X*X&X&X&X&X*X&X*X*X|.|.|.|.*X*X;X;X*X*X*X*X*X*X*X*X*X*X*X*X*X*X*X*X*X*X*X*X;X*X*X*X&X&X;X;X*X8X1XHXwXqXqXqXqXqXqXqXBXAXKXX . o o o . . . . . . .                                                                                                                                                                     ",
"                                                                                                                                                                                  . . . . . . . + . . o O $ = = * - - * * * * = ; :X^.c.[.!.c.[.^.!.!.'.[.[.[.[.].].].].].].].[.].].].].].].].].].].].].].].[.[.].].].[.].].].].[.[.[.[.[.[.].].[.[.[.].&X&X*X;X*X*X*X*X*X*X*X*X*X*X*X*X*X*X*X*X*X*X*X;X;X;X*X*X;X;X;X8X.X:XHX= * * * $ $ $ $ $ = = # . o o o + . . . . . . .                                                                                                                                                                     ",
"                                                                                                                                                                                  . . . . . . . o . . o o X X % X X . . . X X # ; %X].|.~.!.!.!.~.~.!.'.~.~.~.~.~.~.[.~.~.~.~.~.~.~.~.~.~.~.~.~.~.~.~.~.~.~.~.~.~.~.~.~.~.~.~.~.~.~.~.~.[.[.[.[.~.[.[.].*X*X*X;X*X*X*X*X*X*X*X*X*X*X*X*X*X*X*X*X*X;X;X;X*X;X*X*X|.;X;X;X8X-XDX= X X X . . . X X # # X . . . . . . . . . . . .                                                                                                                                                                     ",
"                                                                                                                                                                                  . . . . . . . o . @ o o . . o . . o o . . o X $ oX].[.~.Q.!.[.^.!.!.[.!.~.~.~.~.~.~.~.~.~.~.~.~.~.~.~.~.~.~.~.~.~.~.~.~.~.~.~.~.~.~.~.~.~.~.~.!.!.~.!.!.!.!.!.!.[.[.[.*X*X*X*X*X*X*X*X*X*X*X*X*X*X*X*X*X*X*X*X;X;X;X*X*X;X*X*X&X*X;X;X:X-XCX* X . o o o o . . X . . . . . . . . . . . . . .                                                                                                                                                                     ",
"                                                                                                                                                                                  . . . . . . . . . . o o . . . o o o o . . . X $ oX].'.!.!.!.!.~.~.~.!.!.!.!.!.!.!.!.!.!.!.!.!.~.~.~.~.~.~.~.~.~.~.~.~.~.~.~.~.~.~.~.~.~.~.~.~.!.!.!.!.!.!.!.!.!.!.!.~. X*X*X*X*X*X*X*X*X*X*X*X*X*X*X*X*X*X*X*X*X*X*X*X*X*X*X X*X;X*X*X;X-XDX* X . . . . . . o . . . . . . . . . . . . . . .                                                                                                                                                                     ",
"                                                                                                                                                                                  . . . . . . . . . . . . . . . o o o o . . . X $ #X{.[.!.~.'.!.~.~.~.~.~.!.!.!.!.!.!.!.!.!.!.!.!.!.!.!.!.!.!.!.Q.!.!.!.!.!.!.!.!.!.!.!.!.!.!.!.~.~.~.~.~.~.~.~.~.!.~.[.*X*X*X*X;X;X;X;X;X;X;X;X;X;X;X;X;X;X;X;X;X;X;X*X*X*X*X*X*X;X*X;X;X-XFX$ X . . . . . . . o . . . . . . . . . . . . . .                                                                                                                                                                     ",
"                                                                                                                                                                                  . . . . . . . . . . . . . . . o o o o . . . X $ @X`.[.!.!.'.!.!.!.!.!.!.!.!.!.!.!.!.!.!.!.!.!.!.!.!.!.!.!.!.!.!.!.!.!.!.!.!.!.Q.!.!.!.!.!.!.!.!.!.!.!.!.!.!.!.!.!.~.].*X*X*X*X;X;X;X;X;X;X;X;X;X;X;X;X;X;X;X;X;X;X;X;X;X*X*X*X*X;X*X;X;X-XFX$ X . . . . . . o o o . . . . . . . . . . . . .                                                                                                                                                                     ",
"                                                                                                                                                                                  . . . . . . . . . . . . . . . . . o o . . . X $ +X`.'.!.~.!.!.!.!.!.!.!.!.!.!.!.!.!.!.!.!.!.!.!.!.!.!.!.!.!.!.^.^.^.^.^.^.^.^.!.!.!.!.!.!.!.!.!.!.!.!.!.!.!.!.!.!.!.[.|.*X*X*X*X*X*X*X*X*X*X*X*X*X*X*X*X*X*X*X;X;X;X*X*X*X*X;X*X;X*X*X;X-XFX$ X . . . . . . o o o o . . . . . . . . . . . .                                                                                                                                                                     ",
"                                                                                                                                                                                  . . . . . . . . . . . . . . o . . o . . . . X * +X}.'.Q.~.!.~.!.!.!.Q.!.!.!.!.!.!.!.!.!.!.!.!.!.!.!.!.!.!.!.!.~.~.~.~.~.~.~.~.!.!.!.!.!.!.!.!.!.!.!.!.!.!.!.!.!.!.!.~.|.*X*X*X*X*X*X*X*X*X*X*X*X*X*X*X*X*X*X*X&X;X*X*X*X*X*X&X*X*X X X;X-XDX$ X . . . . . . o o o o . . . . . . . . . . . .                                                                                                                                                                     ",
"                                                                                                                                                                                  . . . . . . . . . . . . . . . . . . . . . . X * +X}.'.Q.~.!.~.~.~.!.!.!.!.!.!.!.!.!.!.!.!.!.!.!.!.!.!.!.!.!.!.!.!.!.!.!.!.!.!.!.!.!.!.!.!.!.!.!.!.!.!.!.!.!.!.!.!.!.[. X*X*X*X*X*X*X*X*X*X*X*X*X*X*X*X*X*X*X*X=X*X*X*X*X*X*X=X*X;X X X;X-XDX$ X . . . . . . . o o . . . . o o . . . . . . .                                                                                                                                                                     ",
"                                                                                                                                                                                  . . . . . . . o . . . . . . . . . . . . . . . * +X}.[.^.~.[.~.[.[.~.~.!.[.[.[.[.[.[.[.[.[.[.[.'.'.'.'.'.'.'.'.'.'.'.'.'.'.'.'.'.'.'.'.'.'.'.'.[.[.[.[.[.[.[.[.~.[.[.].*X;X;X;X;X;X;X;X;X;X;X;X;X;X;X;X;X;X;X;X;X;X;X;X;X;X;X;X;X-X;X*X;X-XZX$ X . . . . . . . o . . . . . o o . . . . . . .                                                                                                                                                                     ",
"                                                                                                                                                                                  . . . . . . . o o . . . . . . . . . . . . . . $ @X`.[.^.[.].].].].].].[.].{.{.].].].].].].].].].].].].].].].].].].].].].].].].].].].].].].].].[.[.[.[.].].].].].].].{.;X-X-X-X-X-X-X-X-X-X-X-X-X-X-X-X-X-X-X-X2X-X-X-X-X-X2X2X-X1X;X;X2X1XZX$ X . o . . . . . o . . . . . o o . . . . . . .                                                                                                                                                                     ",
"                                                                                                                                                                                  . . . . . . . . . . . . . . . . . . . . . . . = NX@X<XoXoXoXoX%X%X%X+X+X+X+X+X+X+X+X+X%XoXoXoX+X+X+X<X+X+X<X4XoXoXoXoXoXoXoXoXoXoXoX%XoXoXoXoXoXoXoX+X+XoXoXoX+X+X+X@X<XGXGXGXDXDXDXDXDXDXDXDXCXCXCXCXqXDXqXqXDXZXCXCXDXDXqXqXZXDXDX5XZXSXSX* . . . . . . . . . . . . . . . . . . . . . . .                                                                                                                                                                     ",
"                                                                                                                                                                                                                                  X - $ * $ * = $ $ $ $ $ $ * $ * * * * * * * * * * = * * * * = * * * * * * * * $ $ $ * $ $ $ $ * * * * * * * * * * * * * $ $ $ * * * * * * * $ $ $ $ $ $ $ $ $ * * $ $ $ * * * * * * * $ $ X                                                                                                                                                                                                                     ",
"                                                                                                                                                                                                                                  @ . . X X X X # # # # # X # X X X X X X X X X . X X X . . X X X X X X X X X X X X # # # X # # X X X X X X X X X X X X X . X X . . . . . . . . . . . . . . . . X X . . . . X X X O X X . . @                                                                                                                                                                                                                     ",
"                                                                                                                                                                                                                                  . X o o o . X . . . . . . . . . . . . . . o . . . . . . o o o . . . . . . . . . . . . . . . . . o . . . . X X o . . . . . . . . . . . . . . . . . . . . . . . . . . . . . . . . . . . . . .                                                                                                                                                                                                                     ",
"                                                                                                                                                                                                                                  o o o . o + . o o o o o o o o . . o o o o o o . . . o o o o o o o o o o o o o . . . . . . . . o o o o o o o . o o o o o o o o . . . . . . . . o o o o o o o o . . . . . . . . . X o o o o o                                                                                                                                                                                                                     ",
"                                                                                                                                                                                                                                  . . @ . . . . . . . . . . . . . . . . . . . . . . . . . . . . . . . . . . . . . . . . . . . . . . . . . . . . . . . . . . . . . . . . . . . . . . . . . . . . . . . . . . . . @ . @ . . . .                                                                                                                                                                                                                     ",
"                                                                                                                                                                                                                                  o X . @ . o o o o o o o . . . . . o o . . . . . . X . . . . . . . o o o . . . o o o o o o o o . . . . . . . . o . . . . o o o o o . . . . o o . . . . . . . . . . . . o o o o o . . . . . o                                                                                                                                                                                                                     ",
"                                                                                                                                                                                                                                  . @ . o o o o o o o o o . . . . . o o . o . . . o . . . . . . . . o o . . . . . . . . . . . . . . . . . . . . . . . . . . o o o o o . . . o o . o o . o . . o . o o o o o o o o o o . . . @                                                                                                                                                                                                                     ",
"                                                                                                                                                                                                                                  . . . . . . . . . . . . . . . . . . . . . . . . o o o . . . . o o o o . . . . . . . . . . . . . . . . . . . . o o . . . . . . . . . . . . . . . . . . . . . . . . . . . o . . . . . . . . .                                                                                                                                                                                                                     ",
"                                                                                                                                                                                                                                  . . . . . . . . . . . . . . . . . o . . . . . o o o o o . . o @ . . + . o o o o . . . . . . o . . . . . . . o . . . @ . o X . . . . . . . . . . . . . . . . . . . . . . o o o . . + . o . .                                                                                                                                                                                                                     ",
"                                                                                                                                                                                                                                  . . . . . o o o o o o o . . . . o o o . . . . . . . . . . . . o o X . + . . X . . . . . . . . . . . . . . o o o . + . & o o . . . . . . . . . . . . . . . . . . o o . . o . o + . . + . . .                                                                                                                                                                                                                     ",
"                                                                                                                                                                                                                                  . @ . . . . . . . . . . . . . . . . . . . . . X X X . . . X X X X X X O O . . X X X X X X X X X . . . . X o o . X # X X . . . . . . . . . . . . . . . . . . . . o . . . . . . . . O . . X .                                                                                                                                                                                                                     ",
"                                                                                                                                                                                                                                  . . X . X X X X X . . . . X X . X X X . . X X * * * * * * * * = * * $ - - * $ $ $ $ $ $ $ * * * $ $ $ * * * $ - * = $ % O O X X X X X X X X X X X X X X X X X . X X . X X X X X X X X X . .                                                                                                                                                                                                                     ",
"                                                                                                                                                                                                          . + . . . . . . . . . X 9 , 4 9 < 4 9 4 4 4 4 4 4 4 4 4 4 4 4 , 9 4 1 W.W.W.W.W.W.W.W.W.W.W.OXr r r r r r r r r r r r %XOXyXyXyXyXyXOXyXyXyX5X: 4 4 4 4 4 4 4 4 4 4 4 4 4 4 4 4 4 4 4 4 9 4 4 ' ' ' ' [ [ ' ' [ [  .. . . . . . . . . . + .                                                                                                                                                                                             ",
"                                                                                                                                                                                                          . . . . . . . . . . . X 4 9 4 2 K ; 2 1 1 1 1 1 1 1 1 4 2 : 2 1 1 : m H.I.V.V.G.G.G.V.V.G.A.(.s d a d p p p p p p a a )._.(.(.P.P.P._.U.P.(.yXz : 1 1 1 1 1 1 1 1 1 1 1 1 1 1 1 1 1 1 1 1 1 2 K L L L L G L ] G { 9 X . . . . . . . . . . .                                                                                                                                                                                             ",
"                                                                                                                                                                                                          . . . . . . . . . . . X , 5 5 : : : 3 3 3 2 2 2 2 1 1 4 3 m > 2 2 : c I.V.m.m.V.V.M.m.m.V.M.F.h d a a a a a a a s s s ).L.P.K.C.C.C.K.K.K.L.XXV : 1 1 2 2 2 2 2 2 2 2 2 2 2 2 2 2 2 2 2 2 : : L L J J J U M I L ' ' # . . . . . . . . . . .                                                                                                                                                                                             ",
"                                                                                                                                                                                                          . . . . . . . . . . . X 4 5 2 2 1 1 1 : 3 1 1 1 1 1 2 1 : 2 2 : 1 1 y S.M.m.M.M.m.M.m.m.M.m.F.s s a a a a a a a a s s ).Z.K.J.K.J.C.J.J.K.K./.z 2 2 2 2 2 2 2 2 2 2 2 1 1 1 1 1 1 1 1 1 1 2 : L L L L L L L L J L [ X . . . . . . . . . . .                                                                                                                                                                                             ",
"                                                                                                                                                                                                          . . . . . . . . . . . X 4 1 2 2 1 1 1 : : 2 1 1 1 2 2 1 : 2 2 : 1 1 y S.m.m.M.M.m.M.m.m.M.m.F.s s a a a a a a a a s s ).Z.K.J.K.J.C.J.J.K.K./.z 2 2 2 2 2 2 2 2 2 2 2 1 1 1 1 1 1 1 1 1 1 2 : L J L L L L L J J L [ X . . . . . . . . . . .                                                                                                                                                                                             ",
"                                                                                                                                                                                                          . . . . . . . . . . . X 4 1 3 2 1 1 2 : : 2 1 1 2 2 2 1 : 2 2 : 1 1 y S.m.m.M.M.m.M.m.m.M.m.F.s s a a a a a a a a s s ).Z.K.J.K.J.C.J.J.K.K./.z 2 2 2 2 2 2 2 2 2 2 2 2 1 2 2 1 1 1 1 1 2 2 : J J J J L L J J J L [ X . . . . . . . . . . .                                                                                                                                                                                             ",
"                                                                                                                                                                                                          . . . . . . . . . . . X 4 2 3 2 1 1 2 : : 2 1 2 1 2 3 1 : 2 2 : 1 1 y S.m.m.M.M.m.m.m.m.M.m.F.s s a a a a a a a a s s ).Z.K.J.K.J.C.J.J.K.K./.z 2 2 2 2 2 2 2 2 2 2 2 2 2 2 2 2 2 2 2 2 2 : : J J J J L L J J J L [ X . . . o o o o o . . .                                                                                                                                                                                             ",
"                                                                                                                                                                                                          . . . . . . . . . . . X 4 1 2 2 1 1 1 : : 2 2 2 2 : 3 1 : 2 2 : 1 1 y S.M.m.M.M.m.M.m.m.M.m.F.s s a a a a a a a a s s ).Z.K.J.K.J.C.J.J.K.K./.z 2 2 2 2 2 2 2 2 2 2 2 2 2 2 2 2 2 2 2 3 2 : : L J J J L L L L J L [ X o o o o o o o o . . .                                                                                                                                                                                             ",
"                                                                                                                                                                                                          . . . . . . . . . . . X 4 1 2 1 5 1 1 2 2 2 1 2 2 3 : 1 : 2 2 : 1 1 y S.M.m.M.M.m.M.m.m.M.m.F.s s a a a a a a a a s s ).Z.K.J.K.J.C.J.J.K.K./.z 2 2 2 2 2 2 2 2 2 2 2 2 2 2 2 2 2 2 2 2 2 2 : L L L L L L L L L K [ X o o . . . . . . . . .                                                                                                                                                                                             ",
"                                                                                                                                                                                                          . . . . . . . . . . . X 4 5 1 1 4 1 1 1 1 1 1 2 2 : : 1 : 3 2 : 1 1 y S.M.m.M.M.m.M.m.m.M.m.F.h s a a a a a a a a s s ).Z.K.J.K.J.C.J.J.K.K./.z 2 2 2 2 2 2 2 2 2 2 2 2 2 2 : 2 2 2 2 2 2 2 2 K L L L L L L L L ' [ X . . . . . . . . . . .                                                                                                                                                                                             ",
"                                                                                                                                                                                                          . . . . . . . . . . . X 4 5 1 1 4 1 1 1 1 1 1 2 2 : : 1 : 2 2 : 1 1 y S.M.m.M.M.m.M.m.m.M.m.F.h s a a a a a a a a s s ).Z.K.J.K.J.C.J.J.K.K./.z 2 2 2 2 2 2 2 2 2 2 2 2 2 2 : 2 2 2 2 : 2 2 2 K K L L L ] K L K [ [ X . . . . . . . . . . .                                                                                                                                                                                             ",
"                                                                                                                                                                                                          . X X X X X X X X X X X 9 0 , , < 9 9 4 9 9 4 1 2 2 1 1 2 1 2 : 1 1 y S.m.m.M.m.m.M.m.M.M.m.F.s a a s a a a a a a s s ).Z.K.J.K.J.C.C.J.K.K./.z 2 2 2 1 2 2 2 2 2 2 2 : : : : : : : : 3 : 3 1 ' 0 { [ [ ' [ [ 0 0  .X X X X X X X X X X X .                                                                                                                                                                                             ",
"                                                                                                                                                                                  . . . . . . . @ . . . X 8 9 4 9 , 4 4 4 9 9 9 4 X . . X X X . X . X # < 2 2 1 1 2 1 2 : 1 1 y S.m.m.M.m.m.M.m.M.M.m.F.s a a s a a a a a a s s ).Z.K.J.K.J.C.J.J.K.K./.z 2 2 2 1 2 2 2 2 2 2 : L L L L L L L L ] L K G # X X X # X X X X X X { [ [ [ [ [ [ [ [ 0 0  .. X . . . . . . . . . .                                                                                                                                                                     ",
"                                                                                                                                                                                  . . . . . + . . . . X . , 4 4 4 1 1 1 1 1 4 4 0 . X + . X X . . . . X 4 F 3 3 1 2 1 2 : 1 1 y S.m.m.M.m.m.M.m.M.M.m.F.s a a s a a a a a a s s ).Z.K.J.K.J.C.J.J.K.K./.z 2 2 2 2 2 2 2 2 2 2 2 L L L L L L L L K L ] { X O X O . X X . . O X  .] ] L L L L L L ' { 0 X . o . + . . . . . . .                                                                                                                                                                     ",
"                                                                                                                                                                                  + . . . . . . . . . . X 9 4 5 1 1 2 2 2 1 1 1 , . X . . X . . . . . X 4 2 2 2 2 2 2 2 : 1 1 y S.m.m.M.m.m.M.m.M.M.m.F.s a a s a a a a a a s s ).Z.K.J.K.J.C.J.J.K.K./.z 2 2 2 2 2 2 2 2 2 2 2 L L L L L L L L L G ] [ . . o . . . . + o X X 0 L L L L L L L L | ' { X . . o . . . . . . . +                                                                                                                                                                     ",
"                                                                                                                                                                                  . + . . . . . + . . . . 9 < 1 2 2 2 3 2 2 1 1 4 X . . @ . . @ o o . . 9 2 2 3 1 2 2 2 : 1 1 y S.M.m.M.m.m.M.m.M.M.m.F.s a a s a a a a a a s s ).Z.K.J.K.J.C.J.J.K.K./.z 2 2 2 2 2 2 2 2 2 2 2 L L L L L L L L J J ] [ X . . . . . . o o . X { L L J J J J J J G G { . . . . o . . . . . + .                                                                                                                                                                     ",
"                                                                                                                                                                                  . . . . . . . . o . . X 4 [ 3 2 2 2 2 2 2 1 1 , . . . . . . . o o . . 5 1 2 1 1 2 1 2 : 1 1 y S.M.m.M.m.m.M.m.M.M.m.F.s a a s a a a a a a s s ).Z.K.J.K.J.C.J.J.K.K./.z 2 2 2 2 2 2 2 : 2 2 2 L L L L L L J J T I L [ X . . . . @ . o o @ X 5 L L L L L L L L L | ' X + . . . . . . + . . .                                                                                                                                                                     ",
"                                                                                                                                                                                  . . . . . . . o . . . X 4 1 2 2 2 2 : 3 2 2 2 0 X . . . . @ . o o . X 4 1 2 3 1 2 1 2 : 1 1 y S.M.m.M.m.m.M.m.M.M.m.F.s a a s a a a a a a s s ).Z.K.J.K.J.C.J.J.K.K./.z 2 2 2 2 2 2 2 : : : 2 L L L L L L I P P P G [ X . o . . . . o o . X { K L L J J J J J L F 9 % . . . . . . . . . . .                                                                                                                                                                     ",
"                                                                                                                                                                                  . . . + . . . . . . . X , 5 2 : : : : : : 2 2 4 . . o o . . o o o . X 4 1 2 1 1 2 1 2 : 1 1 y S.M.m.M.m.m.M.m.M.M.m.F.s a a s a a a a a a s s ).K.K.J.K.J.C.J.J.K.K./.z 2 2 2 2 2 2 2 : : : : L L L L L J J J P T L [ X . o o . . o o o . X ' L L L L J J L J L ] { . . . . . . . . + . . .                                                                                                                                                                     ",
"                                                                                                                                                                                  . . . . . . . o o . . X 4 1 2 2 2 2 2 2 2 1 1 4 X . o . . . . . . o . 4 2 2 2 1 2 2 2 : 1 1 y S.M.m.M.m.m.M.m.M.M.m.F.s a a s a a a a a a s s ).Z.K.J.K.J.C.J.J.K.K./.z 2 2 2 2 2 2 2 2 2 2 : L L L L L L L L L I L [ . . . . . . . . . . X [ L L J J L L L J J L [ X . . . . . . . . . . .                                                                                                                                                                     ",
"                                                                                                                                                                                  . . . . . . . o o . . X 4 1 2 2 2 2 2 2 2 1 1 4 X . o . . . . . . o . 4 2 2 2 1 2 2 2 : 1 1 y S.M.m.M.m.m.M.m.M.M.m.F.s a a s a a a a a a s s ).Z.K.J.K.J.C.J.J.K.K./.z 2 2 2 2 2 2 2 2 2 2 : L L L L L L L L L L L [ . . . . . . . . . . X [ L L J J L L L J J L [ X . . . . . . . . . . .                                                                                                                                                                     ",
"                                                                                                                                                                                  . . . . . . . . o . . X 4 1 2 2 2 2 2 2 2 1 1 4 X . o . . . . . . o . 4 2 3 2 1 2 1 2 : 1 1 y S.M.m.M.m.m.M.m.M.M.m.F.s a a s a a a a a a s s ).Z.K.J.K.J.C.J.J.K.K./.z 2 2 2 2 2 2 2 2 2 2 : L L L L L L L L L I L [ . . . . . . . . . . X [ L L L L L L L J P L [ X . . . . . . . . . . .                                                                                                                                                                     ",
"                                                                                                                                                                                  . . . . . . . . o . . X 4 1 2 2 2 2 2 2 2 1 1 4 X . o . . . . . . o . 4 3 3 2 1 2 1 2 : 1 1 y S.M.m.M.m.m.M.m.M.M.m.F.s a a s a a a a a a s s ).Z.K.J.K.J.C.J.J.K.K./.z 2 2 2 2 2 2 2 2 2 2 : L L L L L L L L L L L [ . . . . . . . . . . X [ L L L L L L L J P L [ X . . . . . . . . . . .                                                                                                                                                                     ",
"                                                                                                                                                                                  . . . . . . . . o . . X 4 1 2 2 2 3 3 2 2 1 1 4 X . o . . . . . . o . 4 2 : 2 1 2 1 2 : 1 1 y S.M.m.M.m.m.M.m.M.M.m.F.s a a s a a a a a a s s ).Z.K.J.K.J.C.J.J.K.K./.z 2 2 2 2 2 2 2 2 2 2 : L L L L L L L L L I L [ . . . . . . . . . . X [ L L J J L L L J P L [ X . . . . . . . . . . .                                                                                                                                                                     ",
"                                                                                                                                                                                  . . . . . . . o o . . X 4 1 2 2 2 2 3 2 2 1 1 4 X . o . . . . . . o . 4 2 : 2 1 2 1 2 : 1 1 y S.M.m.M.m.m.M.m.M.M.m.F.s a a s a a a a a a s s ).Z.K.J.K.J.C.J.J.K.K./.z 2 2 2 2 2 2 2 2 2 2 : L L L L L L L L L I L [ . . . . . . . . . . X [ L L J J L L L J P L [ X . . . . . . . . . . .                                                                                                                                                                     ",
"                                                                                                                                                                                  . . . . . . . o o . . X 4 1 2 2 2 2 3 2 2 1 1 4 X . o . . . . . . . . 4 2 : 2 1 2 1 2 : 1 1 y S.m.m.M.m.m.M.m.M.M.m.F.s a a s a a a a a a s s ).Z.K.J.K.J.C.J.J.K.K./.z 2 2 2 : 2 2 2 2 2 2 : L L L L L L L L L I L [ . . . . . . . . . . X [ L L J J L L L J P L [ X . . . . . . . . . . .                                                                                                                                                                     ",
"                                                                                                                                                                                  . . . . . . . o o . . X 4 1 2 2 2 2 2 2 2 1 1 4 X . o . . . . . . o . 4 2 : 2 2 2 2 2 : 1 1 y S.m.m.M.m.m.M.m.M.M.m.F.s a a s a a a a a a s s ).Z.K.J.K.J.C.J.J.K.K./.z 2 2 2 : 2 2 2 2 2 2 : L L L L L L L L L I L [ . . . . . . . . . . X [ L L J J L L L J P L [ X . . . . . . . . . . .                                                                                                                                                                     ",
"                                                                                                                                                                                  . . . . . . . o o o . X 4 4 1 : : : : 2 2 2 2 4 . . o . . . . . . . . 4 3 3 2 2 2 2 2 : 1 1 y S.M.m.M.m.m.M.m.M.M.m.F.s a a s a a a a a a s s ).Z.K.J.K.J.C.J.J.K.K./.z 2 2 2 : 2 2 2 2 2 2 : L L L L L L L L L I L [ . . . . . . . . . . X [ ] L L L L L L L J L [ . o o . . . . . . . . .                                                                                                                                                                     ",
"                                                                                                                                                                                  . . . . . . . o . . . X 4 5 1 2 2 2 2 2 1 1 1 4 . . o . . . . . . . . 4 2 2 2 1 2 1 2 : 1 1 y S.M.m.M.m.m.M.m.M.M.m.F.s a a s a a a a a a s s ).Z.K.J.K.J.C.J.J.K.K./.z 2 2 2 2 2 2 2 2 2 2 : L L L L L L L L L L L [ . . . . . . . . . . X [ L L J J L L L J P L [ X o . . . . . . . . . .                                                                                                                                                                     ",
"                                                                                                                                                                                  . . . . . . . . . . . X 4 5 2 1 1 1 1 1 1 1 1 4 . . o . . . . . . o . 4 2 : 2 1 2 1 2 : 1 1 y S.M.m.M.m.m.M.m.M.M.m.F.s a a s a a a a a a s s ).Z.K.J.K.J.C.J.J.K.K./.z 2 2 2 2 2 2 2 2 2 2 : L L L L L L L L L L L [ . . . . . . . . . . X [ L L J J L L L J P L [ X o o . . . . . . . . .                                                                                                                                                                     ",
"                                                                                                                                                                                  . . . . . . . . . . . X 4 5 2 : : : 2 2 2 2 2 4 . . o . . . . . . o . 4 2 2 2 1 2 1 2 : 1 1 y S.m.m.M.m.m.M.m.M.M.m.F.s a a s a a a a a a s s ).K.K.J.K.J.C.J.J.K.K./.z 2 2 2 2 2 2 2 2 2 2 : L L L L L L L L L I L [ . . . . . . . . . . X [ L L L J L L L L P L [ X o o . . . . . . . . .                                                                                                                                                                     ",
"                                                                                                                                                                                  . . . . . . . . o . . . , 5 1 3 3 2 2 2 3 3 2 4 X . o . . . . . . o . 4 2 2 2 1 2 1 2 : 1 1 y S.M.m.M.m.m.M.m.M.M.m.F.s a a s a a a a a a s s ).Z.K.J.K.J.C.J.J.K.K./.z 2 2 2 2 2 2 2 2 2 2 : L L L L L L L L L I L [ . . . . . . . . . . X [ ] L P I L L I I J L [ . . . . . . . . . . . .                                                                                                                                                                     ",
"                                                                                                                                                                                  . . . . . . . . o o . . , 4 > 1 1 1 1 1 1 1 1 5 X . o . . . . . . o . 4 3 2 2 2 2 1 2 : 1 1 y S.M.m.M.m.m.M.m.M.M.m.F.s a a s a a a a a a s s ).Z.K.J.K.J.C.J.J.K.K./.z 2 2 2 2 2 2 2 2 2 2 : L L L L L L L L L I L [ . . . . . . . . . . X [ K L J J K K L L P L [ . o o . . . . . . . . .                                                                                                                                                                     ",
"                                                                                                                                                                                  . . . . . . . . o . . X 1 3 : : : 2 2 2 2 2 2 5 X . o . . . . . . o . 4 2 2 2 2 2 2 2 : 1 1 y S.M.m.M.m.m.M.m.M.M.m.F.h a a s a a a a a a s s ).Z.K.J.K.J.C.J.J.K.K./.z 2 2 2 2 2 2 2 2 2 2 : L L L L L L L L L L L [ . . . . . . . . . . X [ L J J J J J J J H I ] X . . . . . . . . . . .                                                                                                                                                                     ",
"                                                                                                                                                                                  . . . . . . . . . . . # 2 m t y t t t t t t t 5 X . o . . . . . . o . 4 2 2 2 1 2 1 2 : 1 1 y S.M.m.M.m.m.M.m.M.M.m.F.s a a s a a a a a a s s ).Z.K.J.K.J.C.J.J.K.K./.z 2 2 2 2 2 2 2 2 2 2 : L L L L L L L L L L L [ . . . . . . . . . . X [ H S S S H H H S H H ] X X . . . . . . . . . .                                                                                                                                                                     ",
"                                                                                                                                                                                  . . . . . . . . . o . $ #X`.].`.`.`.`.{.`.$X%X@X$ . o o . X . . . o . 1 2 2 2 1 2 1 2 : 1 1 y S.m.m.M.m.m.M.m.V.M.M.G.s a a a a a s a a a s s ).Z.K.J.K.J.C.C.J.K.K./.z 2 2 2 2 2 2 2 2 2 : : L L L L L L L L L L L K . . . . X X . . . . $ DX0X0X1X1X1X1X7X7X-X3XCX$ X o . o . . . . . . .                                                                                                                                                                     ",
"                                                                                                                                                                                  . . . . . . . . . o . * +X{.^.^.~.].~.!.~.].].#X$ X o o . . . . . o . 1 2 1 2 1 2 1 2 : 1 1 y S.m.m.M.m.m.M.m.V.M.M.G.s s a s a a s a a a s s ).Z.K.J.K.J.C.J.J.K.K./.z 2 2 2 2 2 2 2 2 : : : L L L L L L L L L L L K . . . . o . . o . . $ DX-X-X;X;X;X;X;X*X;X1XCX$ X o . o . . . . . . .                                                                                                                                                                     ",
"                                                                                                                                                                                  . . . . . . . . . o X * <X}.!.Q.!.!.!.Q.Q.!.[.oX* X o o . . . . . o . 1 3 2 : 1 2 1 2 : 1 1 y S.m.m.M.m.m.M.m.M.m.M.G.h s s s a a s a a a a s ).Z.K.J.K.J.C.J.J.K.K./.z 2 2 2 2 2 2 2 2 : : : L L L L L L L L L I L K . . . . o . . o . . $ DX;X;X&X&X=X;X*X*X=X1XZX$ X o . o . . . . . . .                                                                                                                                                                     ",
"                                                                                                                                                                                  . . . . . . . . . o . * <X}.!.'.'.'.!.!.!.~.].oX* X . o . . . . . o . 1 3 2 2 2 2 1 2 : 1 1 y S.m.m.M.m.m.M.m.M.m.m.G.h s s s a a s a a a a s ).Z.K.J.K.J.C.J.J.K.K./.z 2 2 2 2 2 2 2 2 : : : L L L L L L L L J L L K . . . . o . . o . . $ DX;X*X*X*X;X;X*X*X=X1XCX* X o . . . . . . . . .                                                                                                                                                                     ",
"                                                                                                                                                                                  . . . . . . . . . o . * +X{.~.!.~.[.~.!.!.[.{.oX* X . o . . . . . o . 1 2 2 2 2 2 2 2 : 1 1 y S.M.m.M.m.m.M.m.M.m.m.G.h d s s s s a a a a a s ).Z.K.J.K.J.C.J.J.K.K./.z 2 2 2 2 2 2 2 2 2 2 2 L L L L J L L L J L L K . . . o o o . o . X * qX-X*X*X*X;X;X*X*X&X1XCX* X o . o . . . . . . .                                                                                                                                                                     ",
"                                                                                                                                                                                  . . . . . . . . . o . $ +X{.~.Q.~.~.~.!.!.'.[.%X* X . . . . . . . o . 1 2 2 : 1 2 1 2 : 1 1 y S.M.m.M.m.m.M.m.M.m.M.G.h d s s s s s a a a a s ).Z.K.J.K.J.C.J.J.K.K./.z 2 2 2 2 2 2 1 2 2 : 3 L L L J J J L L J L J K . . . o o o . . . X * DX-X;X*X*X;X;X*X*X&X1XDX* X o . . . . . . . . .                                                                                                                                                                     ",
"                                                                                                                                                                                  . . . . . . . . . o . $ +X{.~.Q.~.~.Q.Q.Q.!.[.%X* X . . . . . o . o . 1 2 1 : 1 2 1 2 : 1 1 y S.M.m.M.m.m.M.m.M.m.m.G.s s a s s s s a a a a s ).Z.K.J.K.J.C.J.J.K.K./.z 2 2 2 2 2 2 2 2 2 3 3 L L L J J J L L J L J K X . . o o . . o . X * DX-X;X*X*X;X;X*X*X*X1XCX* X o . . . . . . . . .                                                                                                                                                                     ",
"                                                                                                                                                                                  . . . . . . . o . o . * +X}.!.'.[.~.^.Q.!.!.[.%X* X . . . . . o . o . 1 2 1 : 1 2 1 2 : 1 1 y S.M.m.M.m.m.M.m.M.m.m.G.s a a a s s s a a a a s ).K.K.J.K.J.C.J.J.K.K./.z 2 2 2 2 2 2 2 2 2 3 3 L L L J J J L L J L J K X . . o . . . o . . * DX-X;X*X*X*X*X*X*X*XrXCX* X o . . . . . . . . .                                                                                                                                                                     ",
"                                                                                                                                                                                  . . . . . . . o o o X * <X}.!.'.'.!.~.~.[.}.{.+X= % . . o o . o . o . 1 2 5 2 1 2 2 2 : 1 1 y S.M.m.M.m.m.M.m.m.M.V.V.d s d s d d d d a a a a ).L.K.Z.J.J.J.Z.J.K.K./.z 2 2 2 2 2 1 1 1 2 3 3 L L L L L L L L L J L ] X . . . o . X o . X * FX2X-X;X&X&X&X&X;X*XtXZX* % o o o . . . . . . .                                                                                                                                                                     ",
"                                                                                                                                                                                  . . . . . . . . o . X * #X:X'.Q.Q.Q.Q.Q.~.~.].@X= X . @ . o . o . . . 1 2 5 1 1 2 2 2 : 1 1 y S.M.m.M.m.m.M.m.m.m.V.V.s s d s s s s s a a s s ).L.K.Z.J.J.J.Z.J.K.K./.z 2 2 2 2 2 1 1 1 1 3 3 L L L L L L L L J J L ] X . . . o . . o . X * ZX2X-X;X*X*X*X*X*X&X-XFX* # X o . . . . . . . .                                                                                                                                                                     ",
"                                                                                                                                                                                  . . . . . . . o o o # * +X{.'.!.!.~.~.~.[.].`.NX= X . . . o . o . . . 1 2 1 1 1 2 1 2 : 1 1 y S.m.m.M.m.m.M.m.m.m.V.G.s a s s s s s s s s s s ).L.K.K.J.J.J.C.J.K.K./.z 2 2 2 2 2 1 1 1 1 2 3 L L L L L L L L L J L [ X . o . o X . o . X $ AX1X-X;X*X*X&X*X;X-XHXCX* # . . o . . . . . . .                                                                                                                                                                     ",
"                                                                                                                                                                                  . . . . + . . o o o # * @X<X$X$X$X$X$X$X$X4XoXNX# X o . . . . o . . . 1 2 1 1 1 2 1 2 : 1 1 y S.m.m.M.m.m.M.m.m.m.V.L.s s h s s s s s s s s s L.L.K.K.J.J.J.C.J.K.K./.z 2 2 2 2 2 2 1 1 1 2 3 L L L L L L L L G G L ' X . . . o . . . o X # KXqXqXeX0X0X0X>X0XDXZXSX# % o . . . . + . . . .                                                                                                                                                                     ",
"                                                                                                                                                                                                          # # $ $ # # $ $ $ $ % $ $ . o o . @ o o . . . 1 : 2 1 1 2 1 2 : 1 1 y S.M.m.M.m.m.M.m.M.M.M.N.)._.P.P._._._._._._._._.L.K.K.K.J.K.J.J.J.K.K./.z 2 2 2 2 2 2 1 1 1 1 2 2 2 : : : 2 2 2 3 : 3 4 . . o . . . @ + o o # # # # # $ # $ $ $ $ $ #                                                                                                                                                                                             ",
"                                                                                                                                                                                                          . o o . . . . . . . . X . . o o . . . o . . . 1 : 2 1 1 2 1 2 : 1 1 y S.M.m.M.m.m.M.m.m.M.N.V.P.P.L.P.K.K.K.K.K.K.K.K.K.K.K.J.K.K.J.J.J.K.K./.z 2 2 2 2 2 2 1 1 1 1 1 2 2 2 2 2 2 2 2 3 : : 1 . . . . . . . . o o X X o . . . . . o o o . o                                                                                                                                                                                             ",
"                                                                                                                                                                                                          X . X . . . . . . . . o . . o o . . o o . . X 3 : 2 1 1 2 1 2 : 1 1 y S.M.m.M.m.m.M.m.M.M.M.V.K.K.J.Z.J.J.J.Z.Z.K.K.K.K.K.K.J.K.K.J.J.J.K.K./.z 2 2 2 : 2 2 1 1 1 1 1 2 2 2 2 2 2 1 1 2 2 2 1 . . . . @ o . . o o . . o o o o o o o o o o .                                                                                                                                                                                             ",
"                                                                                                                                                                                                          . + o o o o o . . . . o . . o O . . o o . . X 3 : 2 1 2 2 2 2 : 1 1 y S.M.m.M.m.m.M.m.N.m.N.V.A.Z.Z.A.J.J.J.J.J.J.J.J.Z.K.K.J.K.K.J.J.J.K.K./.z 2 2 2 : 2 2 1 1 1 1 1 2 2 2 2 2 1 1 1 2 2 2 , . o . . . o . . o o . o . . . . . . . . . . .                                                                                                                                                                                             ",
"                                                                                                                                                                                                          . . . . . . . . . . . . . . . . . . . . . o . 1 2 1 2 1 2 2 3 : 1 2 z S.m.N.m.m.m.m.m.m.m.M.V.C.J.K.K.K.J.J.J.J.J.J.J.L.K.K.J.J.J.J.Z.Z.Z.J.(.j > 2 2 1 1 2 2 2 1 1 1 2 2 1 1 1 1 2 2 1 2 2 4 . o . . . . . . . . . . . . . . . . . . . . .                                                                                                                                                                                             ",
"                                                                                                                                                                                                          . . . . . . . . . . . . . . . . . . . . . o . 1 2 1 2 1 2 1 3 : 1 2 z S.m.m.M.m.m.m.m.M.M.M.V.J.K.K.P.J.J.J.J.J.J.J.J.L.K.J.J.L.L.J.J.K.K.L./.j > 2 2 1 1 2 2 3 2 2 2 3 3 2 2 2 2 3 2 1 2 : 4 . o . . . . . . . o . . . . . . . . . . . . .                                                                                                                                                                                             ",
"                                                                                                                                                                                                          . . . . . . . . . . . . . . . . . . . . . o . 1 2 1 2 1 : 2 2 : 1 2 z D.M.V.V.M.V.M.V.N.m.m.M.A.C.K.K.K.K.Z.Z.Z.Z.Z.Z.J.C.C.J.J.J.J.J.J.K.L./.n > 1 1 2 2 2 2 2 2 : : 2 2 2 2 : 2 2 2 1 : : 4 . o . . . . . . . . . . . . . . . . . . . . .                                                                                                                                                                                             ",
"                                                                                                                                                                                                          . . . . . . . . . . . . . . . . . . . . . o . 1 2 1 2 1 : 2 2 : 1 2 z S.m.N.M.m.M.m.m.m.m.m.M.A.C.K.K.K.K.K.K.K.K.K.K.Z.Z.J.J.J.J.J.J.J.K.L./.z : 1 1 2 2 2 2 2 2 2 2 2 2 2 2 2 2 2 2 1 : : 1 . o . . . . . . . . . . . . . . . . . . . . .                                                                                                                                                                                             ",
"                                                                                                                                                                                                          . . . . . . . . . . . . . . . . . . . . . o . 1 : 1 2 2 : 2 2 : 1 2 z H.m.M.M.M.M.m.M.M.M.M.V.J.K.K.P.L.L.L.L.L.L.L.L.K.K.P.P.P.P.P.P.C.Z.J.(.z : 2 2 1 1 1 1 1 2 2 2 1 1 1 1 1 1 1 1 2 : : 1 . o . . . . . . . . . . . . . . . . . . . . .                                                                                                                                                                                             ",
"                                                                                                                                                                                                          . . . . . . . . . . . . . . . . . . . . . o . 1 : 1 : 2 : 2 2 : 1 2 z S.m.N.m.m.M.M.m.m.m.m.m.A.A.Z.C.J.J.J.J.J.J.J.J.C.C.J.J.C.C.C.J.Z.K.L./.z : F 1 1 1 1 1 1 1 1 2 1 1 1 1 1 1 1 1 2 : : 1 . o . . . . . . . . . . . . . . . . . . . . .                                                                                                                                                                                             ",
"                                                                                                                                                                                                          . . . . . . . . . . . . . . . . . . . . . o . 1 : 1 > 3 : 2 2 > 1 2 z I.B.m.m.m.M.m.m.m.M.M.M.A.C.K.J.K.K.J.J.K.K.K.K.Z.J.L.J.J.C.J.J.L.P._./.z : 2 2 3 3 2 2 2 2 2 2 3 3 3 3 2 2 2 2 : : : 1 . o o . . . . . . . . . . . . . . . . . . . .                                                                                                                                                                                             ",
"                                                                                                                                                                                                          . . . . . . . . . . . . . . . . . . . . . o . 2 : 1 > 2 : 3 2 > 1 2 z W.I.S.H.I.H.H.D.S.S.S.S.(.(.(.(._._.(.(.(.(._.(._./././._.(._._._._._.XXc : 3 : 2 2 3 : : : : : : : : : : : : : : : : 1 . o o . . . . . . . . . . . . . . . . . . . .                                                                                                                                                                                             ",
"                                                                                                                                                                                                                                  . . . . . . . o . o X ] L L L L L L L L L L L R R R R R R R R A A A A ( ( ( ( ( ( ( ( ( ( ( ( A A A A A A D A D A A S o.O.} ..} } } } } } } } } } } } } } } } O.} } @.X o . . . . . . . . .                                                                                                                                                                                                                     ",
"                                                                                                                                                                                                                                  . . . . . . . o . . X ] L L L L L L L L L L L L L L L L P P P I I P P ................) ) ) ) J J L L L L L L P P P P o.o.....) ) ) ) ) ) ) ) ) ) ) ) ) ) ) ) O...} +.X o . . . . . . . . .                                                                                                                                                                                                                     ",
"                                                                                                                                                                                                                                  . . . . . . . o . o . ] L L L L L L L L L L L L ] ] ] L L L ] ] L L L O.O.} } O.O.O.O.} } Y } L L L L L L L L L L L J O.o.) ) ) ) ) ) ) ) ) ) ) ) ) ) ) ) ) ) } ..Y +.X o . . . . . . . . .                                                                                                                                                                                                                     ",
"                                                                                                                                                                                                                                  . . . . . . . o . . . K J L L L L L L L L L L J J L J J J P J L L J J o.) ) ) ) ) ) ) ) ) ) ) P P P P P P P P ] ] L L O.o.) ) ) ) ) ) ) ) ) ) ) ) ) ) ) ) ) ) ....) +.X o . . . . . . . . .                                                                                                                                                                                                                     ",
"                                                                                                                                                                                                                                  . . . . . . . o . . . K J L L L L L L L L L L J L L L J J J L L L L P ....) ) ..........X.X.X.L L L L L J J J L L L J } ..) ) ................................) ..) O.X o . . . . . . . . .                                                                                                                                                                                                                     ",
"                                                                                                                                                                                                                                  . . . . . . . o . . . K J L L L L L L L L L L J J L L J J J L L L L J } ..) ) ................L L L L L L L L P P J P ....) o.................................) ..) O.X o . . . . . . . . .                                                                                                                                                                                                                     ",
"                                                                                                                                                                                                                                  . . . . . . . o . . X K J L J L L L L L L L L J J J J J J J L L J J J o.o.) ) o.o.o.o.o.o.o.o.J J J J J J J J I J J J ....) o.) ) ) ) ) ) ) ) ) ) ) ) ) ) ) ) ) ..) O.X . . . . . . . . . .                                                                                                                                                                                                                     ",
"                                                                                                                                                                                                                                  . . . . . . . o . . X L J L J L L L L L L L L J L L L L L L L L L J P ) ) ) ) ) ) ........) ) J J J L L L L L L L L J ....) o.) ) ) ) ) ) ) ) ) ) ) ) ) ) ) ) ) ..) O.X . . . . . . . . . .                                                                                                                                                                                                                     ",
"                                                                                                                                                                                                                                  . . . . . . o . o . X [ L T T L L L L L L L L L L L L L L L L L L L I } ....Y ) ) ) ) ) ) o.} J J J J J L L L L L L P } ......) ) ) ) ) ) ) ) ........) ) ) ) _ ) } #.X X . . . . . . . . .                                                                                                                                                                                                                     ",
"                                                                                                                                                                                                                                  . . . . . . o . o . X [ L J J J J J J J J J J J J J J J J L J J J J T $.) ) ) ................L L L L L L L L J L J P } Y ) ) ) ) ) ) ) ) ) ) ) ) ) ) ) ) ) ) ) ..} #.X . . . . . . . . . .                                                                                                                                                                                                                     ",
"                                                                                                                                                                                                                                  . . . . . . o . o . . [ ] L L L L L L L L L L L L L L L L L L J I I J O.Y Y ..) ) ) ) ) ) ) ) J J L L L L L L L L L J } ....$.................................} O.+.#.X . . . . . . . . . .                                                                                                                                                                                                                     ",
"                                                                                                                                                                                                                                  . . . . . . . o o o X 0 [ ' ' ' ' ' ' ' ' ' ' ' ' ' ' ' ' ' ' ] K G ] | +.+.+.O.O.O.O.O.O.O.O.K K K K K K K K ] ] ] K +.| | | +.+.+.+.+.+.+.+.+.+.+.+.+.+.+.+.@.@.#.#.X . . . . . . . . . .                                                                                                                                                                                                                     ",
"                                                                                                                                                                                                                                  . . . . . . . . . o . 8 , , 4 , , , , , , , , 0 0 0 0 0 0 0 0 0 0 0 0 X X X X X X X X X X X X X X X X X X X X . . X X , 4 , 4 , , , , , , , , 0 0 0 0 0 0 0 0 0 9 0 0 . . . . . . . . . . .                                                                                                                                                                                                                     ",
"                                                                                                                                                                                                                                  . . . . . . . o o o o 8 8 8 9 7 7 7 7 7 7 7 7 q q q q q q q q q e e w o O o o o o o o o o o o o o o o o o o o o o . . 6 6 6 6 6 6 6 6 6 6 6 6 q q q q q q q q 0 0 0 q . o . . . . . . . . .                                                                                                                                                                                                                     ",
"                                                                                                                                                                                                                                  . . . . . . . . o o o 6 6 6 8 7 7 7 7 7 7 7 7 q q q q q q q q q q q w . o . . . . . . . . . . . . . . . . . . o o o . 7 7 7 7 7 7 7 7 7 7 6 6 q q q q q q q q q q q e o . . . . . . . . . .                                                                                                                                                                                                                     ",
"                                                                                                                                                                                                                                  . . . . . . . . o o o 6 7 6 7 6 6 6 6 6 6 6 6 q q q q q q q q q q q q . . . . . . . . . . . . . . . . . . . . . . . . 8 6 6 6 6 6 6 6 6 6 6 6 q q q q q q q q q q q e o o . . . . . . . . .                                                                                                                                                                                                                     ",
"                                                                                                                                                                                                                                  o . . . . . . . . . o 6 7 7 7 6 6 6 6 6 6 6 6 q q q q q q q q q q q q . . . . . . . . . . . . . . . . . . . . . . . . 6 6 6 6 7 7 7 7 7 7 7 7 q q q q q q q q q q q q . . . . . . . . . . .                                                                                                                                                                                                                     ",
"                                                                                                                                                                                                                                  . . . . . . . . . . . 6 6 6 6 6 6 6 6 6 6 6 6 q q q q q q q q q q q q . . . . . . . . . . . . . . . . . . . . . . . . 6 6 6 6 6 6 6 6 6 6 6 6 q q q q q q q q q q q q . . . . . . . . . . .                                                                                                                                                                                                                     ",
"                                                                                                                                                                                                                                  . . . . . . . . . . . 6 6 6 6 6 6 6 6 6 6 6 6 q q q q q q q q q q q q . . . . . . . . . . . . . . . . . . . . . . . . 6 6 6 6 6 6 6 6 6 6 6 6 q q q q q q q q q q q q . . . . . . . . . . .                                                                                                                                                                                                                     ",
"                                                                                                                                                                                                                                  . . . . . . . . . . . 6 6 6 6 6 6 6 6 6 6 6 6 q q q q q q q q q q q q . . . . . . . . . . . . . . . . . . . . . . . . 6 6 6 6 6 6 6 6 6 6 6 6 q q q q q q q q q q q q . . . . . . . . . . .                                                                                                                                                                                                                     ",
"                                                                                                                                                                                                                                  . . . . . . . . . . . 6 6 6 6 6 6 6 6 6 6 6 6 q q q q q q q q q q q q . . . . . . . . . . . . . . . . . . . . . . . . 6 6 6 6 6 6 7 7 7 7 7 7 q q q q q q q q q q q q . . . . . . . . . . .                                                                                                                                                                                                                     ",
"                                                                                                                                                                                                                                  . . . . . . . . . . . 6 6 6 6 6 6 6 6 6 6 6 6 q q q q q q q q q q q q . . . . . . . . . . . . . . . . . . . . . . . . 6 6 6 6 6 6 6 7 7 7 7 7 q q q q q q q q q q q q . . . . . . . . . . .                                                                                                                                                                                                                     ",
"                                                                                                                                                                                                                                  . . . . . . . . . . . 6 8 6 8 6 6 6 6 6 6 6 6 q q q q q q q q q q q q . . . . . . . . . . . . . . . . . . . . . . . . 6 6 6 6 6 6 6 6 6 6 6 6 q q q q q q q q q q q q . . . . . . . . . . .                                                                                                                                                                                                                     ",
"                                                                                                                                                                                                                                  . . . . . . . . o . o 6 8 7 8 7 7 7 7 7 7 7 7 q q q q q q q q q q q q . . . . . . . . . . . . . . . . . . . . . . . . 6 8 6 8 6 6 6 6 6 6 6 6 q q q q q q q q q q q q . . . . . . . . . . .                                                                                                                                                                                                                     ",
"                                                                                                                                                                                                                                  . . . . . . . . . . . . . . . . . . . . . . . . . . . . . . . . . . .                                                 . . . . . . . . . . . . . . . . . . . . . . . . . . . . . . . . . . .                                                                                                                                                                                                                     ",
"                                                                                                                                                                                                                                  . . . . . . . . . . . . . . . . . . . . . . . . . . . . . . . . . . .                                                 . . . . . . . . . . . . . . . . . . . . . . . . . . . . . . . . . . .                                                                                                                                                                                                                     ",
"                                                                                                                                                                                                                                  . . . . . . . . . . . . . . . . . . . . . . . . . . . . . . . . . . .                                                 . . . . . . . . . . . . . . . . . . . . . . . . . . . . . . . . . . .                                                                                                                                                                                                                     ",
"                                                                                                                                                                                                                                  . . . . . . . . . . . . . . . . . . . . . . . . . . . . . . . . . . .                                                 . . . . . . . . . . . . . . . . . . . . . . . . . . . . . . . . . . .                                                                                                                                                                                                                     ",
"                                                                                                                                                                                                                                  . . . . . . . . . . . . . . . . . . . . . . . . . . . . . . . . . . .                                                 . . . . . . . . . . . . . . . . . . . . . . . . . . . . . . . . . . .                                                                                                                                                                                                                     ",
"                                                                                                                                                                                                                                  . . . . . . . . . . . . . . . . . . . . . . . . . . . . . . . . . . .                                                 . . . . . . . . . . . . . . . . . . . . . . . . . . . . . . . . . . .                                                                                                                                                                                                                     ",
"                                                                                                                                                                                                                                  . . . . . . . . . . . . . . . . . . . . . . . . . . . . . . . . . . .                                                 . . . . . . . . . . . . . . . . . . . . . . . . . . . . . . . . . . .                                                                                                                                                                                                                     ",
"                                                                                                                                                                                                                                  . . . . . . . . . . . . . . . . . . . . . . . . . . . . . . . . . . .                                                 . . . . . . . . . . . . . . . . . . . . . . . . . . . . . . . . . . .                                                                                                                                                                                                                     ",
"                                                                                                                                                                                                                                  . . . . . . . . . . . . . . . . . . . . . . . . . . . . . . . . . . .                                                 . . . . . . . . . . . . . . . . . . . . . . . . . . . . . . . . . . .                                                                                                                                                                                                                     ",
"                                                                                                                                                                                                                                  . . . . . . . . . . . . . . . . . . . . . . . . . . . . . . . . . . +                                                 . . . . . . . . . . . . . . . . . . . . . . . . . . . . . . . . . . .                                                                                                                                                                                                                     ",
"                                                                                                                                                                                                                                  . . . . . . . . . . . . . . . . . . . . . . . . . . . . . . . . . . .                                                 . . . . . . . . . . . . . . . . . . . . . . . . . . . . . . . . . . .                                                                                                                                                                                                                     ",
"                                                                                                                                                                                                                                  . . . . + . . . . . . . . . . . . . . . . . . . . . . . . . . . . . .                                                 . . . . . . . . . . . . . . . . . . . . . . . . . . . . . . + . . . .                                                                                                                                                                                                                     ",
"                                                                                                                                                                                                                                                                                                                                                                                                                                                                                                                                                                                                                                                  ",
"                                                                                                                                                                                                                                                                                                                                                                                                                                                                                                                                                                                                                                                  ",
"                                                                                                                                                                                                                                                                                                                                                                                                                                                                                                                                                                                                                                                  ",
"                                                                                                                                                                                                                                                                                                                                                                                                                                                                                                                                                                                                                                                  ",
"                                                                                                                                                                                                                                                                                                                                                                                                                                                                                                                                                                                                                                                  ",
"                                                                                                                                                                                                                                                                                                                                                                                                                                                                                                                                                                                                                                                  ",
"                                                                                                                                                                                                                                                                                                                                                                                                                                                                                                                                                                                                                                                  ",
"                                                                                                                                                                                                                                                                                                                                                                                                                                                                                                                                                                                                                                                  ",
"                                                                                                                                                                                                                                                                                                                                                                                                                                                                                                                                                                                                                                                  ",
"                                                                                                                                                                                                                                                                                                                                                                                                                                                                                                                                                                                                                                                  ",
"                                                                                                                                                                                                                                                                                                                                                                                                                                                                                                                                                                                                                                                  ",
"                                                                                                                                                                                                                                                                                                                                                                                                                                                                                                                                                                                                                                                  ",
"                                                                                                                                                                                                                                                                                                                                                                                                                                                                                                                                                                                                                                                  ",
"                                                                                                                                                                                                                                                                                                                                                                                                                                                                                                                                                                                                                                                  ",
"                                                                                                                                                                                                                                                                                                                                                                                                                                                                                                                                                                                                                                                  ",
"                                                                                                                                                                                                                                                                                                                                                                                                                                                                                                                                                                                                                                                  ",
"                                                                                                                                                                                                                                                                                                                                                                                                                                                                                                                                                                                                                                                  ",
"                                                                                                                                                                                                                                                                                                                                                                                                                                                                                                                                                                                                                                                  ",
"                                                                                                                                                                                                                                                                                                                                                                                                                                                                                                                                                                                                                                                  ",
"                                                                                                                                                                                                                                                                                                                                                                                                                                                                                                                                                                                                                                                  ",
"                                                                                                                                                                                                                                                                                                                                                                                                                                                                                                                                                                                                                                                  ",
"                                                                                                                                                                                                                                                                                                                                                                                                                                                                                                                                                                                                                                                  ",
"                                                                                                                                                                                                                                                                                                                                                                                                                                                                                                                                                                                                                                                  ",
"                                                                                                                                                                                                                                                                                                                                                                                                                                                                                                                                                                                                                                                  ",
"                                                                                                                                                                                                                                                                                                                                                                                                                                                                                                                                                                                                                                                  ",
"                                                                                                                                                                                                                                                                                                                                                                                                                                                                                                                                                                                                                                                  ",
"                                                                                                                                                                                                                                                                                                                                                                                                                                                                                                                                                                                                                                                  ",
"                                                                                                                                                                                                                                                                                                                                                                                                                                                                                                                                                                                                                                                  ",
"                                                                                                                                                                                                                                                                                                                                                                                                                                                                                                                                                                                                                                                  "
};
