/* XPM */
static const char *exit[] = {
/* columns rows colors chars-per-pixel */
"64 64 256 2 ",
"   c #6F7639",
".  c #6C7677",
"X  c #657363",
"o  c #EC1B24",
"O  c #F21821",
"+  c #DB2837",
"@  c #D82F2F",
"#  c #E52C30",
"$  c #F0321D",
"%  c #A25934",
"&  c #F77116",
"*  c #D94A36",
"=  c #E94D2E",
"-  c #EB6C2B",
";  c #D96E29",
":  c #B53572",
">  c #9B3B74",
",  c #D3304C",
"<  c #E73848",
"1  c #C6346B",
"2  c #C5336B",
"3  c #BA585A",
"4  c #B45253",
"5  c #8F4C77",
"6  c #B3546C",
"7  c #9B7378",
"8  c #A86D74",
"9  c #A5777B",
"0  c #B87678",
"q  c #B16A6D",
"w  c #A56653",
"e  c #C74A54",
"r  c #CB4D50",
"t  c #CB7153",
"y  c #CC4A67",
"u  c #F05769",
"i  c #C8766E",
"p  c #F36D7A",
"a  c #F25650",
"s  c #5D853A",
"d  c #50B83A",
"f  c #6DB936",
"g  c #55C538",
"h  c #71CF32",
"j  c #24B24A",
"k  c #38B547",
"l  c #2BAB54",
"z  c #37AA59",
"x  c #34AE51",
"c  c #2B9172",
"v  c #38A862",
"b  c #21AB51",
"n  c #4D9A55",
"m  c #4BB14E",
"M  c #70B34B",
"N  c #469667",
"B  c #588375",
"V  c #589A74",
"C  c #4F916D",
"Z  c #699979",
"A  c #718F78",
"S  c #4AA467",
"D  c #52AD70",
"F  c #6DA972",
"G  c #6C8951",
"H  c #3EC07D",
"J  c #4AC370",
"K  c #77C54C",
"L  c #B6B92E",
"P  c #A19F27",
"I  c #F78911",
"U  c #CDB719",
"Y  c #F4B818",
"T  c #D3B536",
"R  c #E9B729",
"E  c #E7BA38",
"W  c #F0AF2C",
"Q  c #DF9229",
"!  c #B7D41D",
"~  c #B9E51A",
"^  c #8DCF31",
"/  c #A9DA28",
"(  c #B7DA27",
")  c #B1CE33",
"_  c #B4E529",
"`  c #D2C817",
"'  c #FECC08",
"]  c #E9C716",
"[  c #F6C418",
"{  c #F2D810",
"}  c #CEE510",
"|  c #FCE706",
" . c #F2E813",
".. c #D0CB30",
"X. c #E6C126",
"o. c #FAC524",
"O. c #F0D32D",
"+. c #DDE432",
"@. c #B09659",
"#. c #9BB557",
"$. c #93B34C",
"%. c #BBA657",
"&. c #ACAE51",
"*. c #929073",
"=. c #AB986A",
"-. c #A79878",
";. c #AD8B6D",
":. c #98A867",
">. c #94AC71",
",. c #B6A467",
"<. c #ACA96F",
"1. c #8D965B",
"2. c #CD9155",
"3. c #C8AB49",
"4. c #CCAF4C",
"5. c #F1BA5B",
"6. c #CA8662",
"7. c #CE8D6E",
"8. c #F4B871",
"9. c #D69E67",
"0. c #97C44C",
"q. c #AECC4F",
"w. c #AFE749",
"e. c #ACD36F",
"r. c #A4DD73",
"t. c #D3CC50",
"y. c #F6CA51",
"u. c #D0CD6A",
"i. c #F5CA73",
"p. c #D6E660",
"a. c #74379A",
"s. c #673EB1",
"d. c #327596",
"f. c #3C59B7",
"g. c #3867A8",
"h. c #527696",
"j. c #7A7B99",
"k. c #6F6F8F",
"l. c #4657BA",
"z. c #5658BA",
"x. c #5453B2",
"c. c #6746BA",
"v. c #7648B6",
"b. c #7055B0",
"n. c #5762B5",
"m. c #5469A8",
"M. c #6873A6",
"N. c #7475A4",
"B. c #6C6AB1",
"V. c #784E97",
"C. c #5C3EC2",
"Z. c #3C4ACD",
"A. c #484BC7",
"S. c #4B54C3",
"D. c #5658C5",
"F. c #5A48C5",
"G. c #6751C5",
"H. c #546AD1",
"J. c #6B6ECA",
"K. c #8D3687",
"L. c #AE3988",
"P. c #8C37A2",
"I. c #98579B",
"U. c #8C5695",
"Y. c #A94799",
"T. c #A55797",
"R. c #B24D8B",
"E. c #8B6896",
"W. c #98689B",
"Q. c #897A97",
"!. c #957796",
"~. c #917488",
"^. c #A56989",
"/. c #B46489",
"(. c #A77684",
"). c #AF6F90",
"_. c #9A4AA7",
"`. c #9C57A3",
"'. c #874DAE",
"]. c #A346A5",
"[. c #A34AA4",
"{. c #A749A8",
"}. c #A354A4",
"|. c #B359AA",
" X c #946BA8",
".X c #A76FB0",
"XX c #CE768F",
"oX c #F1718D",
"OX c #CA6FB2",
"+X c #C94D8E",
"@X c #9073C7",
"#X c #9F74C9",
"$X c #2F8487",
"%X c #3681AF",
"&X c #799584",
"*X c #718A8B",
"=X c #68A796",
"-X c #5FC8A4",
";X c #708FD8",
":X c #76A6D1",
">X c #6995DC",
",X c #7CCEC3",
"<X c #8C8C8E",
"1X c #858A8B",
"2X c #918C8D",
"3X c #968787",
"4X c #8B928A",
"5X c #939387",
"6X c #8C8493",
"7X c #8C8C91",
"8X c #838596",
"9X c #938994",
"0X c #8A9395",
"qX c #979398",
"wX c #A4959A",
"eX c #B08F8E",
"rX c #92AD89",
"tX c #ACAC92",
"yX c #9093AC",
"uX c #B597A6",
"iX c #AB8FAF",
"pX c #94AEB2",
"aX c #B5AAAF",
"sX c #C98B8D",
"dX c #EF8798",
"fX c #CFB193",
"gX c #F3B58F",
"hX c #CC93B3",
"jX c #EF97B2",
"kX c #D9A4B7",
"lX c #CEACAB",
"zX c #F0ADB7",
"xX c #B0D696",
"cX c #ADD5B0",
"vX c #A2D9A5",
"bX c #D6CB92",
"nX c #998CCB",
"mX c #B187CB",
"MX c #95B6CF",
"NX c #A7B0C9",
"BX c #8AB6E4",
"VX c #ABBBE1",
"CX c #D4B3CC",
"ZX c #E8A7C3",
"AX c #F9ACC6",
"SX c #F1B5D0",
"DX c #DA97C6",
"FX c #96C8D8",
"GX c #94CFCA",
"HX c #ACCED2",
"JX c #98D8EA",
"KX c #94CDE9",
"LX c #AAD2E4",
"PX c #9EE1D4",
"IX c #CCC8D7",
"UX c #D8C5DE",
/* pixels */
"o e <X7X!.I.B j j j j j j j j j j   # 8 8 + > Z.Z.*.o.gXAXAXOX|.ZX8.] f c l.;.' ' ' Y 0 ].]._./.R 4.3X, O o o o o O @ s N I.G.Z.",
"o r hXlXiX}.k.S S S S S S S S S S w + 8 8 # K.l.j.@.4.sXOXhX.X).8.i.5.M c l.:.] 3.2.2.@.=.;.6 1 - ; e u a - * e e r 4 G A I.'.n.",
"o u zXAXhX}.E.<X<X<X<X<X<X<X<X7X<X3 # q q + K.B.T 3.3XI.{.}.!.=.R 5.kXF c l.*.) ).{.R.&.! ( ; # $ # # dXgXo.%.<X<X2X<X<X!.}.E.1X",
"o r uXuX.X[.W.7X7X7X7X7X7X7X7X7X7X3 o # 2 a.b.Q.0 /.`.W.!.!.2.T %.eXwX0.M l.b.eXhXoX, @ ; ] ` U U @.0 jXgXo.%.7X7X7X7X7X!.`.. S ",
"O , 8 ~.W.W.!.7X7X7X7X7X<X<X<X7X7X3 o @ 5 c.B.!.k.k.k.*X&XZ L ` #.>.:.^ M b.P.+XoXp a < a Y Y L ) 0.>.lXgXo.3.7X7X7X7X<X!.`.. z ",
"o o + R.I.!.2X2X<X2X<X7X<X7X7X7X7X3 @   C U.].E.N l l l l x ^ ~ ( ( / g C I.2 # # u jXzXgXo.& * 9 #.) >.,.[ 3.7X7X7X7X<X!.}.!.1X",
"2 , o : R.e r r r r e 7 0X7X7X7X7X*.  X k.c.'.Q.Z V V K h h / ] Q P g V k.b.. % 4 /.lX8.5.4.7.p e w #.$.) [ %.7X7X<X7X<X!.}.W.7X",
"[.: , L.R., @ + + + @ q 7 9 3X7X6XA N k.v.z.M.2X*.*.>.L ` ` Y I = % N k.b.A.d.v Z &X*.L T 5XhXdX# e wXq.+.] 3.-.2X7X7X<X!.}.W.<X",
"[.Y.Y.Y.T.9 9 9 9 7 8 r # + q 6XI.I.U.c.z.j.8X*.q./ ) ; $ $ $ = q ~.E.C c f.M.Z S z z m m 4XqX(.# u zXzXi...` T -.7X7X7X!.}.W.<X",
"[.R.: L.`.7X0X0XpXMXpXeX3 % 7  XiXmXnXD.D.uX<.&.u.T Q a u u - - ^.W.E.S c f.~.&.F S S S N V V A p p oXhXfX_ { X.-.8X<X7X!.}.W.<X",
"[.2 + 6 W.6X6XqXMXKXKXKX,XS . .XMXKXBXH.J.zXu.w.zXoX< dXSXAX5.W ). X0XS c l.@.R -.qXqXqX&Xz j D lXp @ 8 <.( { X.-.qXqX7X!.}.W.7X",
"[.Y.6 X B W.}.`..X.X.X.X Xk.U.{..X.X.X'.!.u.r.cXLXNXaXHXLXLXuX).NXBXGXD c l.@.o.gXZXkXkXuXA Z Z F n G eXzXgXt...fXZXkXwX!.}.W.<X",
"].{.I.N N E.}.I.[.].].].{.OXXX/..X X'.`.9 &.tXMXMXNXaXaXaXNXuX7.xXcXxXJ c l.@.o.gXkXkXkXhXqX9X1XN z S rXlXaXq.( fXZXkXhX.X}..XuX",
"].{.I.N z 1X9X!.}.].[.].|.jX5.5.cX;XS.N.!.T.}.}.`.6 + # 1 T.9.{ o.o.X.d c l.;.X.-.qXqXqXqX2X<X<X4X4X&XD z z h ) -.9XwXkXhX|.OXAX",
"].{.I.N z E.W.W._.].{.].).5.I ; yXH.Z.D.z.G.C.C.c.P.: 2 L.v.j.:.%.3.%.m c l.yXxXpXtX3.T %.5XpXMXMXMXMX-X-X-XJ h 0.:.7XuXiX}.OXAX",
"].{.`.B B I.[.].|.}.U._.i Y & , s.Z.S.n.z.z.z.x.F.b./.R._.F.A.z.N.Q.*XN $XS.>XJXJXxXO.O.4.qXpXHXFXFXFXFXFXNXF g / 0.&X6X!..XDXSX",
"[.[.[.I.E.!.I.|.jXwXN V.i Y & , s.D.*X#.#.1X@.3.I.;.R = 1 _.'.'.z.S.S.f.f.A.>XJXJXPXHXHXHXFXu.t.tXyXyXyX(.r Q ` ~ h S k..XMXLXLX",
"[.R.: 5 k.<XW.|.hX&Xl k.i Y ; K.C.M.#.q.#.5XT Y /.;.T t 6 T..X@XG.F.c.m.d.n.;X>X>X:XMXxXcXJXcXu.3.=.<X<Xq o & { } ^ V E.T.eXiXnX",
"[.1 @ s S 1XW.I.6XV m ~.i W 7 A.S.A ) :.7X2X3.W /.W.2X2X<X7XMXMX}.Y.U.C N 8XB.A.S.n.<X..p.HXJXcXy.4.0X0X8 + & [ } 0.<X`.L., 6 I.",
"[.1 @ s v E.W.1XN M L R 2.0 b.l.F #.>.5X7X7X(.0 !.6X7X7X<X0XGXNXy 4 C . E.`.E.N.N.B.z.k.8XyXCXUXcXcXFXFXpX8 * & ` 0.9X`.L.: . N ",
"[.1 @ s N I.W.&Xl f [ o.2.T.C.n.#.#.7X7X5X=.^.`.Q.7X7X7X~.8 pXHX- P x *.i i (.~.8 E.z.S.z.N.iXZXLXHXcXxXcXpX).t ! L q T.]._.h.c ",
"[.1 @ s N I.W.&Xz ^ [ %.!._.c.z.8X5X<X7X,.R i `.!.2X2X7Xq , uXcXO.^ k ! | { 7.R., 3 6X6XN.z.N.wXZXi. .{ t.HXKXcXw.Q + L.[.[.b.Z.",
"[.1 @ s N I.i &.m ^ ] ,.!._.F.S.N.7X<X,.X.{ 6.T.2.....t y sXu.p.i.#.k P Q 4.4.2.y 1 r r t ;.k.N.u.+.} } +.r.-.eXxXeX2 L./.2.E.Z.",
"[.1 @ s N I.2.` d f T =.!._.v.b.Q.5X=.X.| | 6./.W ' Y & t HXp. .gXrXx % * 8 ..{ i y + + - Y *.m.$.) ) ( ~ ~ ; < iXnX[._.0 T *.Z.",
"[.1 @ s N I.2.` d S -.5X!.[.: , ~.,.X.| | | 6./.W I = I 5.HXu.' o.$.k L & @ I ' R t R.^.@...#.N.m.j.>...{ ~ ; + T.`.[.W.A m h.A.",
"[.R.4 n N I.;.^ ^ 1.0XpXyX}., # 2...{ T &.&.^.T.;.6 > 9.xXpXfX5.4.M k $.2.r - I ' ..=.!.3X=.t 6 B.n.N.9.5.@.3 2 T.`.I.A C $Xd.d.",
"[.W.1Xz N I.B d ` 3.0XMXMX}., $ Y | O.j.A.D.'._.b.l.S.:XMX0XhXkXqXV z Z 6X6X4 = ' } ) 9 }.T., , 8 B.D.mXjX/.T.T.~.W.I.C c f.$Xl ",
"[.W.1Xz N I.B x :.-.7XJ.J._., $ ' O.gXJ.D.mX.XT.@.~.Z.H.H.z.G.J.D.l.g.l.D.D.s.5 ( ( :.3X;.E t 2 , 5 A.@XsXE ..%.r 2 _.x.d.c V Z ",
"[.W.1XS B I.B x :.-.6Xb.c.'.e & o.i.hXG.B.gXsX/.4.@.a.D.H.J.D.z.z.l.g.h.h.h.n.m.1.*.N.M.4X&.;.Y., > c.v.(...} U * e 7 z.g.l V 9X",
"[.W.7X4X!.I.B d ` 3.2X`.v.F.;.W gXlX9Xz.j.O.2.`.3X3 , iXLXZXuX8X6XV z ^ ( ) :.j.n.S.S.A.S.z.'.[.Y.Y._.F.z.5XT R 6 ;.) M.g.l V 0X",
"[.W.2X%.6.T.. d ` ] &.^.'.A.wXi.i.tXM.*.T { 6.`.Q.3XsXCXUXAXhX2X2XV k ^ +.u.fXhXmX@XB.> > B.'.]._.`.W.F.f.C M $.I.E.*XN.*Xl =XMX",
"].W.5XR W T.. m T ..$.^.'.A.#XgX .&.z.3.| ' 6.`.!.pXLXSXAXzXuX7X7XF m h q.zXAXAXzXfX;.r e ~. XT./.(.Q.m.d.c k n U.'.m.*XZ D ,XJX",
"[.W.5XR W T.B x *.1Xm.'.'.A.B.<. .&.z.3.| | 2.].}.nXLXSXzXwX9X7X7X:.^ g F ZXAXzXy.o.R @.^.T. X5X..2.W.C c g.1.T /.9 0.m D ,XJXJX",
"].(.%.3.6.T.B z wX@Xv.0 (.S. XfXi.eXD.sXy.y.gXOX{.nXLXSXZXhX<.#.#.u.u.m m 8.8.y.{ [ 2.(. XW.6 t { ... B h.c.0 6.'.8 P d H JXLXIX",
"].i Y ,.!.`.B S lXhXT.Q 2.z.#XAXzXiXD.mXzXzXzXjX|.nXLXCXAXzXu./ / u.kXD d X.o.[ { 3.R.{..X9Xy = ] / S E.{.Y.Y._.z.> @ s H GXCXAX",
"].i o.gXhX}.B m t.7.R.* e l.J.fX5.-.S. XuXuXu.y./.nXKXNXtXt.q.:.>.wXwXS m :.8.gX7.e , oXDXkXjXdXM K aXDXoX, : T.:.; @   v 0XuXuX",
"].i o.gXhXE.. G T 0 '.: : a.~.%.T *.S.N.<X<X..{ y ).vX>.#.0.>.7X-.,.:.m v Q.hXOX+X1 u jXSXAXkXtXF 5XdXjXdX, L.U.&.2.t n v 1X&XZ ",
"].6.[ ,.&Xz . I.T.'.A.A.a., & R =.N.S.N.7X4Xt.' = ; _ _ q.*.7X-.E [ X.f N I.{.R., u jXAXAXAXrXD lXoX< 8 !.Y.v.z.I.iXMXD z &XV l ",
"[.6.[ =.V l . {.].v.Z.Z.a.# I o.fXmX#XB.N.hXgX5.Q &.xXvXe.4.T 4.8.i.8.*.5 1 +XOXq XXAXi.t.>.F Z uXXX3 ^.(.6.N.z.*.eXyXS l S V V ",
"[.6.[ 3.F x . {.{.'.n.Z.a.+ & E gXzXzXJ.J.zXzXgX+.q.NXKXcXy.Y W jXAXDX.X6 = p kXqXuXzXy./ k V 9X7X8Xj._.i R *.m.0.@.I.N j z Z 7X",
"].i [ [ L k . {.{.;.$.m.a.+ r ,.E o.E N.M.q...+. .W r NXJXHXt = +X|.|.B f ] 4.qX9XhXAXfXF x V 7X<XM.z.'.0 ( &Xf.z A I.N z A 1X7X",
"].i [ R $.x . _.v.*./ h.a.+ 3 5X3.T 3.B.m.h h h ^ P % &X-X-X7 : . . . l g ^ M V V F rX&XS j z V M.b.c.k.1./ A S.=X0XW.k.A 7X9X<X",
"].6.[ ,.Z m . _.F.A ) h.a.+ 3 7X<X5X1Xz.g.z k k k k k x l z . ~.S l z l j k k k z x l l l l k z l.G.`.C g / *XG.hXlX<XI.T.6X0X0X",
"].i ] M M L 0 _.'.*.) h.a.+ 3 7X7XZ v g.l.*X$.! ! ! ) 1.*Xk.@.t.vXpXtXD g ! } ..fX&Xl N *XZ ^ ) E.@XMX0.^ :.M.c.y w n 4 1 T.yXFX",
"].sXt.m m T i {.].*.^ h.a.+ 3 7X7XZ S h.n.N.,.R [ ' [ ;.!.0 4.t.IXUXCXD g ~ } ..fX>.h #.,.,.4.3.T.iXvXw.) 5Xn.c.y w x % < .XnXMX",
"].iXGXJ n 5XW.].].. z g.a.+ 3 7X7X<X1X7XN.S.N.=.R ' Y 0 0 O.4.eXzXUXFXD j k k k z ^  . . . .*.z._.;._ ~ ) 5Xz.G.hXrXn % y NXnX}.",
"].nXKXH N E.v.b.nXyXk.l.x.  *.9X7X7X7X4XN.A.~.T [ W i ^.;.{ { t.zXaX-Xl b b v Z rXrX*.*.*.*.V.v. X:.~ ~ 0.M.K.5 4X1.% 0 iX;XN.W.",
"].iXcXJ N I.c.H.KXNX_.F.g.x D &X<X7X7X2XN.z.;.W W 6.T.!.<.E { +.fXrXm d k j V iXDX.XB.m.n.H.v.T.3X0.~ } #.l.L.4 n   r iX>XD.N.<X",
"].7...M N I.c.H.KXNX_.F.h.^ g S &X9X7X<X7X8X^././.^.9XkXkX-.M m m $.` ] ^ k -XBXJ.~.T R ,.MX@X^.&._ ~ { %.z.;XpXz D NXJ.H.j.6X<X",
"].0 3.m N I.c.H.KXuX: P.Q.( K N V V V V A !.'.v.k.B V rXrXV N D F :.4.4.$.k =X>X>XpXu.p.bXNXwX=.e.w.~ &.3X@X:X-XD =X;X'.5 3XpXpX",
"[.W.1Xz N I.v.H.BXeX, L.(.) #.A S l z l C I.v.l.c l l l x z Z wXzXlX4X2XZ z d.H.BXJXLXLXNX}.@.w.vXxX) k.@XZXrXz *XB.z.: r 9XMXLX",
"[.W.1Xz N I.I.M.H.N.8 b.b.(.&.0.F *Xk.k.E.!.Q.M.g.h.Z Z 4XtXwXwXZXkX7X<Xj.g.;XBXJXLXCXUXDX}.@._ w.>.k.M.iXZX>.l m.n.N.iXaXFXHXUX",
"[.W.1XV . W.yXyXJ.J.M.S.F._.&.( 3XW.}.}.W.7X4X8XS.D.N.6XuXAXuXwXzXhXN.N.B.H.:XGXHXCXkXjXhX9 &.~ } 1.A. XuXtX&X$XH.;XpXHXHXaXdXoX",
"[.W.6XW.I.6XpXKXKX;XS.Z.F._.&.) ^.W.6X6X7X7X<X*XS.Z.S.N.uXZXuXwXkXmXS.A.J.BX-XD lXkX9X}.(.) _ } ] ;.D.mXaXS d.H.BXKXFXCXdX< # # ",
"[.W.6X`./.3.tXMXJXMXB.A.F._.(.;.!.!.7X2X2X2X5X8XS.Z.Z.z.B.@XB.B.@X#XmX;X:XpXD z wXiXW._.9 ( ) :.*.!.mXhXqXd.%XBXIXkXi u u 3 3 3 ",
"[.W.6X`.i Y %.yXFXFXyXn.c.Y.Y.I.!.6X!.Q.j.j.*XN.z.S.S.S.A.Z.D.D.H.nXSXIXHX0XV z Z E.[.T.;.$.>.N.H.nXCXiXN.J.nXNXjXp + + e 2X0X7X",
"].W.6X`.i Y 3.yXFXJXFX XL., 6 !.I.}.`.b.S.S.S.z.N.8Xj.*XB.A.#XCXBXKXLXUXkXqX1XZ S . T.&.#.m.l.H.:XKXLXJ.J.DXoX< < r 9 7 ~.<X7X7X",
"].}.E.k.1.] %.9XeXuXnX@XL.o 3 6XW.(.;.b.G.c.c.b.8X5X2X4X*XB.@XmX:X>X>XnX#XB. XE.. k.b.A &X>X>X;XHXVX>X%Xk.p u e e q 7X0X7X7X7X7X",
"[.{.I.N f ] 3.8 , 1 `.F.a., q 0X7X#.) ;.T.`._.`.!.6X6X6X6X8XB.A.A.A.A.A.A.A.b.T.}.b.l.S.;XFXJXLXCX#Xl.c   @ 3 <X<X<X<X<X7X7X2X5X",
"[.{.I.c g ] - , 2 .XMXH.D.iXNXMXyX#.~ ) ,.!.!.!.W.I.I.I.I.I.'.v.'.'.'.'.'.'.*.<.NXpX#.:XpXu.bXCX@Xm.c % % q ~.7X7X<X<X<X7X<X%.E ",
"[.{.I.B M L ; , T.yXMXH.H.KXHXuX>.0.w.q.q.:.5X6XW..X.X`.I.I.|.OXOXOXOX.X.X9 L _ xXr.^ cXlXW 9.mXJ.$Xx % < 3X7X<X7X7X7X7X7X<X4.' ",
"].{.[.!.Z m . T.!.9X0Xz.H.FXXX* L r.GXpX:.) #.<X9XpXFXyX6X9XhXAXAXAXZXVXvX) ~ _ _ h m aXdX# K.D.N.V x % , 3X7X<X7X7X7X7X7X2X4.' ",
"[.{.[.!.Z l . `.6X2X8Xz.B.u.T Q e.PXJXMXpXxXe.0.pXFXJXFXMXMXHXIXIXbXu.e.w._ t.bXi.2.% 1.1XK.V.M.V G % 4 8 2X7X<X7X7X7X7X-.3.3.%.",
"[.{.[.!.Z l . }.!.<X8XD.k.Y } w.PXJXJXJXJXJXr.w.PXJXJXJXJXJXJXJXJXxX_ ~ ~ _ bXAXAXoX@ s c Z.B.&Xz   # q 0X<X<X<X7X7X7X7X,.[ %.7X"
};
