/* XPM */
static const char *wall[] = {
/* columns rows colors chars-per-pixel */
"64 64 236 2 ",
"   c #AD99A6",
".  c #AE9AA6",
"X  c #B09CA7",
"o  c #B39FA8",
"O  c #B29FA9",
"+  c #B39FA9",
"@  c #B3A0AA",
"#  c #B4A0A9",
"$  c #B5A1AA",
"%  c #B4A1AB",
"&  c #B5A2AA",
"*  c #B6A2AA",
"=  c #B6A3AD",
"-  c #B7A4AC",
";  c #B6A4AE",
":  c #B7A5AE",
">  c #B7A6AE",
",  c #B7A6AF",
"<  c #BBA6AB",
"1  c #B8A4AC",
"2  c #BBA7AD",
"3  c #B8A6AF",
"4  c #B8A7AF",
"5  c #BCA7AC",
"6  c #BCA7AD",
"7  c #BBA9AF",
"8  c #BCA8AC",
"9  c #BCA8AD",
"0  c #BEABAF",
"q  c #BAA9B1",
"w  c #BBABB1",
"e  c #BBAAB2",
"r  c #BBABB2",
"t  c #BBABB3",
"y  c #BCA9B0",
"u  c #BCABB1",
"i  c #BBACB1",
"p  c #BFACB0",
"a  c #BFACB1",
"s  c #BFADB1",
"d  c #BCACB2",
"f  c #BDADB2",
"g  c #BCACB3",
"h  c #BDACB3",
"j  c #BDADB3",
"k  c #BDAEB3",
"l  c #BEAEB3",
"z  c #BDADB4",
"x  c #BDAEB4",
"c  c #BEAEB4",
"v  c #BFAFB4",
"b  c #BEAEB5",
"n  c #BEAFB5",
"m  c #BFB0B4",
"M  c #BFB0B5",
"N  c #BFB0B6",
"B  c #C0ABAE",
"V  c #C0ACAF",
"C  c #C1ACAF",
"Z  c #C0ADAF",
"A  c #C1ADAF",
"S  c #C2AEAF",
"D  c #C2ADB0",
"F  c #C1AEB0",
"G  c #C0AEB1",
"H  c #C1AEB1",
"J  c #C2AEB0",
"K  c #C2AEB1",
"L  c #C2AFB1",
"P  c #C3AFB1",
"I  c #C0AFB3",
"U  c #C0AFB4",
"Y  c #C3B0B1",
"T  c #C2B0B2",
"R  c #C3B0B2",
"E  c #C4B0B2",
"W  c #C4B1B2",
"Q  c #C4B1B3",
"!  c #C5B2B3",
"~  c #C0B0B4",
"^  c #C0B0B5",
"/  c #C0B1B5",
"(  c #C1B1B5",
")  c #C2B1B4",
"_  c #C3B1B4",
"`  c #C2B1B5",
"'  c #C3B2B5",
"]  c #C1B2B6",
"[  c #C0B2B7",
"{  c #C1B2B7",
"}  c #C1B3B7",
"|  c #C3B3B6",
" . c #C5B2B4",
".. c #C5B3B4",
"X. c #C4B3B5",
"o. c #C5B3B5",
"O. c #C6B3B4",
"+. c #C4B3B6",
"@. c #C6B4B5",
"#. c #C4B4B6",
"$. c #C6B5B6",
"%. c #C6B5B7",
"&. c #C7B5B7",
"*. c #C7B6B7",
"=. c #C8B7B7",
"-. c #C1B3B8",
";. c #C2B4B8",
":. c #C3B4B8",
">. c #C2B4B9",
",. c #C2B5B9",
"<. c #C3B5BA",
"1. c #C3B5BB",
"2. c #C3B6BA",
"3. c #C5B5B8",
"4. c #C5B6B8",
"5. c #C5B6B9",
"6. c #C5B7B9",
"7. c #C6B6B8",
"8. c #C7B6B8",
"9. c #C7B7B8",
"0. c #C6B7B9",
"q. c #C7B7B9",
"w. c #C4B6BA",
"e. c #C4B6BB",
"r. c #C4B7BB",
"t. c #C8B7B8",
"y. c #C8B7B9",
"u. c #C6B8B9",
"i. c #C6B8BA",
"p. c #C7B8BA",
"a. c #C6B9BD",
"s. c #C6B9BE",
"d. c #C6B9BF",
"f. c #C6BABE",
"g. c #C7BABE",
"h. c #C6BABF",
"j. c #C7BABF",
"k. c #C9B8B8",
"l. c #C8B8B9",
"z. c #C9B8B9",
"x. c #C9B9B9",
"c. c #C8B9BA",
"v. c #C9B9BA",
"b. c #C9BABA",
"n. c #C9BABB",
"m. c #C9BBBB",
"M. c #CABABA",
"N. c #CABBBB",
"B. c #CBBBBB",
"V. c #CABCBB",
"C. c #CBBCBB",
"Z. c #C9BBBC",
"A. c #C8BBBD",
"S. c #CABBBC",
"D. c #CABCBC",
"F. c #CBBCBC",
"G. c #CABDBC",
"H. c #CBBDBC",
"J. c #CABCBD",
"K. c #CBBCBD",
"L. c #CABDBD",
"P. c #CBBDBD",
"I. c #CBBEBD",
"U. c #C8BDBF",
"Y. c #CBBDBE",
"T. c #CBBEBE",
"R. c #CBBFBE",
"E. c #CBBEBF",
"W. c #CCBDBD",
"Q. c #CCBEBD",
"!. c #CCBEBE",
"~. c #CCBFBE",
"^. c #CCC0BF",
"/. c #CBBEC0",
"(. c #CABFC0",
"). c #CABFC1",
"_. c #CABFC2",
"`. c #CCBFC0",
"'. c #CAC0C2",
"]. c #CBC0C3",
"[. c #CDC0C0",
"{. c #CCC0C1",
"}. c #CDC1C1",
"|. c #CCC1C2",
" X c #CDC1C2",
".X c #CCC1C3",
"XX c #CEC1C2",
"oX c #CDC2C2",
"OX c #CEC2C2",
"+X c #CFC3C2",
"@X c #CFC3C3",
"#X c #CCC2C4",
"$X c #CDC2C4",
"%X c #CDC3C4",
"&X c #CFC4C4",
"*X c #CEC4C5",
"=X c #CFC4C5",
"-X c #CFC5C5",
";X c #CFC5C6",
":X c #CFC5C7",
">X c #CFC6C7",
",X c #CFC5C8",
"<X c #D0C4C4",
"1X c #D0C5C5",
"2X c #D0C6C6",
"3X c #D0C7C7",
"4X c #D1C7C7",
"5X c #D0C6C8",
"6X c #D0C7C9",
"7X c #D1C7C9",
"8X c #D0C7CA",
"9X c #D1C7CA",
"0X c #D1C8C9",
"qX c #D2C8C8",
"wX c #D2C8C9",
"eX c #D2C9C9",
"rX c #D1C8CA",
"tX c #D2C9CA",
"yX c #D2C9CB",
"uX c #D3CACA",
"iX c #D2CACB",
"pX c #D3CACB",
"aX c #D3CACC",
"sX c #D3CBCC",
"dX c #D3CBCD",
"fX c #D4CBCC",
"gX c #D5CCCC",
"hX c #D5CDCC",
"jX c #D4CCCD",
"kX c #D5CDCD",
"lX c #D5CCCE",
"zX c #D5CDCE",
"xX c #D6CDCE",
"cX c #D6CFD0",
"vX c #D7D0D1",
"bX c #D8D0D1",
/* pixels */
"eXXX8.P A P P P A A A P P P A A A A P P P P A A A P P P A 2 $ 2 P.`.8.P A P P P P P P P P P A A A P P P P A A A P P P P A 0 o . ",
"eXXX8.P A P P P P P P P P P A P A A P P P P A A P P P P B 5 $ 2 _._.8.P A P P P P P A A P P A A P P P P A A P A A A P P A 0 o . ",
"eXXX8.P A P P P P P P P P P P P P P P P P P P P P P P P A 5 $ 2 P._.&.P A P P P P P P P P P P P P P P P P P P P P P P P A 0 + . ",
"eXXX8.P A P P P A P P P P P P P P P P P P P P P P P P P A 5 $ 2 P._.&.P A P P P P P A P P P P P P P P P P P P P P P P P A 0 o . ",
"eXXX&.P A A P P P P P P A A P P P P P P P P P P P P P P A 5 $ , P._.&.P A P P P P P P P P P P P P P P P P P P P P P P P A 0 o . ",
"eXXX&.P A A P P P P P P A A P P P P P P P P P P P P P P A 2 $ , P._.&.P A P P P P P P A P P P P P P P P P P A P P P P P A 0 + . ",
"eXXX&.P A P P P P P A A A A P P A A A A A A A A P A P P P 9 $ , P.`.&.P A A P P A A A A P A A A P P A A A A A A A A P P P 0 o . ",
"eXXX&.P A P P P P P P R R R R R R R R R R R R R R R R ..) 0 , q _.XXB...P R R R R R R R R R R R R R R R R R R R R R R ..) 0 $ X ",
"eXXX&.P A A P P P ! &.=.B.B.B.B.B.B.t.t.B.B.B.B.t.t.B.B.8.) u N *XeX~.B.t.B.B.B.B.B.t.t.B.B.B.B.t.t.t.t.B.B.B.B.B.B.B.B.B.&.u 2 ",
"eXXX&.P A A P A P ! B.B.P.P.P.P.P.C.C.C.P.P.P.P.C.C.P.P.B.&.) >.eXfXXX~.C.C.P.P.P.C.C.C.P.P.P.P.C.C.C.C.P.P.P.P.P.P.C.P.B.u.U u ",
"eXXX8.P A A P P P ..B.P.~.P.P.P.P.P.P.P.P.P.P.P.P.P.P.~.S.8.) >.sXjX3X^.P.P.P.P.P.P.P.P.P.P.P.P.P.P.P.P.P.P.P.P.P.P.P.P.P.u.) p ",
"eXXX8.P A P P P A ..B.P.P.P.P.P.P.P.P.P.P.P.P.P.P.P.P.~.P.8.) >.sXjX3X^.P.P.P.P.P.P.P.P.P.P.P.P.P.P.P.P.P.P.P.P.P.P.P.P.P.8.) q ",
"eXXX8.P A P P P A ..B.P.P.P.P.P.P.P.P.P.P.P.P.P.P.P.P.~.P.8.) >.sXjX3X^.P.P.P.P.P.P.P.P.P.P.P.P.P.P.P.P.P.P.P.P.P.P.P.P.P.8.U q ",
"eXXX8.P A P P P P ..B.P.P.P.P.P.P.P.P.P.P.P.P.P.P.P.P.P.P.8.) >.eXjX3X^.P.P.P.P.P.P.P.P.P.P.P.P.P.P.P.P.P.P.P.P.P.P.P.P.P.8.) q ",
"eXXX8.P A P P P P ..B.P.P.P.P.P.P.P.P.P.P.P.P.P.P.P.P.P.P.8.) >.eXjX3X^.P.P.P.P.P.P.P.P.P.P.P.P.P.P.P.P.P.P.P.P.P.P.P.P.P.8.) q ",
"eXXX8.P A P P P P ..B.P.P.P.P.P.P.P.P.P.P.P.P.P.P.P.P.P.P.8.) >.eXjX3X^.P.P.P.P.P.P.P.P.P.P.P.P.P.P.P.P.P.P.P.P.P.P.P.P.P.8.) q ",
"eXXX&.P A A P P P ..B.P.P.P.P.P.P.P.P.P.P.P.P.P.P.P.P.P.P.8.) >.eXjX3X^.P.P.P.P.P.P.P.P.P.P.P.P.P.P.P.P.P.P.P.P.P.P.P.P.P.8.) q ",
"eXXX8.P A A P P P &.B.P.P.P.P.P.P.P.P.P.P.P.P.P.P.P.P.P.P.8.) >.eXjX3X^.P.P.P.P.P.P.P.P.P.P.P.P.P.P.P.P.P.P.P.P.P.P.P.P.P.8.) q ",
"eXXX&.P A A P P P ..B.P.P.P.P.P.P.P.P.P.P.P.P.P.P.P.P.P.P.8.) >.eXjX3X^.P.P.P.P.P.P.P.P.P.P.P.P.P.P.P.P.P.P.P.P.P.P.P.P.P.8.) q ",
"eXXX&.P A A P P P ..B.P.P.P.P.P.P.P.P.P.P.P.P.P.P.P.P.P.P.8.) >.eXjX3X^.P.P.P.P.P.P.P.P.P.P.P.P.P.P.P.P.P.P.P.P.P.P.P.P.P.u.) q ",
"eXXX8.P A P P P P ..B.P.P.P.P.P.P.P.P.P.P.P.P.P.P.P.P.P.P.8.) 8.eXjX3X^.P.P.P.P.P.P.P.P.P.P.P.P.P.P.P.P.P.P.P.P.P.P.P.~.P.u.) q ",
"eXXX8.P A P P P P ..B.P.P.P.P.P.P.P.P.P.P.P.P.P.P.P.P.P.P.8.) >.eXjX3X^.P.P.P.P.P.P.P.P.P.P.P.P.P.P.P.P.P.P.P.P.P.P.P.~.P.u.) q ",
"eXXX8.P A A P P P ..B.P.P.P.P.P.P.P.P.P.P.P.P.P.P.P.P.P.P.8.) >.eXjX3X^.P.P.P.P.P.P.P.P.P.P.P.P.P.P.P.P.P.P.P.P.P.P.P.P.P.u.N q ",
"eXXX8.P A A P P A ..B.P.P.P.P.P.P.P.P.P.P.P.P.P.P.P.P.P.P.8.) >.eXjX3X^.P.P.P.P.P.P.P.P.P.P.P.P.P.P.P.P.P.P.P.P.P.P.P.P.P.u.N q ",
"eXXX8.P A P P P P ..B.P.P.P.P.P.P.P.P.P.P.P.P.P.P.P.P.P.P.8.) >.eXjX3X^.P.P.P.P.P.P.P.P.P.P.P.P.P.P.P.P.P.P.P.P.P.P.P.~.P.u.N q ",
"eXXX8.P A P P P P ..B.P.P.P.P.P.P.P.P.P.P.P.P.P.P.P.P.P.P.8.) >.sXjX3X^.P.P.P.P.P.P.P.P.P.P.P.P.P.P.P.P.P.P.P.P.P.P.P.~.P.u.N q ",
"eXXX&.P A P P P P ..B.P.~.P.P.P.P.P.P.P.P.P.P.P.P.P.P.~.P.8.) 8.sXjX*X^.P.P.P.P.P.P.P.P.P.P.P.P.P.P.P.~.~.P.P.P.P.P.P.~.P.u.N q ",
"3XXX&.P A A A A A ! B.P.P.P.P.P.P.P.P.P.P.P.P.P.P.P.P.~.P.8.) >.sXjXXX~.C.P.P.P.P.P.P.P.P.P.P.P.P.P.P.P.P.P.P.P.P.P.P.~.P.u.) q ",
"a.>.p 0 < 2 5 5 0 p ) 8.u.8.8.8.8.8.8.8.8.8.8.8.8.8.8.u.8.) ) -.].XXS.8.8.8.8.8.8.8.8.8.8.8.8.8.8.8.8.8.8.8.8.8.8.8.8.u.8...p q ",
", , $ # o o o o o , u b b b b b b b b b b b b b b b b b b b b b ) ) N b b b b b b b b b b b b b b b b b b b b b b b b b b b p q ",
"q q q q q q q q q N 8.a.a.a.a.a.a.a.a.a.a.a.a.a.a.a.a.a.a.>.N b 8.a.a.a.a.a.a.a.a.a.a.a.a.a.a.a.a.a.a.a.a.a.a.a.a.a.a.a.a.>.b q ",
"a.a.a.a.a.a.a.a.a._.*X8X8X8X8X8X8X8X8X8X8X8X8X8X8X8X8XeX,X_.>.-.].8X8X8X8X8X8X8X8X8X8X8X8X8X8X8X8X8X8X8X8X8X8X8X8X8X8XeX,X_.-.q ",
"3X*X#XXXXXXXXXXXXX*XeXsXjXjXjXjXjXjXjXjXjXjXjXjXjXjXjXjXeX#X8.>.eXvXcXjXjXjXjXjXjXjXjXjXjXjXjXjXjXjXjXjXjXjXjXjXjXjXjXjXeX#X>.i ",
"eX3XP.B.B.B.B.B.B.P.XX3X3X3X3X3X3X3X3X3X3X3X3X3X3X3X3X3X*X_.>.8.sXvXjXeX3X3X3X3X3X3X3X3X3X3X3X3X3X3X3X3X3X3X3X3X3X3X3X3X*X_.) i ",
"eXXX&.R A P P P P ..B.P.P.P.P.P.P.P.P.P.P.P.P.P.P.P.P.P.P.8.) >.sXjX3XXXP.P.P.P.P.P.P.P.P.P.P.P.P.P.P.P.P.P.P.P.P.P.P.~.P.u.N q ",
"eXXX&.P A A A A A ..B.P.P.P.P.P.P.P.P.P.P.P.P.P.P.P.P.P.C.8.) >.sXjX*X^.P.P.P.P.P.P.P.P.P.P.P.P.P.P.P.P.P.P.P.P.P.P.P.P.C.8.N q ",
"eXXX8.P A P P P P ..B.P.P.P.P.P.P.P.P.P.P.P.P.P.P.P.P.P.P.8.) >.sXjX3X^.P.P.P.P.P.P.P.P.P.P.P.P.P.P.P.P.P.P.P.P.P.P.P.P.P.8.) q ",
"eXXX8.P A P P P P ..B.P.P.P.P.P.P.P.P.P.P.P.P.P.P.P.P.P.P.8.) >.sXjX3X^.P.P.P.P.P.P.P.P.P.P.P.P.P.P.P.P.P.P.P.P.P.P.P.P.P.8.) q ",
"eXXX&.P A P P P P ..B.P.P.P.P.P.P.P.P.P.P.P.P.P.P.P.P.P.P.8.) >.eXjX3X^.P.P.P.P.P.P.P.P.P.P.P.P.P.P.P.P.P.P.P.P.P.P.P.P.P.8.) q ",
"eXXX&.P A P P P P ..B.P.P.P.P.P.P.P.P.P.P.P.P.P.P.P.P.P.P.8.) >.eXjX3X^.P.P.P.P.P.P.P.P.P.P.P.P.P.P.P.P.P.P.P.P.P.P.P.P.P.8.) q ",
"eXXX&.P A P P P P ..B.P.P.P.P.P.P.P.P.P.P.P.P.P.P.P.P.P.P.8.) >.eXjX3X^.P.P.P.P.P.P.P.P.P.P.P.P.P.P.P.P.P.P.P.P.P.P.P.P.P.8.) q ",
"eXXX&.P A P P P P ..B.P.P.P.P.P.P.P.P.P.P.P.P.P.P.P.P.P.P.8.) >.eXjX3X^.P.P.P.P.P.P.P.P.P.P.P.P.P.P.P.P.P.P.P.P.P.P.P.P.P.8.) q ",
"eXXX&.P A P P P P ..B.P.P.P.P.P.P.P.P.P.P.P.P.P.P.P.P.P.P.8.) >.eXjX3X^.P.P.P.P.P.P.P.P.P.P.P.P.P.P.P.P.P.P.P.P.P.P.P.P.P.8.U q ",
"eXXX&.P A P P A P ..B.P.P.P.P.P.P.P.P.P.P.P.P.P.P.P.P.P.P.8.) >.eXjX3X^.P.P.P.P.P.P.P.P.P.P.P.P.P.P.P.P.P.P.P.P.P.P.P.P.P.8.) q ",
"eXXX&.P A P P A P ..B.P.P.P.P.P.P.P.P.P.P.P.P.P.P.P.P.P.P.8.) 8.eXjX3X^.P.P.P.P.P.P.P.P.P.P.P.P.P.P.P.P.P.P.P.P.P.P.P.P.P.8.) q ",
"eXXX8.P A P P A P ..B.P.P.P.P.P.P.P.P.P.P.P.P.P.P.P.P.P.P.8.) >.eXjX3X^.P.P.P.P.P.P.P.P.P.P.P.P.P.P.P.P.P.P.P.P.P.P.P.P.P.u.N q ",
"eXXX&.P A P P P P ..B.P.P.P.P.P.P.P.P.P.P.P.P.P.P.P.P.P.P.8.) >.eXjX3X^.P.P.P.P.P.P.P.P.P.P.P.P.P.P.P.P.P.P.P.P.P.P.P.P.P.u.N q ",
"eXXX&.P A P P P P ..B.P.P.P.P.P.P.P.P.P.P.P.P.P.P.P.P.P.P.8.) >.eXjX3X^.P.P.P.P.P.P.P.P.P.P.P.P.P.P.P.P.P.P.P.P.P.P.P.P.P.u.N q ",
"eXXX&.P A P P P P ..B.P.P.P.P.P.P.P.P.P.P.P.P.P.P.P.P.P.P.8.) >.eXjX3X^.P.P.P.P.P.P.P.P.P.P.P.P.P.P.P.P.P.P.P.P.P.P.P.P.P.8.) q ",
"eXXX8.P A P P P P ..B.P.P.P.P.P.P.P.P.P.P.P.P.P.P.P.P.P.P.8.) >.eXjX3X^.P.P.P.P.P.P.P.P.P.P.P.P.P.P.P.P.P.P.P.P.P.P.P.P.P.8.) q ",
"eXXX8.P A P P P A ..B.P.P.P.P.P.P.P.P.P.P.P.P.P.P.P.P.P.P.8.) >.eXjX3X^.P.P.P.P.P.P.P.P.P.P.P.P.P.P.P.P.P.P.P.P.P.P.P.P.P.8.) q ",
"eXXX8.P A P P P A ..B.P.P.P.P.P.P.P.P.P.P.P.P.P.P.P.P.P.P.8.) >.eXjX3X^.P.P.P.P.P.P.P.P.P.P.P.P.P.P.P.P.P.P.P.P.P.P.P.P.P.u.N q ",
"eXXX&.P A A P A P ..B.P.P.P.P.P.P.P.P.P.P.P.P.P.P.P.P.P.P.8.) >.sXjX3X^.P.P.P.P.P.P.P.P.P.P.P.P.P.P.P.P.P.P.P.P.P.P.P.P.P.u.N q ",
"eXXX&.P A A P A P ..B.P.P.P.P.P.P.P.P.P.P.P.P.P.P.P.P.P.P.8.) >.sXjX3X^.P.P.P.P.P.P.P.P.P.P.P.P.P.P.P.P.P.P.P.P.P.P.P.P.P.u.N q ",
"eXXX&.P A P P P P &.B.P.P.P.P.P.P.P.P.P.P.P.P.P.P.P.P.P.P.8.) >.sXjX3X^.P.P.P.P.P.P.P.P.P.P.P.P.P.P.P.P.P.P.P.P.P.P.P.P.P.u.N q ",
"eXXX&.P A P P P P &.B.P.P.P.P.P.P.P.P.P.P.P.P.P.P.P.P.P.P.8.) >.sXjX3X^.P.P.P.P.P.P.P.P.P.P.P.P.P.P.P.P.P.P.P.P.P.P.P.P.P.u.N q ",
"eXXX8.P A P P P P ..B.P.P.P.P.P.P.P.P.P.P.P.P.P.P.P.P.P.P.8.) >.sXjX3X^.P.P.P.P.P.P.P.P.P.P.P.P.P.P.P.P.P.P.P.P.P.P.P.P.P.u.N q ",
"eXXX8.P A P P P P ..B.P.P.P.P.P.P.P.P.P.P.P.P.P.P.P.P.P.P.8.) >.eXjX3X^.P.P.P.P.P.P.P.P.P.P.P.P.P.P.P.P.P.P.P.P.P.P.P.P.P.u.) q ",
"eXXX8.P A P P P A ..B.P.P.P.P.P.P.P.P.P.P.P.P.P.P.P.P.P.P.8.) >.sXjX3X^.P.P.P.P.P.P.P.P.P.P.P.P.P.P.P.P.P.P.P.P.P.P.P.P.P.8.) q ",
"eXXXt.R A P P P P ..B.P.~.P.P.P.P.P.P.P.P.P.P.P.P.P.P.~.P.8.) 8.sXjX3X^.P.P.P.P.P.P.P.P.P.P.P.P.P.P.P.P.P.P.P.P.P.P.P.~.P.u.) q ",
"*X_.&.P 0 A A A A R B.B.P.P.C.P.P.P.P.P.P.P.C.C.P.P.P.P.B.8.) >.eXeXXXP.P.P.P.P.P.P.P.P.P.P.C.C.P.P.P.P.P.P.C.C.P.P.P.P.B.8.N q ",
"a.>.p 0 2 2 2 2 2 p ) 8.8.8.8.8.8.8.8.8.8.8.8.8.8.8.8.8.8.) b ) _.XXP.B.8.8.8.8.8.8.8.8.8.8.8.8.8.8.8.8.8.8.8.8.8.8.8.8.8.;.p q ",
", , $ # o o o o o , u b ) U U U ) ) ) ) ) U U U ) ) ) ) b p p p ) ;.) ) ) ) ) U ) ) ) ) ) U U U ) ) ) ) ) U U U ) ) ) ) b p p q ",
". . . . . . . . . o , q p q q q q q q q q q q q q q q q q q q q q q q q q q q q q q q q q q q q q q q q q q q q q q q q q q q q "
};
